vegewenqi/Human_Humanoid_Interaction/g1_real_ws/bdcc_exp/runs/real_default/S1_self_collision/run_001/metrics_timeseries.csv
t_sec,q_nom_waist_roll_joint,q_nom_waist_pitch_joint,q_nom_left_shoulder_pitch_joint,q_nom_left_shoulder_roll_joint,q_nom_left_elbow_joint,q_nom_right_shoulder_pitch_joint,q_nom_right_shoulder_roll_joint,q_nom_right_elbow_joint,q_cbf_waist_roll_joint,q_cbf_waist_pitch_joint,q_cbf_left_shoulder_pitch_joint,q_cbf_left_shoulder_roll_joint,q_cbf_left_elbow_joint,q_cbf_right_shoulder_pitch_joint,q_cbf_right_shoulder_roll_joint,q_cbf_right_elbow_joint,correction_norm,self_unsafe_clearance__left_arm__right_arm,self_safe_clearance__left_arm__right_arm,self_unsafe_clearance__left_arm__torso,self_safe_clearance__left_arm__torso,self_unsafe_clearance__right_arm__torso,self_safe_clearance__right_arm__torso,self_unsafe_clearance__left_arm__left_thigh,self_safe_clearance__left_arm__left_thigh,self_unsafe_clearance__right_arm__right_thigh,self_safe_clearance__right_arm__right_thigh,self_unsafe_global_min_clearance,self_safe_global_min_clearance,self_unsafe_global_min_pair,self_safe_global_min_pair
8.001181304001314,0.0,0.0,0.0,0.0,1.5708,0.0,0.0,1.5708,-0.001959222121934787,0.06781672304233237,0.27508293662959854,0.29564055637679604,1.6138718078808525,0.2592766574343507,-0.29747826477651507,1.6153437277914764,0.5720436473727604,0.16561060951136836,0.2783399796500968,-0.016456828261696088,0.04357087095535367,-0.016466778921413905,0.04343025132554745,-0.09503166281295383,0.08266363375505051,-0.09504063407557842,0.07985579564230624,-0.09504063407557842,0.04343025132554745,right_arm__right_thigh,right_arm__torso
8.021181304001313,0.0,0.0,0.0,0.0,1.5708,0.0,0.0,1.5708,-0.0019419170173678182,0.06777120269817245,0.2736499403384082,0.29562748369638137,1.613851804581286,0.25800308468019284,-0.29748263425405486,1.6153089572899089,0.5707649432688507,0.16561060951136836,0.2783725808694655,-0.016456828261696088,0.04352462064147988,-0.016466778921413905,0.04339491487683361,-0.09503166281295383,0.0822786995547711,-0.09504063407557842,0.07951671069703187,-0.09504063407557842,0.04339491487683361,right_arm__right_thigh,right_arm__torso
8.041181304001313,0.0,0.0,0.0,0.0,1.5708,0.0,0.0,1.5708,-0.0019246119128008491,0.06772568235401255,0.27221694404721797,0.2956144110159667,1.6138318012817192,0.25672951192603505,-0.29748700373159465,1.6152741867883416,0.5694898293236414,0.16561060951136836,0.27840497427981914,-0.016456828261696088,0.04347864863780182,-0.016466778921413905,0.04335980519345131,-0.09503166281295383,0.08189426750233483,-0.09504063407557842,0.07917809261345288,-0.09504063407557842,0.04335980519345131,right_arm__right_thigh,right_arm__torso
8.061181304001312,0.0,0.0,0.0,0.0,1.5708,0.0,0.0,1.5708,-0.001913650493613468,0.06769478004618983,0.27071483677974034,0.295601646286632,1.6138235547886257,0.2553878306242345,-0.2974934024888287,1.6152526309526651,0.5681596894046241,0.16561060951136836,0.2784392425606962,-0.016456828261696088,0.04343093105554863,-0.016466778921413905,0.04332339163621848,-0.09503166281295383,0.08149430722604811,-0.09504063407557842,0.07882721500044954,-0.09504063407557842,0.04332339163621848,right_arm__right_thigh,right_arm__torso
8.081181304001312,0.0,0.0,0.0,0.0,1.5708,0.0,0.0,1.5708,-0.001911594616249805,0.06768439917443961,0.2691157085137457,0.29558931387243564,1.613831813012506,0.25395053557690733,-0.2975026500372792,1.6152496264405076,0.5667515740170999,0.16561060951136836,0.27847618885132186,-0.016456828261696088,0.04338069929211827,-0.016466778921413905,0.043285100235333496,-0.09503166281295383,0.08107242349519492,-0.09504063407557842,0.07845902644771618,-0.09504063407557842,0.043285100235333496,right_arm__right_thigh,right_arm__torso
8.101181304001312,0.0,0.0,0.0,0.0,1.5708,0.0,0.0,1.5708,-0.0019095387388861423,0.0676740183026894,0.26751658024775116,0.29557698145823924,1.6138400712363863,0.2525132405295802,-0.2975118975857297,1.61524662192835,0.5653481295162566,0.16561060951136836,0.27851287358813703,-0.016456828261696088,0.0433308163006485,-0.016466778921413905,0.04324709904450935,-0.09503166281295383,0.08065116847383791,-0.09504063407557842,0.07809144112304076,-0.09504063407557842,0.04324709904450935,right_arm__right_thigh,right_arm__torso
8.121181304001311,0.0,0.0,0.0,0.0,1.5708,0.0,0.0,1.5708,-0.0019038073252692158,0.0676743167767872,0.26598292959697867,0.29556592282042,1.6138573958859206,0.25113643451677387,-0.297521017563236,1.6152521035452254,0.5640104295905778,0.16561060951136836,0.2785479332973473,-0.016456828261696088,0.043283445077689636,-0.016466778921413905,0.043211016600230495,-0.09503166281295383,0.08025084659861006,-0.09504063407557842,0.07774144185499246,-0.09504063407557842,0.043211016600230495,right_arm__right_thigh,right_arm__torso
8.14118130400131,0.0,0.0,0.0,0.0,1.5708,0.0,0.0,1.5708,-0.001888488693691725,0.0677024711089874,0.2646200698527344,0.295558186683297,1.6138983692748161,0.24991740726554557,-0.2975298047864546,1.6152797202637776,0.5628358767950785,0.16561060951136836,0.27857922179166533,-0.016456828261696088,0.043242002422125336,-0.016466778921413905,0.043179419265372526,-0.09503166281295383,0.07990399068866638,-0.09504063407557842,0.07743621536361955,-0.09504063407557842,0.043179419265372526,right_arm__right_thigh,right_arm__torso
8.16118130400131,0.0,0.0,0.0,0.0,1.5708,0.0,0.0,1.5708,-0.0018731700621142339,0.0677306254411876,0.26325721010849007,0.29555045054617396,1.6139393426637116,0.24869838001431727,-0.29753859200967314,1.6153073369823296,0.5616648268927372,0.16561060951136836,0.2786103217044269,-0.016456828261696088,0.04320081452981095,-0.016466778921413905,0.04314803138206441,-0.09503166281295383,0.07955759943083124,-0.09504063407557842,0.07713141530086623,-0.09504063407557842,0.04314803138206441,right_arm__right_thigh,right_arm__torso
8.18118130400131,0.0,0.0,0.0,0.0,1.5708,0.0,0.0,1.5708,-0.001857851430536743,0.0677587797733878,0.2618943503642458,0.29554271440905094,1.6139803160526072,0.24747935276308894,-0.29754737923289176,1.6153349537008816,0.5604973018393925,0.16561060951136836,0.2786412329827082,-0.016456828261696088,0.0431598819429852,-0.016466778921413905,0.04311685330266288,-0.09503166281295383,0.07921167777301538,-0.09504063407557842,0.0768270454026416,-0.09504063407557842,0.04311685330266288,right_arm__right_thigh,right_arm__torso
8.20118130400131,0.0,0.0,0.0,0.0,1.5708,0.0,0.0,1.5708,-0.001850108340719524,0.06782265340826461,0.2600108157399513,0.29553068207983485,1.614055797581554,0.2457824602203542,-0.29756103833184233,1.6153936257238974,0.5588904976229698,0.16561060951136836,0.2786837304962544,-0.016456828261696088,0.04310348485894333,-0.016466778921413905,0.043074061805791514,-0.09503166281295383,0.07873679518200546,-0.09504063407557842,0.07641177308605437,-0.09504063407557842,0.043074061805791514,right_arm__right_thigh,right_arm__torso
8.221181304001309,0.0,0.0,0.0,0.0,1.5708,0.0,0.0,1.5708,-0.0018476102199504827,0.06791125750373289,0.2577667889269201,0.2955156752578015,1.6141551710158197,0.24375471494886888,-0.29757807050142326,1.615473799062047,0.5569857023619497,0.16561060951136836,0.2787339309387676,-0.016456828261696088,0.04303680847907665,-0.016466778921413905,0.043023590375919685,-0.09503166281295383,0.0781733972035683,-0.09504063407557842,0.07592045829510838,-0.09504063407557842,0.043023590375919685,right_arm__right_thigh,right_arm__torso
8.241181304001309,0.0,0.0,0.0,0.0,1.5708,0.0,0.0,1.5708,-0.0018424769168288294,0.0679823364594166,0.2559324293566512,0.2955027851178337,1.614232782118627,0.24209917351072607,-0.29759103179646157,1.6155362959142197,0.555435389541765,0.16561060951136836,0.2787742769809017,-0.016456828261696088,0.04298270757439862,-0.016466778921413905,0.04298264263017562,-0.09503166281295383,0.07771354526161567,-0.09504063407557842,0.0755189505913004,-0.09504063407557842,0.04298264263017562,right_arm__right_thigh,right_arm__torso
8.261181304001308,0.0,0.0,0.0,0.0,1.5708,0.0,0.0,1.5708,-0.001833180563189254,0.06802572926951556,0.2547452604544083,0.29549323890370865,1.6142760131774272,0.24103163819657436,-0.297597561940215,1.6155708675247007,0.554434320853803,0.16561060951136836,0.278799613266777,-0.016456828261696088,0.04294772238346828,-0.016466778921413905,0.042956109780694696,-0.09503166281295383,0.07741590438957024,-0.09504063407557842,0.075258013646048,-0.09504063407557842,0.04294772238346828,right_arm__right_thigh,left_arm__torso
8.281181304001308,0.0,0.0,0.0,0.0,1.5708,0.0,0.0,1.5708,-0.0018238842095496784,0.0680691220796145,0.25355809155216547,0.2954836926895836,1.6143192442362273,0.23996410288242265,-0.2976040920839685,1.6156054391351815,0.5534360565265204,0.16561060951136836,0.2788248054835764,-0.016456828261696088,0.04291293303101068,-0.016466778921413905,0.04292973921869456,-0.09503166281295383,0.0771186326509519,-0.09504063407557842,0.07499741698819634,-0.09504063407557842,0.04291293303101068,right_arm__right_thigh,left_arm__torso
8.301181304001307,0.0,0.0,0.0,0.0,1.5708,0.0,0.0,1.5708,-0.0018145878559101029,0.06811251488971345,0.25237092264992256,0.29547414647545855,1.6143624752950274,0.23889656756827093,-0.29761062222772194,1.6156400107456623,0.5524406117624197,0.16561060951136836,0.2788498535977724,-0.016456828261696088,0.04287833986310893,-0.016466778921413905,0.042903531171231135,-0.09503166281295383,0.07682173329720357,-0.09504063407557842,0.07473716308671924,-0.09504063407557842,0.04287833986310893,right_arm__right_thigh,left_arm__torso
8.321181304001307,0.0,0.0,0.0,0.0,1.5708,0.0,0.0,1.5708,-0.001796138933365908,0.06816407277588535,0.2511188977090403,0.2954643171462639,1.6144152869667319,0.2377756708600399,-0.2976168907735718,1.61568099145882,0.5513974160294577,0.16561060951136836,0.27887595065453596,-0.016456828261696088,0.042842112622826695,-0.016466778921413905,0.042876078553342994,-0.09503166281295383,0.0765120171500113,-0.09504063407557842,0.0744638368153129,-0.09504063407557842,0.042842112622826695,right_arm__right_thigh,left_arm__torso
8.341181304001307,0.0,0.0,0.0,0.0,1.5708,0.0,0.0,1.5708,-0.0017538988787385032,0.06823685491126484,0.24969828637479208,0.2954537518894751,1.6144930024254962,0.23651606686777576,-0.29762247932341795,1.6157386319545923,0.5502263601842957,0.16561060951136836,0.278904967307494,-0.016456828261696088,0.042801377867367096,-0.016466778921413905,0.04284517126649651,-0.09503166281295383,0.0761684914554833,-0.09504063407557842,0.07415605300015712,-0.09504063407557842,0.042801377867367096,right_arm__right_thigh,left_arm__torso
8.361181304001306,0.0,0.0,0.0,0.0,1.5708,0.0,0.0,1.5708,-0.0017116588241110986,0.06830963704664433,0.24827767504054385,0.2954431866326862,1.6145707178842603,0.23525646287551166,-0.2976280678732642,1.6157962724503645,0.5490594021868571,0.16561060951136836,0.27893378102351774,-0.016456828261696088,0.04276092512921434,-0.016466778921413905,0.04281449069935642,-0.09503166281295383,0.0758255121473427,-0.09504063407557842,0.07384873371560394,-0.09504063407557842,0.04276092512921434,right_arm__right_thigh,left_arm__torso
8.381181304001306,0.0,0.0,0.0,0.0,1.5708,0.0,0.0,1.5708,-0.0016694187694836938,0.06838241918202383,0.24685706370629565,0.2954326213758973,1.6146484333430244,0.23399685888324753,-0.2976336564231104,1.615853912946137,0.5478965682210053,0.16561060951136836,0.2789623917479702,-0.016456828261696088,0.042720754984443526,-0.016466778921413905,0.04278403721680804,-0.09503166281295383,0.0754830846172311,-0.09504063407557842,0.07354188283984928,-0.09504063407557842,0.042720754984443526,right_arm__right_thigh,left_arm__torso
8.401181304001305,0.0,0.0,0.0,0.0,1.5708,0.0,0.0,1.5708,-0.0015550092435095476,0.06851037568812726,0.24502952906033793,0.2954206199589928,1.6147933132057881,0.23240748571722736,-0.29763649065891057,1.6159522380626754,0.5464281825063643,0.16561060951136836,0.2789978295047881,-0.016456828261696088,0.042669779340414354,-0.016466778921413905,0.04274514894123621,-0.09503166281295383,0.07506291735677209,-0.09504063407557842,0.07315068236928263,-0.09504063407557842,0.042669779340414354,right_arm__right_thigh,left_arm__torso
8.421181304001305,0.0,0.0,0.0,0.0,1.5708,0.0,0.0,1.5708,-0.0014303096163397165,0.06864619909206941,0.24314397428511733,0.2954084137708375,1.6149477695349024,0.23077109324919698,-0.29763893217782184,1.6160563640927716,0.5449228065206472,0.16561060951136836,0.2790339302537015,-0.016456828261696088,0.042617708049751124,-0.016466778921413905,0.042705399177998454,-0.09503166281295383,0.07463255118176587,-0.09504063407557842,0.07274811382528978,-0.09504063407557842,0.042617708049751124,right_arm__right_thigh,left_arm__torso
8.441181304001304,0.0,0.0,0.0,0.0,1.5708,0.0,0.0,1.5708,-0.0013275397872189833,0.06876973250960691,0.2414932616520546,0.29539580246303443,1.6150875586728433,0.22932969900252637,-0.297640764346483,1.6161502125986509,0.5436072838812489,0.16561060951136836,0.27906491560428837,-0.016456828261696088,0.04257217657444323,-0.016466778921413905,0.042670644714360495,-0.09503166281295383,0.07425605009567371,-0.09504063407557842,0.07239588745783285,-0.09504063407557842,0.04257217657444323,right_arm__right_thigh,left_arm__torso
8.461181304001304,0.0,0.0,0.0,0.0,1.5708,0.0,0.0,1.5708,-0.0012661925615315402,0.0688700517036527,0.24028613600060705,0.29538242593566716,1.6151996433493887,0.22825663163125598,-0.2976414455299092,1.616224648166528,0.5426408931718981,0.16561060951136836,0.2790866843249389,-0.016456828261696088,0.04253835489510416,-0.016466778921413905,0.042644837256319235,-0.09503166281295383,0.07397999619940523,-0.09504063407557842,0.0721377995322573,-0.09504063407557842,0.04253835489510416,right_arm__right_thigh,left_arm__torso
8.481181304001304,0.0,0.0,0.0,0.0,1.5708,0.0,0.0,1.5708,-0.0012048453358440969,0.06897037089769847,0.23907901034915954,0.29536904940829983,1.6153117280259344,0.22718356425998557,-0.29764212671333534,1.6162990837344053,0.5416776534700125,0.16561060951136836,0.2791083063754134,-0.016456828261696088,0.04250473822308326,-0.016466778921413905,0.04261919528331096,-0.09503166281295383,0.07370434246774471,-0.09504063407557842,0.07188003890613487,-0.09504063407557842,0.04250473822308326,right_arm__right_thigh,left_arm__torso
8.501181304001303,0.0,0.0,0.0,0.0,1.5708,0.0,0.0,1.5708,-0.0011434981101566537,0.06907069009174424,0.237871884697712,0.29535567288093256,1.61542381270248,0.22611049688871515,-0.29764280789676145,1.6163735193022826,0.5407175816153007,0.16561060951136836,0.2791297817241684,-0.016456828261696088,0.0424713268970601,-0.016466778921413905,0.04259371901264708,-0.09503166281295383,0.07342909191810845,-0.09504063407557842,0.07162260778542665,-0.09504063407557842,0.0424713268970601,right_arm__right_thigh,left_arm__torso
8.521181304001303,0.0,0.0,0.0,0.0,1.5708,0.0,0.0,1.5708,-0.0011138393391828514,0.06920459806821389,0.23646939200931988,0.29533396690532693,1.615568968136963,0.22482802508050084,-0.29764478261738997,1.6164813486179754,0.539593871349284,0.16561060951136836,0.27915393215565165,-0.016456828261696088,0.04243162460396224,-0.016466778921413905,0.04256369614184269,-0.09503166281295383,0.07310473987943691,-0.09504063407557842,0.07132676997983356,-0.09504063407557842,0.04243162460396224,right_arm__right_thigh,left_arm__torso
8.541181304001302,0.0,0.0,0.0,0.0,1.5708,0.0,0.0,1.5708,-0.00110881135468193,0.06936461391694307,0.23491504452667197,0.295305786620297,1.6157398287938878,0.22338278749467294,-0.297647762777978,1.6166151342095234,0.5383455582180964,0.16561060951136836,0.27918004467265933,-0.016456828261696088,0.04238718313970377,-0.016466778921413905,0.042530281698489686,-0.09503166281295383,0.07274247886032337,-0.09504063407557842,0.07100137467002504,-0.09504063407557842,0.04238718313970377,right_arm__right_thigh,left_arm__torso
8.561181304001302,0.0,0.0,0.0,0.0,1.5708,0.0,0.0,1.5708,-0.0011037833701810086,0.06952462976567225,0.2333606970440241,0.29527760633526706,1.6159106894508126,0.221937549908845,-0.297650742938566,1.6167489198010712,0.5371028677774623,0.16561060951136836,0.27920590222606384,-0.016456828261696088,0.04234308213441548,-0.016466778921413905,0.04249716855012223,-0.09503166281295383,0.07238084138334461,-0.09504063407557842,0.07067659845823077,-0.09504063407557842,0.04234308213441548,right_arm__right_thigh,left_arm__torso
8.581181304001301,0.0,0.0,0.0,0.0,1.5708,0.0,0.0,1.5708,-0.001148470616718989,0.06966140573892489,0.23209596332870502,0.2952470630625903,1.616047329913433,0.2207273526312131,-0.29765274187797786,1.6168693056232486,0.5360791131976798,0.16561060951136836,0.27922560553750203,-0.016456828261696088,0.042306044075340526,-0.016466778921413905,0.042469577429247785,-0.09503166281295383,0.07207710433228567,-0.09504063407557842,0.0704145450003808,-0.09504063407557842,0.042306044075340526,right_arm__right_thigh,left_arm__torso
8.601181304001301,0.0,0.0,0.0,0.0,1.5708,0.0,0.0,1.5708,-0.0012059006474511812,0.06979222497192489,0.2309054621103416,0.2952159141195585,1.616175199209914,0.21957739982719007,-0.2976544893151954,1.6169862568768687,0.5351137129589703,0.16561060951136836,0.27924363097320754,-0.016456828261696088,0.04227094311829513,-0.016466778921413905,0.04244352674769106,-0.09503166281295383,0.07178842075421485,-0.09504063407557842,0.07016884097441334,-0.09504063407557842,0.04227094311829513,right_arm__right_thigh,left_arm__torso
8.6211813040013,0.0,0.0,0.0,0.0,1.5708,0.0,0.0,1.5708,-0.0012633306781833732,0.06992304420492489,0.22971496089197818,0.29518476517652664,1.616303068506395,0.21842744702316705,-0.29765623675241293,1.6171032081304888,0.5341517932035337,0.16561060951136836,0.279261500700502,-0.016456828261696088,0.04223604221663346,-0.016466778921413905,0.04241766740380373,-0.09503166281295383,0.07150008441271566,-0.09504063407557842,0.06992354997566619,-0.09504063407557842,0.04223604221663346,right_arm__right_thigh,left_arm__torso
8.6411813040013,0.0,0.0,0.0,0.0,1.5708,0.0,0.0,1.5708,-0.0012995698642790548,0.07004773699587985,0.2285171537504922,0.29515227828065377,1.616420775712636,0.21728771147840403,-0.29765496462512087,1.617214610388396,0.5331897692493697,0.16561060951136836,0.2792783906177847,-0.016456828261696088,0.04220092098560321,-0.016466778921413905,0.042391672890555565,-0.09503166281295383,0.07121157584748197,-0.09504063407557842,0.06967543373382773,-0.09504063407557842,0.04220092098560321,right_arm__right_thigh,left_arm__torso
8.6611813040013,0.0,0.0,0.0,0.0,1.5708,0.0,0.0,1.5708,-0.0013049359652170425,0.07016350413190153,0.227308702560098,0.2951178421122198,1.6165236777007395,0.21616286152789752,-0.2976492932738317,1.617317928276844,0.5322259520226913,0.16561060951136836,0.27929392495368854,-0.016456828261696088,0.042165392037806865,-0.016466778921413905,0.042365388115049,-0.09503166281295383,0.07092268343018016,-0.09504063407557842,0.06942299166956295,-0.09504063407557842,0.042165392037806865,right_arm__right_thigh,left_arm__torso
8.6811813040013,0.0,0.0,0.0,0.0,1.5708,0.0,0.0,1.5708,-0.0013103020661550302,0.07027927126792322,0.2261002513697038,0.29508340594378585,1.616626579688843,0.21503801157739103,-0.2976436219225426,1.617421246165292,0.5312655843253857,0.16561060951136836,0.27930930460012965,-0.016456828261696088,0.04213007054515783,-0.016466778921413905,0.04233928682726684,-0.09503166281295383,0.070634181042525,-0.09504063407557842,0.06917093849342135,-0.09504063407557842,0.04213007054515783,right_arm__right_thigh,left_arm__torso
8.701181304001299,0.0,0.0,0.0,0.0,1.5708,0.0,0.0,1.5708,-0.0013152935891332892,0.07039090969183295,0.22490873456356616,0.29504869809426487,1.6167254592203826,0.21392955087522628,-0.29763746645460276,1.6175204374170573,0.5303207939981326,0.16561060951136836,0.2793240761720827,-0.016456828261696088,0.04209530886630483,-0.016466778921413905,0.0423136418670422,-0.09503166281295383,0.07034937384226506,-0.09504063407557842,0.06892217035439277,-0.09504063407557842,0.04209530886630483,right_arm__right_thigh,left_arm__torso
8.721181304001298,0.0,0.0,0.0,0.0,1.5708,0.0,0.0,1.5708,-0.0013181846396991628,0.07047939607044848,0.22381217851533686,0.29501246677382603,1.6168017825421321,0.21291299404275668,-0.2976285962682902,1.617596488261645,0.5294470033388782,0.16561060951136836,0.27933616668746775,-0.016456828261696088,0.04206270808383469,-0.016466778921413905,0.04228969012807196,-0.09503166281295383,0.07008344193664923,-0.09504063407557842,0.06868998409566773,-0.09504063407557842,0.04206270808383469,right_arm__right_thigh,left_arm__torso
8.741181304001298,0.0,0.0,0.0,0.0,1.5708,0.0,0.0,1.5708,-0.0013210756902650364,0.070567882449064,0.22271562246710758,0.2949762354533872,1.6168781058638817,0.2118964372102871,-0.2976197260819776,1.6176725391062323,0.528576037543588,0.16561060951136836,0.2793481300591329,-0.016456828261696088,0.042030278855264225,-0.016466778921413905,0.042265888880444746,-0.09503166281295383,0.0698178433976599,-0.09504063407557842,0.0684581272871409,-0.09504063407557842,0.042030278855264225,right_arm__right_thigh,left_arm__torso
8.761181304001298,0.0,0.0,0.0,0.0,1.5708,0.0,0.0,1.5708,-0.0013239667408309098,0.07065636882767955,0.2216190664188783,0.2949400041329483,1.6169544291856313,0.2108798803778175,-0.29761085589566505,1.61774858995082,0.5277079105993175,0.16561060951136836,0.27935996626382503,-0.016456828261696088,0.04199802143354625,-0.016466778921413905,0.04224223829929202,-0.09503166281295383,0.06955258065604711,-0.09504063407557842,0.06822660190556487,-0.09504063407557842,0.04199802143354625,right_arm__right_thigh,left_arm__torso
8.781181304001297,0.0,0.0,0.0,0.0,1.5708,0.0,0.0,1.5708,-0.0013160901511248245,0.07073008640892695,0.22065160975128792,0.29490648887599075,1.6170200790971707,0.2099919816410745,-0.29760072048805064,1.6178123932471389,0.5269447118083872,0.16561060951136836,0.2793694963162422,-0.016456828261696088,0.041969418368148215,-0.016466778921413905,0.04222126325125586,-0.09503166281295383,0.06931950264019046,-0.09504063407557842,0.06802151540175116,-0.09504063407557842,0.041969418368148215,right_arm__right_thigh,left_arm__torso
8.801181304001297,0.0,0.0,0.0,0.0,1.5708,0.0,0.0,1.5708,-0.0013032982327330703,0.07079706217009837,0.21974308576281099,0.29487421347701553,1.6170808566951804,0.20916281414094381,-0.2975900075185563,1.6178706056503915,0.5262301807378961,0.16561060951136836,0.2793779393121929,-0.016456828261696088,0.041942531574001685,-0.016466778921413905,0.04220154897036549,-0.09503166281295383,0.06910121559870372,-0.09504063407557842,0.06782858350625703,-0.09504063407557842,0.041942531574001685,right_arm__right_thigh,left_arm__torso
8.821181304001296,0.0,0.0,0.0,0.0,1.5708,0.0,0.0,1.5708,-0.0012905063143413159,0.07086403793126979,0.21883456177433405,0.2948419380780403,1.6171416342931901,0.20833364664081314,-0.29757929454906196,1.6179288180536442,0.5255175816108586,0.16561060951136836,0.2793862963869591,-0.016456828261696088,0.04191576308062084,-0.016466778921413905,0.04218193511746368,-0.09503166281295383,0.06888316720325074,-0.09504063407557842,0.06763587234764504,-0.09504063407557842,0.04191576308062084,right_arm__right_thigh,left_arm__torso
8.841181304001296,0.0,0.0,0.0,0.0,1.5708,0.0,0.0,1.5708,-0.0012777143959495617,0.07093101369244122,0.21792603778585715,0.29480966267906505,1.6172024118911998,0.20750447914068246,-0.2975685815795676,1.6179870304568968,0.5248069222970332,0.16561060951136836,0.2793945675277605,-0.016456828261696088,0.04188911303039752,-0.016466778921413905,0.042162421787166504,-0.09503166281295383,0.0686653588815005,-0.09504063407557842,0.06744338302433928,-0.09504063407557842,0.04188911303039752,right_arm__right_thigh,left_arm__torso
8.861181304001295,0.0,0.0,0.0,0.0,1.5708,0.0,0.0,1.5708,-0.0012450514698703432,0.07100696426937987,0.21690808208804396,0.29477263681250965,1.617276280625508,0.20658779413287653,-0.29755418817425283,1.6180537998201603,0.5240167368122702,0.16561060951136836,0.27940297636837136,-0.016456828261696088,0.04185923149142634,-0.016466778921413905,0.04214049188792082,-0.09503166281295383,0.06842524544348469,-0.09504063407557842,0.0672273901093001,-0.09504063407557842,0.04185923149142634,right_arm__right_thigh,left_arm__torso
8.881181304001295,0.0,0.0,0.0,0.0,1.5708,0.0,0.0,1.5708,-0.0011996669885589698,0.0710886605848476,0.21582006746033824,0.29473256966407013,1.6173585303949447,0.2056150798171874,-0.2975374385287159,1.6181260474078356,0.5231769928946087,0.16561060951136836,0.2794114146685611,-0.016456828261696088,0.04182736522744249,-0.016466778921413905,0.04211708143476256,-0.09503166281295383,0.0681710284535317,-0.09504063407557842,0.06699648930843805,-0.09504063407557842,0.04182736522744249,right_arm__right_thigh,left_arm__torso
8.901181304001295,0.0,0.0,0.0,0.0,1.5708,0.0,0.0,1.5708,-0.0011542825072475965,0.07117035690031533,0.21473205283263253,0.29469250251563056,1.6174407801643815,0.20464236550149828,-0.2975206888831789,1.6181982949955107,0.5223400199453034,0.16561060951136836,0.2794197324967578,-0.016456828261696088,0.04179566921876343,-0.016466778921413905,0.04209380942842289,-0.09503166281295383,0.0679171660673488,-0.09504063407557842,0.06676588622833032,-0.09504063407557842,0.04179566921876343,right_arm__right_thigh,left_arm__torso
8.921181304001294,0.0,0.0,0.0,0.0,1.5708,0.0,0.0,1.5708,-0.0010976292558227494,0.07125926508634087,0.21359587610610536,0.29464981042033844,1.6175331556678434,0.20363162024894338,-0.29750200440472746,1.6182774495811516,0.5214711613966306,0.16561060951136836,0.2794278299980255,-0.016456828261696088,0.04176259132571039,-0.016466778921413905,0.04206953459980972,-0.09503166281295383,0.06765491091434356,-0.09504063407557842,0.06652545135411542,-0.09504063407557842,0.04176259132571039,right_arm__right_thigh,left_arm__torso
8.941181304001294,0.0,0.0,0.0,0.0,1.5708,0.0,0.0,1.5708,-0.0010126894497760094,0.07136627631008974,0.2123388042130872,0.2946005292561615,1.6176509485083976,0.20252541079203054,-0.29747846316228405,1.618373941921779,0.5205186643482945,0.16561060951136836,0.2794355324299514,-0.016456828261696088,0.0417258237078032,-0.016466778921413905,0.042042559142340535,-0.09503166281295383,0.06737112606906842,-0.09504063407557842,0.06625992928410612,-0.09504063407557842,0.0417258237078032,right_arm__right_thigh,left_arm__torso
8.961181304001293,0.0,0.0,0.0,0.0,1.5708,0.0,0.0,1.5708,-0.0009277496437292692,0.07147328753383861,0.21108173232006902,0.2945512480919845,1.6177687413489519,0.2014192013351177,-0.29745492191984063,1.6184704342624066,0.5195699040837235,0.16561060951136836,0.2794430770321749,-0.016456828261696088,0.04168928363495453,-0.016466778921413905,0.04201576277493607,-0.09503166281295383,0.06708781983386711,-0.09504063407557842,0.06599477737066486,-0.09504063407557842,0.04168928363495453,right_arm__right_thigh,left_arm__torso
8.981181304001293,0.0,0.0,0.0,0.0,1.5708,0.0,0.0,1.5708,-0.0008391743993124401,0.07156126143461627,0.21001984502816196,0.29450850346005,1.6178665979450644,0.20049305760224034,-0.29743279571735654,1.6185464104625396,0.5187716556798714,0.16561060951136836,0.2794486327345897,-0.016456828261696088,0.04165838857717574,-0.016466778921413905,0.0419930204304991,-0.09503166281295383,0.0668509745728463,-0.09504063407557842,0.06576863001258262,-0.09504063407557842,0.04165838857717574,right_arm__right_thigh,left_arm__torso
9.001181304001292,0.0,0.0,0.0,0.0,1.5708,0.0,0.0,1.5708,-0.0007469168632952226,0.07162995266097218,0.20915565786042975,0.2944723796026471,1.6179442613600585,0.19974930026561966,-0.2974121027917501,1.6186016061118491,0.518124305873177,0.16561060951136836,0.27945223954209436,-0.016456828261696088,0.041633118503984046,-0.016466778921413905,0.04197430854623621,-0.09503166281295383,0.06666099972758929,-0.09504063407557842,0.06558182878883759,-0.09504063407557842,0.041633118503984046,right_arm__right_thigh,left_arm__torso
9.021181304001292,0.0,0.0,0.0,0.0,1.5708,0.0,0.0,1.5708,-0.000654659327278005,0.07169864388732809,0.20829147069269754,0.2944362557452442,1.618021924775053,0.19900554292899897,-0.2973914098661437,1.6186568017611587,0.5174787048832331,0.16561060951136836,0.2794557734717821,-0.016456828261696088,0.04160795632739528,-0.016466778921413905,0.041955677783936496,-0.09503166281295383,0.06647126285109806,-0.09504063407557842,0.06539519156566095,-0.09504063407557842,0.04160795632739528,right_arm__right_thigh,left_arm__torso
9.041181304001292,0.0,0.0,0.0,0.0,1.5708,0.0,0.0,1.5708,-0.0005624017912607873,0.071767335113684,0.20742728352496537,0.2944001318878413,1.618099588190047,0.19826178559237828,-0.29737071694053724,1.618711997410468,0.5168348592636098,0.16561060951136836,0.27945923451398585,-0.016456828261696088,0.04158290216528038,-0.016466778921413905,0.041937128211759406,-0.09503166281295383,0.06628176517040404,-0.09504063407557842,0.06520871911752482,-0.09504063407557842,0.04158290216528038,right_arm__right_thigh,left_arm__torso
9.061181304001291,0.0,0.0,0.0,0.0,1.5708,0.0,0.0,1.5708,-0.00047437326044791166,0.07184937853709181,0.2062997030451042,0.29434685304723623,1.61819515643889,0.1972573139565204,-0.29734301825119314,1.6187702832447324,0.5159776767864898,0.16561060951136836,0.27946273253418835,-0.016456828261696088,0.041549236741576095,-0.016466778921413905,0.041912261562844416,-0.09503166281295383,0.06602612282103071,-0.09504063407557842,0.06496056735868705,-0.09504063407557842,0.041549236741576095,right_arm__right_thigh,left_arm__torso
9.08118130400129,0.0,0.0,0.0,0.0,1.5708,0.0,0.0,1.5708,-0.000389678423904459,0.07194194740103359,0.20496449151897542,0.29428005105723093,1.618304838938984,0.19604732312091522,-0.2973097969688758,1.6188310050494856,0.5149546992932863,0.16561060951136836,0.27946615706874345,-0.016456828261696088,0.04150892274431364,-0.016466778921413905,0.04188253747163839,-0.09503166281295383,0.06571863599877975,-0.09504063407557842,0.06466407257351461,-0.09504063407557842,0.04150892274431364,right_arm__right_thigh,left_arm__torso
9.10118130400129,0.0,0.0,0.0,0.0,1.5708,0.0,0.0,1.5708,-0.0003116665460849387,0.07202633983172868,0.2037408413902332,0.29421840983235503,1.6184049823047326,0.19493765609541225,-0.29727912441944576,1.6188868242584793,0.5140202705023769,0.16561060951136836,0.2794690193822231,-0.016456828261696088,0.04147212592776922,-0.016466778921413905,0.04185542968431019,-0.09503166281295383,0.06543718736720358,-0.09504063407557842,0.06439243138329825,-0.09504063407557842,0.04147212592776922,right_arm__right_thigh,left_arm__torso
9.12118130400129,0.0,0.0,0.0,0.0,1.5708,0.0,0.0,1.5708,-0.0002695779602708883,0.0720667810110069,0.20311687365074546,0.2941845095647969,1.618453849413552,0.19436726541056634,-0.29726215222034547,1.6189162902628023,0.5135408176430917,0.16561060951136836,0.2794697513496943,-0.016456828261696088,0.041452988780188216,-0.016466778921413905,0.041841342042020835,-0.09503166281295383,0.0652930028225728,-0.09504063407557842,0.06425206921736032,-0.09504063407557842,0.041452988780188216,right_arm__right_thigh,left_arm__torso
9.14118130400129,0.0,0.0,0.0,0.0,1.5708,0.0,0.0,1.5708,-0.00022748937445683798,0.07210722219028512,0.20249290591125768,0.29415060929723885,1.6185027165223718,0.1937968747257204,-0.29724518002124517,1.6189457562671254,0.513062325499742,0.16561060951136836,0.27947044255669684,-0.016456828261696088,0.041433908074734405,-0.016466778921413905,0.04182730249325575,-0.09503166281295383,0.0651489417559668,-0.09504063407557842,0.06411181452883319,-0.09504063407557842,0.041433908074734405,right_arm__right_thigh,left_arm__torso
9.161181304001289,0.0,0.0,0.0,0.0,1.5708,0.0,0.0,1.5708,-0.00018540078864278764,0.07214766336956334,0.2018689381717699,0.29411670902968073,1.6185515836311914,0.19322648404087447,-0.2972282078221448,1.6189752222714484,0.5125847967627801,0.16561060951136836,0.2794710929993925,-0.016456828261696088,0.04141488385641276,-0.016466778921413905,0.04181331106826591,-0.09503166281295383,0.06500500465193845,-0.09504063407557842,0.06397166770468021,-0.09504063407557842,0.04141488385641276,right_arm__right_thigh,left_arm__torso
9.181181304001289,0.0,0.0,0.0,0.0,1.5708,0.0,0.0,1.5708,-0.00014331220282873727,0.07218810454884156,0.20124497043228212,0.29408280876212267,1.618600450740011,0.19265609335602857,-0.2972112356230445,1.6190046882757716,0.5121082341272668,0.16561060951136836,0.27947170267395793,-0.016456828261696088,0.0413959161700897,-0.016466778921413905,0.04179936779720045,-0.09503166281295383,0.06486119199596374,-0.09504063407557842,0.06383162913257581,-0.09504063407557842,0.0413959161700897,right_arm__right_thigh,left_arm__torso
9.201181304001288,0.0,0.0,0.0,0.0,1.5708,0.0,0.0,1.5708,-0.00010394346702314527,0.07221512518153018,0.20052891139977935,0.2940821788823098,1.618649561643819,0.19198799625757607,-0.29723585538097624,1.6190304951268462,0.5116009313843377,0.16561060951136836,0.2794879822982716,-0.016456828261696088,0.041381334816604304,-0.016466778921413905,0.041791373644107094,-0.09503166281295383,0.06470341560279755,-0.09504063407557842,0.06367990291907172,-0.09504063407557842,0.041381334816604304,right_arm__right_thigh,left_arm__torso
9.221181304001288,0.0,0.0,0.0,0.0,1.5708,0.0,0.0,1.5708,-7.54518503562614e-05,0.07218847488247347,0.1994445644239536,0.29421460265257693,1.6186996475231323,0.19092915544233424,-0.2974268080875788,1.619041668433532,0.5109695016968167,0.16561060951136836,0.2795669935165667,-0.016456828261696088,0.04138420114241259,-0.016466778921413905,0.04180710409252128,-0.09503166281295383,0.06448971381735782,-0.09504063407557842,0.06348144830818345,-0.09504063407557842,0.04138420114241259,right_arm__right_thigh,left_arm__torso
9.241181304001287,0.0,0.0,0.0,0.0,1.5708,0.0,0.0,1.5708,-4.696023368937755e-05,0.07216182458341676,0.1983602174481279,0.2943470264228441,1.6187497334024454,0.18987031462709245,-0.2976177607941814,1.6190528417402177,0.5103419055384499,0.16561060951136836,0.27964586837538835,-0.016456828261696088,0.0413872502789355,-0.016466778921413905,0.04182301212249642,-0.09503166281295383,0.06427662668921075,-0.09504063407557842,0.06328366815770828,-0.09504063407557842,0.0413872502789355,right_arm__right_thigh,left_arm__torso
9.261181304001287,0.0,0.0,0.0,0.0,1.5708,0.0,0.0,1.5708,-3.1961366187691506e-05,0.07211597009259887,0.19726128324997871,0.2945062872513985,1.618793616342297,0.18875020527222686,-0.29788266743920977,1.619044989821019,0.5097434365123357,0.16561060951136836,0.2797442602099505,-0.016456828261696088,0.04139518871571546,-0.016466778921413905,0.041851741986469126,-0.09503166281295383,0.06406376314045914,-0.09504063407557842,0.06309288635867999,-0.09504063407557842,0.04139518871571546,right_arm__right_thigh,left_arm__torso
9.281181304001286,0.0,0.0,0.0,0.0,1.5708,0.0,0.0,1.5708,-6.59271013688813e-05,0.07200042442113878,0.19610941265343002,0.29476293860282715,1.618814989083338,0.18740775503909338,-0.2984159497256675,1.6189680961805988,0.5092420912827764,0.16561060951136836,0.2799137979171624,-0.016456828261696088,0.041420406960794576,-0.016466778921413905,0.04192660584462568,-0.09503166281295383,0.06385024414404072,-0.09504063407557842,0.0629263281901567,-0.09504063407557842,0.041420406960794576,right_arm__right_thigh,left_arm__torso
9.301181304001286,0.0,0.0,0.0,0.0,1.5708,0.0,0.0,1.5708,-9.989283655007108e-05,0.07188487874967871,0.19495754205688132,0.29501958995425587,1.618836361824379,0.18606530480595992,-0.29894923201212514,1.6188912025401785,0.5087471319087018,0.16561060951136836,0.280083135187519,-0.016456828261696088,0.04144583705822594,-0.016466778921413905,0.042001763998710334,-0.09503166281295383,0.06363760422132178,-0.09504063407557842,0.06276145233661484,-0.09504063407557842,0.04144583705822594,right_arm__right_thigh,left_arm__torso
9.321181304001286,0.0,0.0,0.0,0.0,1.5708,0.0,0.0,1.5708,-0.00012792513815172916,0.07179387762953333,0.19404822368642416,0.2952282032156303,1.6188501215030995,0.1849875301526596,-0.2993947638645544,1.6188295363041418,0.5083719541784916,0.16561060951136836,0.28022257551988694,-0.016456828261696088,0.04146718053806292,-0.016466778921413905,0.04206554978753271,-0.09503166281295383,0.06347160611908167,-0.09504063407557842,0.0626359084632224,-0.09504063407557842,0.04146718053806292,right_arm__right_thigh,left_arm__torso
9.341181304001285,0.0,0.0,0.0,0.0,1.5708,0.0,0.0,1.5708,-0.0001455949995164469,0.07174574232101828,0.19356251045345113,0.295352920393799,1.6188505853553377,0.18437199794994633,-0.29968704404302493,1.618794463956075,0.5081977480233542,0.16561060951136836,0.2803100612088934,-0.016456828261696088,0.04148111018294762,-0.016466778921413905,0.042109096291922304,-0.09503166281295383,0.06338591859001125,-0.09504063407557842,0.0625769095031494,-0.09504063407557842,0.04148111018294762,right_arm__right_thigh,left_arm__torso
9.361181304001285,0.0,0.0,0.0,0.0,1.5708,0.0,0.0,1.5708,-0.00016326486088116468,0.07169760701250324,0.19307679722047807,0.2954776375719677,1.6188510492075758,0.18375646574723303,-0.2999793242214955,1.6187593916080079,0.5080248986756664,0.16561060951136836,0.28039750649058526,-0.016456828261696088,0.04149507778666808,-0.016466778921413905,0.042152704389525175,-0.09503166281295383,0.06330039901972143,-0.09504063407557842,0.06251830060231478,-0.09504063407557842,0.04149507778666808,right_arm__right_thigh,left_arm__torso
9.381181304001284,0.0,0.0,0.0,0.0,1.5708,0.0,0.0,1.5708,-0.00018093472224588243,0.0716494717039882,0.19259108398750505,0.2956023547501364,1.6188515130598138,0.18314093354451977,-0.30027160439996603,1.618724319259941,0.5078534075208083,0.16561060951136836,0.28048491135821624,-0.016456828261696088,0.04150908334791251,-0.016466778921413905,0.04219637403974552,-0.09503166281295383,0.06321504775054909,-0.09504063407557842,0.06246008237033593,-0.09504063407557842,0.04150908334791251,right_arm__right_thigh,left_arm__torso
9.401181304001284,0.0,0.0,0.0,0.0,1.5708,0.0,0.0,1.5708,-0.00019860458361060018,0.07160133639547314,0.19210537075453202,0.2957270719283051,1.618851976912052,0.1825254013418065,-0.3005638845784365,1.618689246911874,0.5076832759351381,0.16561060951136836,0.280572275805063,-0.016456828261696088,0.04152312686529924,-0.016466778921413905,0.04224010520178714,-0.09503166281295383,0.0631298651247656,-0.09504063407557842,0.06240225541421113,-0.09504063407557842,0.04152312686529924,right_arm__right_thigh,left_arm__torso
9.421181304001284,0.0,0.0,0.0,0.0,1.5708,0.0,0.0,1.5708,-0.00021627444497531796,0.0715532010869581,0.191619657521559,0.2958517891064738,1.6188524407642901,0.18190986913909324,-0.3008561647569071,1.6186541745638072,0.507514505285941,0.16561060951136836,0.2806595998244255,-0.016456828261696088,0.041537208337377285,-0.016466778921413905,0.042283897834653694,-0.09503166281295383,0.0630448514845734,-0.09504063407557842,0.062344820338302714,-0.09504063407557842,0.041537208337377285,right_arm__right_thigh,left_arm__torso
9.441181304001283,0.0,0.0,0.0,0.0,1.5708,0.0,0.0,1.5708,-0.0002339443063400357,0.07150506577844305,0.19113394428858593,0.2959765062846425,1.6188529046165283,0.18129433693637997,-0.3011484449353776,1.6186191022157403,0.5073470969313767,0.16561060951136836,0.2807468834096266,-0.016456828261696088,0.041551327762625656,-0.016466778921413905,0.042327751897149435,-0.09503166281295383,0.06296000717210293,-0.09504063407557842,0.06228777774431987,-0.09504063407557842,0.041551327762625656,right_arm__right_thigh,left_arm__torso
9.461181304001283,0.0,0.0,0.0,0.0,1.5708,0.0,0.0,1.5708,-0.00024786431097494283,0.07142474281548347,0.19040562187579607,0.29621733289882585,1.6188367088693014,0.18038806777454758,-0.3016171079099091,1.6185721245691223,0.5071518515580825,0.16561060951136836,0.28089336567867196,-0.016456828261696088,0.04158258999527539,-0.016466778921413905,0.042399552061032214,-0.09503166281295383,0.0628487563534568,-0.09504063407557842,0.06221384768017704,-0.09504063407557842,0.04158258999527539,right_arm__right_thigh,left_arm__torso
9.481181304001282,0.0,0.0,0.0,0.0,1.5708,0.0,0.0,1.5708,-0.00025741857337836175,0.07130694562018217,0.18939484356711747,0.29659333904247054,1.6188011173098649,0.17914331031512495,-0.30229112321578416,1.6185112862690423,0.5069274950112095,0.16561060951136836,0.28110867219385877,-0.016456828261696088,0.041633898530463814,-0.016466778921413905,0.04250401511065144,-0.09503166281295383,0.06270727420852157,-0.09504063407557842,0.0621211675870498,-0.09504063407557842,0.041633898530463814,right_arm__right_thigh,left_arm__torso
9.501181304001282,0.0,0.0,0.0,0.0,1.5708,0.0,0.0,1.5708,-0.0002669728357817807,0.07118914842488087,0.18838406525843884,0.29696934518611523,1.6187655257504285,0.17789855285570236,-0.30296513852165924,1.6184504479689625,0.5067093262130467,0.16561060951136836,0.2813237959122367,-0.016456828261696088,0.04168537373398584,-0.016466778921413905,0.0426087265034466,-0.09503166281295383,0.06256670311427678,-0.09504063407557842,0.062030218717647245,-0.09504063407557842,0.04168537373398584,right_arm__right_thigh,left_arm__torso
9.521181304001281,0.0,0.0,0.0,0.0,1.5708,0.0,0.0,1.5708,-0.0002765270981851996,0.07107135122957958,0.18737328694976024,0.29734535132976,1.618729934190992,0.17665379539627973,-0.3036391538275343,1.6183896096688826,0.5064973531595314,0.16561060951136836,0.2815387367461037,-0.016456828261696088,0.04173701550940795,-0.016466778921413905,0.04271368578916934,-0.09503166281295383,0.062427046232957834,-0.09504063407557842,0.06194100545851894,-0.09504063407557842,0.04173701550940795,right_arm__right_thigh,left_arm__torso
9.541181304001281,0.0,0.0,0.0,0.0,1.5708,0.0,0.0,1.5708,-0.0002833525588748512,0.07098001667338875,0.18605282383136498,0.29781531329514993,1.6186977401035816,0.1750294421338815,-0.3044960606348506,1.6183401682673078,0.5062166283381997,0.16561060951136836,0.28181072575789856,-0.016456828261696088,0.041800768485954654,-0.016466778921413905,0.04284678942084719,-0.09503166281295383,0.06224797866778886,-0.09504063407557842,0.0618280943891564,-0.09504063407557842,0.041800768485954654,right_arm__right_thigh,left_arm__torso
9.56118130400128,0.0,0.0,0.0,0.0,1.5708,0.0,0.0,1.5708,-0.00028936026948346967,0.07089661227392854,0.18463955632305645,0.2983134313484147,1.6186665641491529,0.1732913339961924,-0.30540777521342016,1.6182941422163715,0.5059246777442572,0.16561060951136836,0.2820995330439536,-0.016456828261696088,0.0418684071383342,-0.016466778921413905,0.042988706752567885,-0.09503166281295383,0.06205841950546717,-0.09504063407557842,0.06171058892697168,-0.09504063407557842,0.0418684071383342,right_arm__right_thigh,left_arm__torso
9.58118130400128,0.0,0.0,0.0,0.0,1.5708,0.0,0.0,1.5708,-0.00029497177603746724,0.07081748395467016,0.1832680503907327,0.2987968938790771,1.6186368344066044,0.1716049327853063,-0.30629210782939986,1.6182504953727304,0.5056530289040221,0.16561060951136836,0.28237939230846937,-0.016456828261696088,0.04193436845445994,-0.016466778921413905,0.043126811432934786,-0.09503166281295383,0.061876361438500393,-0.09504063407557842,0.061599793730689356,-0.09504063407557842,0.04193436845445994,right_arm__right_thigh,left_arm__torso
9.60118130400128,0.0,0.0,0.0,0.0,1.5708,0.0,0.0,1.5708,-0.00029635481371747494,0.0707839918973966,0.1823422428860778,0.2991239460438342,1.6186225392913651,0.17047037128430267,-0.30688420775576,1.6182322405054568,0.5054791460901196,0.16561060951136836,0.28256726889021716,-0.016456828261696088,0.04197919258563301,-0.016466778921413905,0.04321943724171015,-0.09503166281295383,0.06175749779345255,-0.09504063407557842,0.061528595644391004,-0.09504063407557842,0.04197919258563301,right_arm__right_thigh,left_arm__torso
9.62118130400128,0.0,0.0,0.0,0.0,1.5708,0.0,0.0,1.5708,-0.0002977378513974826,0.07075049984012305,0.1814164353814229,0.2994509982085912,1.618608244176126,0.16933580978329904,-0.3074763076821201,1.6182139856381834,0.5053103558568501,0.16561060951136836,0.2827549949860251,-0.016456828261696088,0.042024155516612094,-0.016466778921413905,0.0433122662852459,-0.09503166281295383,0.06163935148318525,-0.09504063407557842,0.06145873981039085,-0.09504063407557842,0.042024155516612094,right_arm__right_thigh,left_arm__torso
9.641181304001279,0.0,0.0,0.0,0.0,1.5708,0.0,0.0,1.5708,-0.00029912088907749023,0.07071700778284949,0.18049062787676798,0.2997780503733483,1.6185939490608867,0.1682012482822954,-0.30806840760848025,1.6181957307709098,0.5051466633091343,0.16561060951136836,0.2829425705383745,-0.016456828261696088,0.04206925717578608,-0.016466778921413905,0.04340529822724279,-0.09503166281295383,0.06152192456789682,-0.09504063407557842,0.06139022881217546,-0.09504063407557842,0.04206925717578608,right_arm__right_thigh,left_arm__torso
9.661181304001278,0.0,0.0,0.0,0.0,1.5708,0.0,0.0,1.5708,-0.0003005039267574979,0.07068351572557593,0.17956482037211308,0.3001051025381054,1.6185796539456474,0.16706668678129177,-0.30866050753484037,1.6181774759036365,0.5049880734042367,0.16561060951136836,0.2831299954900642,-0.016456828261696088,0.042114497490581826,-0.016466778921413905,0.0434985327291765,-0.09503166281295383,0.06140521910129837,-0.09504063407557842,0.06132306519786307,-0.09504063407557842,0.042114497490581826,right_arm__right_thigh,left_arm__torso
9.681181304001278,0.0,0.0,0.0,0.0,1.5708,0.0,0.0,1.5708,-0.0003001079933119484,0.0706227888738381,0.17818819701029479,0.3006397699118915,1.6185529897517603,0.16539378968810314,-0.3095669738729658,1.6181482426981315,0.5048088690550829,0.16561060951136836,0.2834222403678976,-0.016456828261696088,0.042191022518452276,-0.016466778921413905,0.043642583488473774,-0.09503166281295383,0.0612467622841775,-0.09504063407557842,0.06123539493239005,-0.09504063407557842,0.042191022518452276,right_arm__right_thigh,left_arm__torso
9.701181304001278,0.0,0.0,0.0,0.0,1.5708,0.0,0.0,1.5708,-0.0002995567203077497,0.07055968388291003,0.17677220845852049,0.301192566222385,1.6185252454913168,0.16367388519153744,-0.31050089065081793,1.6181180508653665,0.5046392524748357,0.16561060951136836,0.28372330161620185,-0.016456828261696088,0.042270583891326874,-0.016466778921413905,0.043791505282292725,-0.09503166281295383,0.06108635093013026,-0.09504063407557842,0.061148936637152124,-0.09504063407557842,0.042270583891326874,right_arm__right_thigh,left_arm__torso
9.721181304001277,0.0,0.0,0.0,0.0,1.5708,0.0,0.0,1.5708,-0.0002999808453872954,0.07049618511988386,0.17539403343693943,0.301734658705172,1.6184981978190798,0.16199660285868117,-0.31141591953253556,1.6180868233115457,0.5044904452457972,0.16561060951136836,0.28401790130141435,-0.016456828261696088,0.04234908639541865,-0.016466778921413905,0.04393797217428416,-0.09503166281295383,0.060932853624373035,-0.09504063407557842,0.06106887193761479,-0.09504063407557842,0.04234908639541865,right_arm__right_thigh,left_arm__torso
9.741181304001277,0.0,0.0,0.0,0.0,1.5708,0.0,0.0,1.5708,-0.0003105414401215685,0.07042859422361505,0.17440882176819875,0.3021655155534591,1.618478389186306,0.16076225585270273,-0.312134662826655,1.618044832403535,0.5044408516858623,0.16561060951136836,0.28424880941622926,-0.016456828261696088,0.0424134527645261,-0.016466778921413905,0.04405447838557336,-0.09503166281295383,0.06083379210121395,-0.09504063407557842,0.061024393731039545,-0.09504063407557842,0.0424134527645261,right_arm__right_thigh,left_arm__torso
9.761181304001276,0.0,0.0,0.0,0.0,1.5708,0.0,0.0,1.5708,-0.00032110203485584155,0.07036100332734625,0.17342361009945803,0.30259637240174614,1.6184585805535319,0.1595279088467243,-0.3128534061207744,1.6180028414955243,0.5043976040727997,0.16561060951136836,0.28447953159198464,-0.016456828261696088,0.04247797528270239,-0.016466778921413905,0.04417121928047835,-0.09503166281295383,0.060735670676161646,-0.09504063407557842,0.06098168151375011,-0.09504063407557842,0.04247797528270239,right_arm__right_thigh,left_arm__torso
9.781181304001276,0.0,0.0,0.0,0.0,1.5708,0.0,0.0,1.5708,-0.00033166262959011456,0.07029341243107745,0.17243839843071734,0.3030272292500332,1.6184387719207578,0.15829356184074586,-0.3135721494148938,1.6179608505875134,0.5043607040390545,0.16561060951136836,0.2847100677282252,-0.016456828261696088,0.04254265379642633,-0.016466778921413905,0.04428819431073655,-0.09503166281295383,0.0606384916625278,-0.09504063407557842,0.06094073785736112,-0.09504063407557842,0.04254265379642633,right_arm__right_thigh,left_arm__torso
9.801181304001275,0.0,0.0,0.0,0.0,1.5708,0.0,0.0,1.5708,-0.00034222322432438763,0.07022582153480865,0.17145318676197663,0.3034580860983203,1.6184189632879837,0.15705921483476742,-0.3142908927090132,1.6179188596795027,0.5043301529779158,0.16561060951136836,0.28494041772500756,-0.016456828261696088,0.04260748815091839,-0.016466778921413905,0.04440540292502759,-0.09503166281295383,0.06054225735886887,-0.09504063407557842,0.06090156526809257,-0.09504063407557842,0.04260748815091839,right_arm__right_thigh,left_arm__torso
9.821181304001275,0.0,0.0,0.0,0.0,1.5708,0.0,0.0,1.5708,-0.00032201957797570353,0.07007910279793007,0.17007633648174497,0.30422064456617653,1.6183390238633004,0.15550171572874302,-0.3152531670918433,1.617865694071266,0.5044083925364338,0.16561060951136836,0.28528297316119205,-0.016456828261696088,0.04272823684363003,-0.016466778921413905,0.04456390067874838,-0.09503166281295383,0.060455323575245246,-0.09504063407557842,0.060861343080885366,-0.09504063407557842,0.04272823684363003,right_arm__right_thigh,left_arm__torso
9.841181304001275,0.0,0.0,0.0,0.0,1.5708,0.0,0.0,1.5708,-0.0002967873599951958,0.06991945021316283,0.16863547087910183,0.3050374213503532,1.6182492557549326,0.15389139576883593,-0.3162552478694048,1.617810701901457,0.5045155592497829,0.16561060951136836,0.2856435299781318,-0.016456828261696088,0.042858416513130354,-0.016466778921413905,0.0447294890707019,-0.09503166281295383,0.06037213472819572,-0.09504063407557842,0.06082375699249193,-0.09504063407557842,0.042858416513130354,right_arm__right_thigh,left_arm__torso
9.861181304001274,0.0,0.0,0.0,0.0,1.5708,0.0,0.0,1.5708,-0.000271555142014688,0.06975979762839558,0.16719460527645869,0.3058541981345299,1.6181594876465648,0.15228107580892883,-0.3172573286469662,1.6177557097316482,0.5046353416415648,0.16561060951136836,0.286003702994904,-0.016456828261696088,0.04298892455281278,-0.016466778921413905,0.04489546705448938,-0.09503166281295383,0.0602914395237196,-0.09504063407557842,0.060789372987307216,-0.09504063407557842,0.04298892455281278,right_arm__right_thigh,left_arm__torso
9.881181304001274,0.0,0.0,0.0,0.0,1.5708,0.0,0.0,1.5708,-0.00025808708987019147,0.06956170428800866,0.16553405878103328,0.3068502888894005,1.6180610607209907,0.15042030569932718,-0.3184292252488302,1.6176679246301917,0.504827863533,0.16561060951136836,0.2864318161923801,-0.016456828261696088,0.043149915108304265,-0.016466778921413905,0.0450903607078432,-0.09503166281295383,0.0602153950328802,-0.09504063407557842,0.060757418652685774,-0.09504063407557842,0.043149915108304265,right_arm__right_thigh,left_arm__torso
9.901181304001273,0.0,0.0,0.0,0.0,1.5708,0.0,0.0,1.5708,-0.0002587874719618063,0.06931731397037949,0.1636089347264589,0.308062340404839,1.6179522053567272,0.14825790039307535,-0.3198056433078398,1.6175406446336498,0.505113174384052,0.16561060951136836,0.2869415926375936,-0.016456828261696088,0.04334772987633084,-0.016466778921413905,0.04532022396941965,-0.09503166281295383,0.06014607647618539,-0.09504063407557842,0.06072979954515814,-0.09504063407557842,0.04334772987633084,right_arm__right_thigh,left_arm__torso
9.921181304001273,0.0,0.0,0.0,0.0,1.5708,0.0,0.0,1.5708,-0.0002594878540534211,0.06907292365275032,0.16168381067188456,0.3092743919202775,1.6178433499924638,0.14609549508682348,-0.32118206136684935,1.6174133646371078,0.5054217377762381,0.16561060951136836,0.2874506532583088,-0.016456828261696088,0.043546116559674414,-0.016466778921413905,0.04555078059233958,-0.09503166281295383,0.0600815163865229,-0.09504063407557842,0.06070823452693663,-0.09504063407557842,0.043546116559674414,right_arm__right_thigh,left_arm__torso
9.941181304001272,0.0,0.0,0.0,0.0,1.5708,0.0,0.0,1.5708,-0.00030459847059122376,0.06881489062514771,0.16000688202683278,0.3103851354018064,1.617766799629861,0.14404626685641952,-0.3224940673574307,1.6172324591401122,0.5057571754623017,0.16561060951136836,0.28792613251709276,-0.016456828261696088,0.043729579886491676,-0.016466778921413905,0.045771397304629785,-0.09503166281295383,0.06003688152996417,-0.09504063407557842,0.06069591972715416,-0.09504063407557842,0.043729579886491676,right_arm__right_thigh,left_arm__torso
9.961181304001272,0.0,0.0,0.0,0.0,1.5708,0.0,0.0,1.5708,-0.0003731275270706603,0.06854966351293514,0.1584608319813691,0.31144245705079376,1.6177072843662765,0.14205671925113642,-0.3237721075251603,1.6170232758018175,0.5061134344848999,0.16561060951136836,0.2883837100326453,-0.016456828261696088,0.04390526830832872,-0.016466778921413905,0.0459870110180923,-0.09503166281295383,0.06000373826019928,-0.09504063407557842,0.06069084161880098,-0.09504063407557842,0.04390526830832872,right_arm__right_thigh,left_arm__torso
9.981181304001272,0.0,0.0,0.0,0.0,1.5708,0.0,0.0,1.5708,-0.0004416565835500968,0.06828443640072257,0.15691478193590538,0.3124997786997811,1.617647769102692,0.14006717164585333,-0.3250501476928899,1.616814092463523,0.5064876514345501,0.16561060951136836,0.2888407456934378,-0.016456828261696088,0.04408131408991123,-0.016466778921413905,0.0462032065246859,-0.09503166281295383,0.059973832745823435,-0.09504063407557842,0.060691219120171086,-0.09504063407557842,0.04408131408991123,right_arm__right_thigh,left_arm__torso
10.001181304001271,0.0,0.0,0.0,0.0,1.5708,0.0,0.0,1.5708,-0.0005101856400295334,0.06801920928851,0.15536873189044167,0.31355710034876844,1.6175882538391075,0.13807762404057022,-0.3263281878606195,1.6166049091252286,0.5068797865375587,0.16561060951136836,0.2892972387498256,-0.016456828261696088,0.044257715820004984,-0.016466778921413905,0.04641998093493788,-0.09503166281295383,0.05994716931499677,-0.09504063407557842,0.060697058529302905,-0.09504063407557842,0.044257715820004984,right_arm__right_thigh,left_arm__torso
10.02118130400127,0.0,0.0,0.0,0.0,1.5708,0.0,0.0,1.5708,-0.0007015567676426513,0.06747641909072671,0.15262030514660385,0.3155110556347893,1.6175171924205891,0.13393744966046112,-0.3289745957564929,1.6161150287288824,0.5077334104203558,0.16561060951136836,0.2901951892112212,-0.016456828261696088,0.04458593665660987,-0.016466778921413905,0.046870569589315875,-0.09503166281295383,0.05991706718413528,-0.09504063407557842,0.0607268315673625,-0.09504063407557842,0.04458593665660987,right_arm__right_thigh,left_arm__torso
10.04118130400127,0.0,0.0,0.0,0.0,1.5708,0.0,0.0,1.5708,-0.0008934979543970777,0.0669323408376969,0.1498662986708234,0.3174691718259178,1.6174460774211512,0.12978729511279852,-0.33162735367988455,1.6156238457338221,0.5086588213058967,0.16561060951136836,0.2910931842480755,-0.016456828261696088,0.044915960992439025,-0.016466778921413905,0.047324725162834064,-0.09503166281295383,0.05989746195669718,-0.09504063407557842,0.06078068334124748,-0.09504063407557842,0.044915960992439025,right_arm__right_thigh,left_arm__torso
10.06118130400127,0.0,0.0,0.0,0.0,1.5708,0.0,0.0,1.5708,-0.0009820435032343081,0.06662699322084839,0.14836277419226748,0.31855822877191203,1.617392419345679,0.12736742993361017,-0.33319168616253847,1.6153636771693696,0.5092415098148273,0.16561060951136836,0.29160889830442754,-0.016456828261696088,0.04510033126541699,-0.016466778921413905,0.04759387753813096,-0.09503166281295383,0.05989851416546518,-0.09504063407557842,0.06082801887145428,-0.09504063407557842,0.04510033126541699,right_arm__right_thigh,left_arm__torso
10.08118130400127,0.0,0.0,0.0,0.0,1.5708,0.0,0.0,1.5708,-0.0010567828313495574,0.06635352284681797,0.14702622417037456,0.31953124190793036,1.6173410922596978,0.12517860696679428,-0.3346106832889148,1.6151343555176414,0.5097905778790633,0.16561060951136836,0.29207322915090184,-0.016456828261696088,0.045265410951826374,-0.016466778921413905,0.04783877846527662,-0.09503166281295383,0.05990395129916523,-0.09504063407557842,0.06087893132463709,-0.09504063407557842,0.045265410951826374,right_arm__right_thigh,left_arm__torso
10.101181304001269,0.0,0.0,0.0,0.0,1.5708,0.0,0.0,1.5708,-0.0011315221594648064,0.06608005247278757,0.14568967414848163,0.32050425504394875,1.6172897651737166,0.12298978399997841,-0.33602968041529113,1.6149050338659134,0.5103580093410466,0.16561060951136836,0.2925370402606207,-0.016456828261696088,0.04543074480155057,-0.016466778921413905,0.04808435128595684,-0.09503166281295383,0.059911955171211034,-0.09504063407557842,0.060936478100207636,-0.09504063407557842,0.04543074480155057,right_arm__right_thigh,left_arm__torso
10.121181304001269,0.0,0.0,0.0,0.0,1.5708,0.0,0.0,1.5708,-0.0012062614875800557,0.06580658209875716,0.1443531241265887,0.3214772681799671,1.6172384380877354,0.12080096103316253,-0.33744867754166746,1.6146757122141853,0.5109437430200551,0.16561060951136836,0.29300033072346654,-0.016456828261696088,0.04559633177208278,-0.016466778921413905,0.04833059188656105,-0.09503166281295383,0.05992252690555666,-0.09504063407557842,0.061000659275587066,-0.09504063407557842,0.04559633177208278,right_arm__right_thigh,left_arm__torso
10.141181304001268,0.0,0.0,0.0,0.0,1.5708,0.0,0.0,1.5708,-0.001274217307136515,0.06548903004246741,0.14285348654847613,0.3225855999863967,1.6171618324987442,0.1183669601259127,-0.339038078571895,1.6144274401408876,0.5116340036005703,0.16561060951136836,0.2935219800797282,-0.016456828261696088,0.045785521987698224,-0.016466778921413905,0.04860729619797452,-0.09503166281295383,0.05994308741875337,-0.09504063407557842,0.061080573471120336,-0.09504063407557842,0.045785521987698224,right_arm__right_thigh,left_arm__torso
10.161181304001268,0.0,0.0,0.0,0.0,1.5708,0.0,0.0,1.5708,-0.0013172876165519923,0.06500976297669708,0.14075555724580857,0.32419035250426187,1.6169924919426564,0.11503351639049568,-0.34125261157337317,1.6141096478622174,0.5126744023159323,0.16561060951136836,0.2942586450326039,-0.016456828261696088,0.0460608464282819,-0.016466778921413905,0.04899449890538882,-0.09503166281295383,0.05999603798518485,-0.09504063407557842,0.06120590965909706,-0.09504063407557842,0.0460608464282819,right_arm__right_thigh,left_arm__torso
10.181181304001267,0.0,0.0,0.0,0.0,1.5708,0.0,0.0,1.5708,-0.0013603579259674698,0.06453049591092676,0.13865762794314104,0.325795105022127,1.6168231513865685,0.11170007265507866,-0.3434671445748514,1.6137918555835473,0.5137581526973694,0.16561060951136836,0.2949940160269139,-0.016456828261696088,0.04633677861424415,-0.016466778921413905,0.049383199320234106,-0.09503166281295383,0.060055841431675805,-0.09504063407557842,0.061346774576098745,-0.09504063407557842,0.04633677861424415,right_arm__right_thigh,left_arm__torso
10.201181304001267,0.0,0.0,0.0,0.0,1.5708,0.0,0.0,1.5708,-0.001403428235382947,0.06405122884515643,0.1365596986404735,0.3273998575399921,1.6166538108304804,0.10836662891966163,-0.34568167757632956,1.6134740633048772,0.5148849810000228,0.16561060951136836,0.2957280896047513,-0.016456828261696088,0.04661331411051592,-0.016466778921413905,0.04977338196149475,-0.09503166281295383,0.060122497155078225,-0.09504063407557842,0.06150314897415604,-0.09504063407557842,0.04661331411051592,right_arm__right_thigh,left_arm__torso
10.221181304001266,0.0,0.0,0.0,0.0,1.5708,0.0,0.0,1.5708,-0.0014391413104218882,0.06352988922813037,0.13379985938187547,0.3294704101611923,1.6164531408669522,0.1040188469349628,-0.34848738208430396,1.613130921180127,0.516363015372006,0.16561060951136836,0.2966639893088783,-0.016456828261696088,0.04697048731466319,-0.016466778921413905,0.05026915800740617,-0.09503166281295383,0.06022105994616836,-0.09504063407557842,0.06170980580717689,-0.09504063407557842,0.04697048731466319,right_arm__right_thigh,left_arm__torso
10.241181304001266,0.0,0.0,0.0,0.0,1.5708,0.0,0.0,1.5708,-0.0014714041514258054,0.0629888193509476,0.13072961214370357,0.3317594034746136,1.6162377787266744,0.09919538289752688,-0.3515703212089645,1.6127758910418584,0.5180658950230282,0.16561060951136836,0.297692675619742,-0.016456828261696088,0.04736636609653447,-0.016466778921413905,0.050816566339508096,-0.09503166281295383,0.060344206474015366,-0.09504063407557842,0.061960996670890084,-0.09504063407557842,0.04736636609653447,right_arm__right_thigh,left_arm__torso
10.261181304001266,0.0,0.0,0.0,0.0,1.5708,0.0,0.0,1.5708,-0.0014986963256145383,0.06245362641386585,0.1276894181139074,0.3340225590097039,1.616025504864008,0.0944395350544651,-0.35461029421080736,1.6124226616864705,0.5198302008985514,0.16561060951136836,0.2987055212615122,-0.016456828261696088,0.047758983543227884,-0.016466778921413905,0.05135930542807948,-0.09503166281295383,0.06047974281436502,-0.09504063407557842,0.062237456658710694,-0.09504063407557842,0.047758983543227884,right_arm__right_thigh,left_arm__torso
10.281181304001265,0.0,0.0,0.0,0.0,1.5708,0.0,0.0,1.5708,-0.0013795171779951633,0.06209161007799003,0.12553480610339407,0.3355243491816663,1.6159042337019165,0.09167614289870862,-0.3563841785698064,1.6121224962475846,0.5209116873833297,0.16561060951136836,0.29932933051381244,-0.016456828261696088,0.04801908272997443,-0.016466778921413905,0.05167755792483636,-0.09503166281295383,0.06057927091864532,-0.09504063407557842,0.06237832753785735,-0.09504063407557842,0.04801908272997443,right_arm__right_thigh,left_arm__torso
10.301181304001265,0.0,0.0,0.0,0.0,1.5708,0.0,0.0,1.5708,-0.0012603380303757884,0.0617295937421142,0.12338019409288069,0.3370261393536287,1.6157829625398248,0.08891275074295213,-0.3581580629288054,1.6118223308086987,0.5220252828426568,0.16561060951136836,0.2999520504032679,-0.016456828261696088,0.048279810305062926,-0.016466778921413905,0.05199678148207701,-0.09503166281295383,0.060685463392903455,-0.09504063407557842,0.0625294482565252,-0.09504063407557842,0.048279810305062926,right_arm__right_thigh,left_arm__torso
10.321181304001264,0.0,0.0,0.0,0.0,1.5708,0.0,0.0,1.5708,-0.0011411588827564137,0.061367577406238376,0.12122558208236733,0.3385279295255911,1.6156616913777333,0.08614935858719563,-0.3599319472878044,1.6115221653698126,0.5231707822398457,0.16561060951136836,0.30057367916269867,-0.016456828261696088,0.048541161926337645,-0.016466778921413905,0.05231696719966694,-0.09503166281295383,0.0607983141994651,-0.09504063407557842,0.06269079685767268,-0.09504063407557842,0.048541161926337645,right_arm__right_thigh,left_arm__torso
10.341181304001264,0.0,0.0,0.0,0.0,1.5708,0.0,0.0,1.5708,-0.0010139596176511503,0.06099797366579769,0.11905265492845539,0.340039668074295,1.6155384318724362,0.08340293133095458,-0.36169931575795833,1.611214445606285,0.5243468223318125,0.16561060951136836,0.3011947893047699,-0.016456828261696088,0.04880484486309139,-0.016466778921413905,0.0526369520731238,-0.09503166281295383,0.060918831860027584,-0.09504063407557842,0.06285994786302929,-0.09504063407557842,0.04880484486309139,right_arm__right_thigh,left_arm__torso
10.361181304001263,0.0,0.0,0.0,0.0,1.5708,0.0,0.0,1.5708,-0.0006055514788459589,0.06036233323752247,0.11623754505641927,0.3419002259293938,1.6153454552146944,0.08125134327670296,-0.36323821802839434,1.6106418490341745,0.5255153315301496,0.16561060951136836,0.30183492176173454,-0.016456828261696088,0.049129393055243886,-0.016466778921413905,0.052917219741654004,-0.09503166281295383,0.061084274373423286,-0.09504063407557842,0.06295381430410382,-0.09504063407557842,0.049129393055243886,right_arm__right_thigh,left_arm__torso
10.381181304001263,0.0,0.0,0.0,0.0,1.5708,0.0,0.0,1.5708,-0.00019714334004076745,0.05972669280924725,0.11342243518438315,0.3437607837844926,1.6151524785569527,0.07909975522245132,-0.36477712029883036,1.6100692524620641,0.5267179295254191,0.16561060951136836,0.3024739218573658,-0.016456828261696088,0.04945500626773755,-0.016466778921413905,0.0531980419318884,-0.09503166281295383,0.06126155221384433,-0.09504063407557842,0.06305537763166127,-0.09504063407557842,0.04945500626773755,right_arm__right_thigh,left_arm__torso
10.401181304001263,0.0,0.0,0.0,0.0,1.5708,0.0,0.0,1.5708,0.00021126479876442403,0.05909105238097203,0.11060732531234703,0.34562134163959146,1.614959501899211,0.07694816716819969,-0.3663160225692664,1.6094966558899537,0.5279543833707349,0.16561060951136836,0.30311178759849455,-0.016456828261696088,0.04978167529451882,-0.016466778921413905,0.053479413657745556,-0.09503166281295383,0.06145064811155723,-0.09504063407557842,0.06316462471979334,-0.09504063407557842,0.04978167529451882,right_arm__right_thigh,left_arm__torso
10.421181304001262,0.0,0.0,0.0,0.0,1.5708,0.0,0.0,1.5708,0.0006962126290516637,0.0581766803257735,0.10709066399926058,0.34796174237216215,1.6146639939967014,0.07471130701920439,-0.3679836771324513,1.6087297605767519,0.5294216448686396,0.16561060951136836,0.3038614585688882,-0.016456828261696088,0.05019429462069397,-0.016466778921413905,0.05378526567318148,-0.09503166281295383,0.06169240681111196,-0.09504063407557842,0.06327559205972919,-0.09504063407557842,0.05019429462069397,right_arm__right_thigh,left_arm__torso
10.441181304001262,0.0,0.0,0.0,0.0,1.5708,0.0,0.0,1.5708,0.0012257011679592225,0.057100106098895584,0.10316574916812439,0.3505813778569924,1.6143088201325286,0.0724248245180428,-0.36972625646008833,1.6078497970835683,0.5310564598770121,0.16561060951136836,0.30467526814783297,-0.016456828261696088,0.05065815356992795,-0.016466778921413905,0.05410563396162141,-0.09503166281295383,0.06197964245396967,-0.09504063407557842,0.06339304129751702,-0.09504063407557842,0.05065815356992795,right_arm__right_thigh,left_arm__torso
10.461181304001261,0.0,0.0,0.0,0.0,1.5708,0.0,0.0,1.5708,0.0017551897068667814,0.05602353187201767,0.0992408343369882,0.3532010133418227,1.613953646268356,0.07013834201688121,-0.3714688357877254,1.6069698335903848,0.5327479637412889,0.16561060951136836,0.30548738684822235,-0.016456828261696088,0.05112399927402783,-0.016466778921413905,0.05442659393532709,-0.09503166281295383,0.062290747233650634,-0.09504063407557842,0.06352092986390914,-0.09504063407557842,0.05112399927402783,right_arm__right_thigh,left_arm__torso
10.481181304001261,0.0,0.0,0.0,0.0,1.5708,0.0,0.0,1.5708,0.0021757070914590624,0.05498041686559697,0.09566630645422315,0.3555527695781825,1.6134930349145096,0.06843592700773297,-0.372779900451268,1.606241986567434,0.5341577987947895,0.16561060951136836,0.30616755236375914,-0.016456828261696088,0.05154399023915107,-0.016466778921413905,0.05466859398740659,-0.09503166281295383,0.06255697293680515,-0.09504063407557842,0.06360768150147783,-0.09504063407557842,0.05154399023915107,right_arm__right_thigh,left_arm__torso
10.50118130400126,0.0,0.0,0.0,0.0,1.5708,0.0,0.0,1.5708,0.0025691178927727105,0.05394562484291872,0.09217893735265528,0.35783789083023926,1.6130061959767446,0.06687879883354655,-0.37398362580789296,1.605551978528518,0.5355251931590604,0.16561060951136836,0.3068142676584449,-0.016456828261696088,0.05195368234822001,-0.016466778921413905,0.05489110767661892,-0.09503166281295383,0.06282592779182469,-0.09504063407557842,0.06368763144893966,-0.09504063407557842,0.05195368234822001,right_arm__right_thigh,left_arm__torso
10.52118130400126,0.0,0.0,0.0,0.0,1.5708,0.0,0.0,1.5708,0.002962528694086359,0.05291083282024047,0.0886915682510874,0.360123012082296,1.6125193570389795,0.06532167065936013,-0.37518735116451785,1.6048619704896019,0.5369323073097902,0.16561060951136836,0.30746000301777415,-0.016456828261696088,0.05236491337528357,-0.016466778921413905,0.05511388860687605,-0.09503166281295383,0.0631142038082439,-0.09504063407557842,0.06377311149736978,-0.09504063407557842,0.05236491337528357,right_arm__right_thigh,left_arm__torso
10.54118130400126,0.0,0.0,0.0,0.0,1.5708,0.0,0.0,1.5708,0.003346822490612003,0.05183606291792939,0.08516686852633616,0.3624361942905673,1.6119976088348842,0.06373915009656077,-0.37639702071105946,1.6041572370987185,0.5383854694935527,0.16561060951136836,0.3081111550226656,-0.016456828261696088,0.052782811809622576,-0.016466778921413905,0.05533809146999322,-0.09503166281295383,0.06342025975456125,-0.09504063407557842,0.06386259188880686,-0.09504063407557842,0.052782811809622576,right_arm__right_thigh,left_arm__torso
10.56118130400126,0.0,0.0,0.0,0.0,1.5708,0.0,0.0,1.5708,0.0034948487555976405,0.049725264719408406,0.08067474425860469,0.3654765772639597,1.6105711856442644,0.06149858480119996,-0.3777607341690907,1.6030708956423227,0.5400692223545415,0.16561060951136836,0.3089267489058481,-0.016456828261696088,0.05333612947673094,-0.016466778921413905,0.05559272994630737,-0.09503166281295383,0.06371759881226166,-0.09504063407557842,0.06392198670345131,-0.09504063407557842,0.05333612947673094,right_arm__right_thigh,left_arm__torso
10.581181304001259,0.0,0.0,0.0,0.0,1.5708,0.0,0.0,1.5708,0.0036428750205832775,0.04761446652088742,0.07618261999087322,0.3685169602373522,1.6091447624536446,0.05925801950583915,-0.37912444762712194,1.601984554185927,0.5418289457231521,0.16561060951136836,0.30974053561888354,-0.016456828261696088,0.053891947750034974,-0.016466778921413905,0.05584799863065815,-0.09503166281295383,0.0640540242919376,-0.09504063407557842,0.0639942853876316,-0.09504063407557842,0.053891947750034974,right_arm__right_thigh,left_arm__torso
10.601181304001258,0.0,0.0,0.0,0.0,1.5708,0.0,0.0,1.5708,0.0035981153847233485,0.04647838891177259,0.07401456829149802,0.3699581831403487,1.608345384185882,0.058084885996047005,-0.37964011701980194,1.6013962606924677,0.542555674687907,0.16561060951136836,0.3101025521700558,-0.016456828261696088,0.05415655702270905,-0.016466778921413905,0.05594590084960238,-0.09503166281295383,0.06418570290951622,-0.09504063407557842,0.06398667318381607,-0.09504063407557842,0.05415655702270905,right_arm__right_thigh,left_arm__torso
10.621181304001258,0.0,0.0,0.0,0.0,1.5708,0.0,0.0,1.5708,0.003511296840019561,0.0455549600712568,0.07235354514488669,0.3710505271713295,1.6076828044346898,0.057144627483696885,-0.3799707738784546,1.6009166232458514,0.5430577892936345,0.16561060951136836,0.3103660044299151,-0.016456828261696088,0.05435763015485093,-0.016466778921413905,0.05600950628419865,-0.09503166281295383,0.06427290990201015,-0.09504063407557842,0.06396194903279229,-0.09504063407557842,0.05435763015485093,right_arm__right_thigh,left_arm__torso
10.641181304001258,0.0,0.0,0.0,0.0,1.5708,0.0,0.0,1.5708,0.0034244782953157735,0.044631531230741005,0.07069252199827536,0.3721428712023103,1.607020224683498,0.05620436897134676,-0.38030143073710726,1.6004369857992353,0.5435713520783788,0.16561060951136836,0.31062919580044085,-0.016456828261696088,0.054559044857395406,-0.016466778921413905,0.05607323838342443,-0.09503166281295383,0.06436583607196386,-0.09504063407557842,0.06393940490768002,-0.09504063407557842,0.054559044857395406,right_arm__right_thigh,left_arm__torso
10.661181304001257,0.0,0.0,0.0,0.0,1.5708,0.0,0.0,1.5708,0.0033376597506119864,0.04370810239022521,0.06903149885166401,0.3732352152332912,1.606357644932306,0.05526411045899663,-0.38063208759575995,1.5999573483526193,0.5440963306249474,0.16561060951136836,0.31089212610537204,-0.016456828261696088,0.05476079901756031,-0.016466778921413905,0.056137096953467525,-0.09503166281295383,0.06446447597101293,-0.09504063407557842,0.06391904437381274,-0.09504063407557842,0.05476079901756031,right_arm__right_thigh,left_arm__torso
10.681181304001257,0.0,0.0,0.0,0.0,1.5708,0.0,0.0,1.5708,0.003188103753587116,0.04275918155401834,0.06744050429693818,0.37425545624116185,1.605671209012723,0.05430692203872557,-0.3808114624926164,1.5994682634347765,0.5444799005034796,0.16561060951136836,0.3111142981226256,-0.016456828261696088,0.054949736933962656,-0.016466778921413905,0.05617367406762089,-0.09503166281295383,0.06453595887045369,-0.09504063407557842,0.06385451681608162,-0.09504063407557842,0.054949736933962656,right_arm__right_thigh,left_arm__torso
10.701181304001256,0.0,0.0,0.0,0.0,1.5708,0.0,0.0,1.5708,0.00302102019267265,0.041803138774432855,0.06586907430170529,0.3752555531357885,1.6049781081665269,0.053345003747671586,-0.38094857229657175,1.5989765390862685,0.544831770985657,0.16561060951136836,0.3113249148329338,-0.016456828261696088,0.05513531056531787,-0.016466778921413905,0.0562027318885554,-0.09503166281295383,0.06460360035947507,-0.09504063407557842,0.06377918591099385,-0.09504063407557842,0.05513531056531787,right_arm__right_thigh,left_arm__torso
10.721181304001256,0.0,0.0,0.0,0.0,1.5708,0.0,0.0,1.5708,0.0028539366317581836,0.04084709599484738,0.06429764430647239,0.3762556500304152,1.6042850073203305,0.052383085456617594,-0.38108568210052707,1.5984848147377604,0.5451945624040727,0.16561060951136836,0.3115352926749855,-0.016456828261696088,0.055321189963326634,-0.016466778921413905,0.05623192893462034,-0.09503166281295383,0.06467653421865319,-0.09504063407557842,0.06370600310732669,-0.09504063407557842,0.055321189963326634,right_arm__right_thigh,left_arm__torso
10.741181304001255,0.0,0.0,0.0,0.0,1.5708,0.0,0.0,1.5708,0.0027059027272283713,0.0399533534693071,0.06285074900942555,0.37715326997791976,1.6036261869051314,0.05152208325550955,-0.38117182907743496,1.5980527678041243,0.5454953329901522,0.16561060951136836,0.3117172449795752,-0.016456828261696088,0.05548843109632598,-0.016466778921413905,0.0562515171846065,-0.09503166281295383,0.06473931838324906,-0.09504063407557842,0.06362765528181949,-0.09504063407557842,0.05548843109632598,right_arm__right_thigh,left_arm__torso
10.761181304001255,0.0,0.0,0.0,0.0,1.5708,0.0,0.0,1.5708,0.0025684505843112057,0.03909421768015103,0.06147303062885947,0.37799396571622373,1.6029864086889862,0.05071713823386584,-0.38122966706671424,1.597653870664116,0.5457643345285325,0.16561060951136836,0.31188335858778593,-0.016456828261696088,0.05564539975138125,-0.016466778921413905,0.05626579594357234,-0.09503166281295383,0.06479785193374349,-0.09504063407557842,0.06354686492542619,-0.09504063407557842,0.05564539975138125,right_arm__right_thigh,left_arm__torso
10.781181304001255,0.0,0.0,0.0,0.0,1.5708,0.0,0.0,1.5708,0.0024309984413940404,0.03823508189099496,0.06009531224829338,0.37883466145452777,1.6023466304728413,0.04991219321222213,-0.3812875050559935,1.5972549735241077,0.5460415941809281,0.16561060951136836,0.31204930313920226,-0.016456828261696088,0.055802605406366834,-0.016466778921413905,0.05628017266425328,-0.09503166281295383,0.0648604994376488,-0.09504063407557842,0.06346758588783988,-0.09504063407557842,0.055802605406366834,right_arm__right_thigh,left_arm__torso
10.801181304001254,0.0,0.0,0.0,0.0,1.5708,0.0,0.0,1.5708,0.0023141628037217695,0.03739558102366793,0.058829789411582574,0.37959979726653986,1.6017507481754154,0.04909621967962734,-0.3814230773805372,1.5968571873204445,0.5463439059837031,0.16561060951136836,0.31221543378922,-0.016456828261696088,0.055945946372466804,-0.016466778921413905,0.056308804210548485,-0.09503166281295383,0.06491864395217631,-0.09504063407557842,0.0634141233086945,-0.09504063407557842,0.055945946372466804,right_arm__right_thigh,left_arm__torso
10.821181304001254,0.0,0.0,0.0,0.0,1.5708,0.0,0.0,1.5708,0.0022186017339796867,0.03657634180948209,0.05768004331253223,0.3802869613386474,1.601200162920022,0.04826886561465759,-0.3816388652593879,1.5964605475133438,0.5466705148469078,0.16561060951136836,0.3123817759455625,-0.016456828261696088,0.056074919849754185,-0.016466778921413905,0.05635214375938416,-0.09503166281295383,0.06497119141394433,-0.09504063407557842,0.06338734772594717,-0.09504063407557842,0.056074919849754185,right_arm__right_thigh,left_arm__torso
10.841181304001253,0.0,0.0,0.0,0.0,1.5708,0.0,0.0,1.5708,0.0021230406642376034,0.03575710259529625,0.05653029721348188,0.3809741254107549,1.6006495776646288,0.04744151154968784,-0.3818546531382385,1.5960639077062433,0.5470036305948953,0.16561060951136836,0.31254796785043326,-0.016456828261696088,0.05620405818997179,-0.016466778921413905,0.056395582910177794,-0.09503166281295383,0.06502675162671695,-0.09504063407557842,0.06336221654301133,-0.09504063407557842,0.05620405818997179,right_arm__right_thigh,left_arm__torso
10.861181304001253,0.0,0.0,0.0,0.0,1.5708,0.0,0.0,1.5708,0.0020274795944955205,0.034937863381110414,0.055380551114431534,0.38166128948286243,1.6000989924092357,0.0466141574847181,-0.38207044101708915,1.5956672678991426,0.5473432413473012,0.16561060951136836,0.3127140094687353,-0.016456828261696088,0.05633336074667042,-0.016466778921413905,0.05643912156236841,-0.09503166281295383,0.06508532298773356,-0.09504063407557842,0.06333873230594297,-0.09504063407557842,0.05633336074667042,right_arm__right_thigh,left_arm__torso
10.881181304001252,0.0,0.0,0.0,0.0,1.5708,0.0,0.0,1.5708,0.001925079608541652,0.033928368345998314,0.053881869025720654,0.3824583872310772,1.599367613687969,0.045679579952684596,-0.38225954672167956,1.5952159230054956,0.5476803308644336,0.16561060951136836,0.31289537935613176,-0.016456828261696088,0.056484283151645,-0.016466778921413905,0.05647850954939865,-0.09503166281295383,0.06513544262200235,-0.09504063407557842,0.0632900583126382,-0.09504063407557842,0.05647850954939865,right_arm__right_thigh,right_arm__torso
10.901181304001252,0.0,0.0,0.0,0.0,1.5708,0.0,0.0,1.5708,0.0018126497237170068,0.03263984567194856,0.051871440253721215,0.3834167128141862,1.5983710847406944,0.04458774935628829,-0.3824095205666016,1.5946843480770327,0.5480177030107893,0.16561060951136836,0.3130991957105847,-0.016456828261696088,0.05666710121809829,-0.016466778921413905,0.05651181910747377,-0.09503166281295383,0.06517571332076352,-0.09504063407557842,0.06320463487914962,-0.09504063407557842,0.05651181910747377,right_arm__right_thigh,right_arm__torso
10.921181304001252,0.0,0.0,0.0,0.0,1.5708,0.0,0.0,1.5708,0.0017157936177484975,0.03161997283672465,0.05026286092418115,0.3841366532772733,1.5975692924352376,0.04373873382332353,-0.382483169173073,1.594269715219916,0.5482371423904203,0.16561060951136836,0.3132451270360503,-0.016456828261696088,0.056805280497758015,-0.016466778921413905,0.056530046623773256,-0.09503166281295383,0.06519554755977822,-0.09504063407557842,0.06312558586555275,-0.09504063407557842,0.056530046623773256,right_arm__right_thigh,right_arm__torso
10.941181304001251,0.0,0.0,0.0,0.0,1.5708,0.0,0.0,1.5708,0.0016530268783327374,0.031188146288446916,0.049533887826985805,0.38433479374485424,1.597193758189916,0.043421214966811554,-0.3823897498472972,1.5941110562771825,0.5481693453728915,0.16561060951136836,0.31326488891168924,-0.016456828261696088,0.05684480748225773,-0.016466778921413905,0.056514942208589825,-0.09503166281295383,0.06515539684332858,-0.09504063407557842,0.06305506001141814,-0.09504063407557842,0.056514942208589825,right_arm__right_thigh,right_arm__torso
10.96118130400125,0.0,0.0,0.0,0.0,1.5708,0.0,0.0,1.5708,0.0015902601389169771,0.030756319740169184,0.048804914729790455,0.38453293421243523,1.5968182239445943,0.04310369611029958,-0.38229633052152134,1.5939523973344492,0.5481034316214676,0.16561060951136836,0.3132846266874752,-0.016456828261696088,0.05688441161536964,-0.016466778921413905,0.0564998524441202,-0.09503166281295383,0.0651162862946009,-0.09504063407557842,0.06298477281826476,-0.09504063407557842,0.0564998524441202,right_arm__right_thigh,right_arm__torso
10.98118130400125,0.0,0.0,0.0,0.0,1.5708,0.0,0.0,1.5708,0.001527493399501217,0.030324493191891448,0.04807594163259511,0.38473107468001616,1.5964426896992725,0.04278617725378761,-0.3822029111957455,1.5937937383917156,0.5480394018156604,0.16561060951136836,0.3133043403703577,-0.016456828261696088,0.0569240928259947,-0.016466778921413905,0.056484777336847064,-0.09503166281295383,0.06507821714412532,-0.09504063407557842,0.06291472483341293,-0.09504063407557842,0.056484777336847064,right_arm__right_thigh,right_arm__torso
11.00118130400125,0.0,0.0,0.0,0.0,1.5708,0.0,0.0,1.5708,0.0014575990924138157,0.029845530609369078,0.047253559135533016,0.38486931784639516,1.5960152831972998,0.04246051628959189,-0.3820535918671827,1.5936308709664329,0.547882352919853,0.16561060951136836,0.31330307804150503,-0.016456828261696088,0.056953495223325185,-0.016466778921413905,0.056459617187263084,-0.09503166281295383,0.06500506417141827,-0.09504063407557842,0.06282321826090961,-0.09504063407557842,0.056459617187263084,right_arm__right_thigh,right_arm__torso
11.02118130400125,0.0,0.0,0.0,0.0,1.5708,0.0,0.0,1.5708,0.0013741334837008659,0.029276818287856318,0.04625331973150715,0.384893513082454,1.5954891089145862,0.04211935228083252,-0.38179783569597714,1.5934599903466504,0.547547313728435,0.16561060951136836,0.31326189474467075,-0.016456828261696088,0.05696330642495831,-0.016466778921413905,0.05641523994226136,-0.09503166281295383,0.0648646587093141,-0.09504063407557842,0.06269064738267646,-0.09504063407557842,0.05641523994226136,right_arm__right_thigh,right_arm__torso
11.041181304001249,0.0,0.0,0.0,0.0,1.5708,0.0,0.0,1.5708,0.0012906678749879158,0.02870810596634356,0.04525308032748128,0.3849177083185128,1.5949629346318726,0.041778188272073156,-0.3815420795247716,1.593289109726868,0.547215394116206,0.16561060951136836,0.3132206826261669,-0.016456828261696088,0.05697326884390699,-0.016466778921413905,0.05637087539303423,-0.09503166281295383,0.06472603200357885,-0.09504063407557842,0.06255833316078122,-0.09504063407557842,0.05637087539303423,right_arm__right_thigh,right_arm__torso
11.061181304001249,0.0,0.0,0.0,0.0,1.5708,0.0,0.0,1.5708,0.0012381143510326658,0.028459921830975378,0.044812461513767554,0.3848382032063417,1.5947346267652467,0.041626206128908855,-0.3813683392115741,1.5932132700250639,0.5469642325171442,0.16561060951136836,0.3131750660568977,-0.016456828261696088,0.05696134697987462,-0.016466778921413905,0.05634025391277206,-0.09503166281295383,0.0646289870184262,-0.09504063407557842,0.062480335657901925,-0.09504063407557842,0.05634025391277206,right_arm__right_thigh,right_arm__torso
11.081181304001248,0.0,0.0,0.0,0.0,1.5708,0.0,0.0,1.5708,0.0011871983386782755,0.028228717094678092,0.0444014875854085,0.38475320475638475,1.594522097831542,0.04148424555180885,-0.3811989435396389,1.59314246494344,0.5467177438393875,0.16561060951136836,0.3131292098444358,-0.016456828261696088,0.05694828601362134,-0.016466778921413905,0.05631036091565261,-0.09503166281295383,0.06453435629223969,-0.09504063407557842,0.06240523991273436,-0.09504063407557842,0.05631036091565261,right_arm__right_thigh,right_arm__torso
11.101181304001248,0.0,0.0,0.0,0.0,1.5708,0.0,0.0,1.5708,0.0011362823263238852,0.027997512358380803,0.04399051365704945,0.3846682063064278,1.5943095688978375,0.04134228497470884,-0.3810295478677037,1.5930716598618164,0.5464717500553508,0.16561060951136836,0.313083346326231,-0.016456828261696088,0.05693525007059064,-0.016466778921413905,0.0562804687656277,-0.09503166281295383,0.06443999406409057,-0.09504063407557842,0.062330176674652155,-0.09504063407557842,0.0562804687656277,right_arm__right_thigh,right_arm__torso
11.121181304001247,0.0,0.0,0.0,0.0,1.5708,0.0,0.0,1.5708,0.0010853663139694949,0.027766307622083514,0.0435795397286904,0.3845832078564709,1.594097039964133,0.04120032439760884,-0.3808601521957685,1.5930008547801928,0.5462262518336624,0.16561060951136836,0.3130374755069819,-0.016456828261696088,0.05692223916056749,-0.016466778921413905,0.05625057746598611,-0.09503166281295383,0.06434590095760356,-0.09504063407557842,0.06225514604698315,-0.09504063407557842,0.05625057746598611,right_arm__right_thigh,right_arm__torso
11.141181304001247,0.0,0.0,0.0,0.0,1.5708,0.0,0.0,1.5708,0.00103887159837948,0.027496123700452377,0.04311163147663582,0.3845298102550482,1.5938624288997494,0.04102458484002853,-0.3807140650097756,1.5929150099030012,0.5460092205846339,0.16561060951136836,0.31300159846404974,-0.016456828261696088,0.056915304429294294,-0.016466778921413905,0.05622512701527038,-0.09503166281295383,0.06425772953990316,-0.09504063407557842,0.06218334271131706,-0.09504063407557842,0.05622512701527038,right_arm__right_thigh,right_arm__torso
11.161181304001246,0.0,0.0,0.0,0.0,1.5708,0.0,0.0,1.5708,0.0009964113454701967,0.0271903710131546,0.04259177027583255,0.3845052486379273,1.5936076677443671,0.0408180217382702,-0.3805892469721096,1.5928154411124014,0.5458184766032388,0.16561060951136836,0.3129748376678043,-0.016456828261696088,0.056913928391839425,-0.016466778921413905,0.05620373234926754,-0.09503166281295383,0.0641751349431724,-0.09504063407557842,0.0621145332173193,-0.09504063407557842,0.05620373234926754,right_arm__right_thigh,right_arm__torso
11.181181304001246,0.0,0.0,0.0,0.0,1.5708,0.0,0.0,1.5708,0.0009539510925609133,0.026884618325856823,0.042071909075029286,0.3844806870208064,1.5933529065889849,0.04061145863651187,-0.3804644289344436,1.5927158723218016,0.5456285808704097,0.16561060951136836,0.31294806629189265,-0.016456828261696088,0.05691259309189309,-0.016466778921413905,0.05618234301271918,-0.09503166281295383,0.06409300732898204,-0.09504063407557842,0.06204581708067747,-0.09504063407557842,0.05618234301271918,right_arm__right_thigh,right_arm__torso
11.201181304001246,0.0,0.0,0.0,0.0,1.5708,0.0,0.0,1.5708,0.0009114908396516298,0.026578865638559046,0.04155204787422603,0.3844561254036855,1.5930981454336028,0.04040489553475353,-0.3803396108967776,1.592616303531202,0.5454395342721041,0.16561060951136836,0.31292128434060806,-0.016456828261696088,0.05691129853321247,-0.016466778921413905,0.05616095900960286,-0.09503166281295383,0.06401134765854058,-0.09504063407557842,0.06197719451121281,-0.09504063407557842,0.05616095900960286,right_arm__right_thigh,right_arm__torso
11.221181304001245,0.0,0.0,0.0,0.0,1.5708,0.0,0.0,1.5708,0.0008706833142202631,0.026284267709541564,0.04103376410490446,0.38441973673032886,1.592844370633731,0.040219738287904684,-0.38019419368029245,1.5925265939818707,0.5452313050639502,0.16561060951136836,0.3128885918400876,-0.016456828261696088,0.05690788939434027,-0.016466778921413905,0.056135703537339376,-0.09503166281295383,0.06392654043262264,-0.09504063407557842,0.061903160815171804,-0.09504063407557842,0.056135703537339376,right_arm__right_thigh,right_arm__torso
11.241181304001245,0.0,0.0,0.0,0.0,1.5708,0.0,0.0,1.5708,0.0008329869552394514,0.026010667985121878,0.040518449761558745,0.38436108428931487,1.5925924525925885,0.0400748763580574,-0.3800099996691407,1.5924554438992833,0.5449861479042992,0.16561060951136836,0.31284478520090864,-0.016456828261696088,0.05690046314075442,-0.016466778921413905,0.05610315233633928,-0.09503166281295383,0.0638353709283912,-0.09504063407557842,0.061818820288574466,-0.09504063407557842,0.05610315233633928,right_arm__right_thigh,right_arm__torso
11.261181304001244,0.0,0.0,0.0,0.0,1.5708,0.0,0.0,1.5708,0.0007952905962586398,0.02573706826070219,0.04000313541821302,0.3843024318483009,1.5923405345514463,0.03993001442821011,-0.37982580565798896,1.5923842938166959,0.5447417408294497,0.16561060951136836,0.31280097216763875,-0.016456828261696088,0.056893076775363455,-0.016466778921413905,0.056070601729069136,-0.09503166281295383,0.06374463608918934,-0.09504063407557842,0.061734517256202714,-0.09504063407557842,0.056070601729069136,right_arm__right_thigh,right_arm__torso
11.281181304001244,0.0,0.0,0.0,0.0,1.5708,0.0,0.0,1.5708,0.0007575942372778281,0.025463468536282504,0.039487821074867306,0.3842437794072869,1.592088616510304,0.03978515249836283,-0.3796416116468372,1.5923131437341085,0.5444980848494659,0.16561060951136836,0.3127571527490256,-0.016456828261696088,0.05688573030773203,-0.016466778921413905,0.05603805171939402,-0.09503166281295383,0.06365433689681937,-0.09504063407557842,0.06165025185056491,-0.09504063407557842,0.05603805171939402,right_arm__right_thigh,right_arm__torso
11.301181304001243,0.0,0.0,0.0,0.0,1.5708,0.0,0.0,1.5708,0.0007180727076150471,0.025255657157730513,0.03908565203809877,0.3841472046800625,1.5918917731097926,0.039679053034583626,-0.37944613812056305,1.5922605810948163,0.5442373979467088,0.16561060951136836,0.31270432998882003,-0.016456828261696088,0.05687081101467728,-0.016466778921413905,0.056003204516635374,-0.09503166281295383,0.06356323420365617,-0.09504063407557842,0.061567992063548266,-0.09504063407557842,0.056003204516635374,right_arm__right_thigh,right_arm__torso
11.321181304001243,0.0,0.0,0.0,0.0,1.5708,0.0,0.0,1.5708,0.0006773231377648877,0.02509211053391341,0.03875961121490647,0.38402511448082044,1.5917319858995151,0.039599034345914254,-0.37924307533263724,1.5922205247529204,0.5439651178287909,0.16561060951136836,0.31264544824777846,-0.016456828261696088,0.05685078963617288,-0.016466778921413905,0.055966809603141154,-0.09503166281295383,0.06347150548118266,-0.09504063407557842,0.0614870633032604,-0.09504063407557842,0.055966809603141154,right_arm__right_thigh,right_arm__torso
11.341181304001243,0.0,0.0,0.0,0.0,1.5708,0.0,0.0,1.5708,0.0006365735679147282,0.024928563910096308,0.03843357039171417,0.3839030242815783,1.5915721986892377,0.03951901565724488,-0.3790400125447114,1.5921804684110243,0.5436931140693219,0.16561060951136836,0.31258656123029116,-0.016456828261696088,0.056830783295159115,-0.016466778921413905,0.0559304124466862,-0.09503166281295383,0.0633799278559466,-0.09504063407557842,0.06140613379030202,-0.09504063407557842,0.0559304124466862,right_arm__right_thigh,right_arm__torso
11.361181304001242,0.0,0.0,0.0,0.0,1.5708,0.0,0.0,1.5708,0.0005958239980645688,0.024765017286279205,0.03810752956852186,0.38378093408233616,1.59141241147896,0.039438996968575515,-0.3788369497567856,1.5921404120691283,0.5434213870832868,0.16561060951136836,0.3125276689418036,-0.016456828261696088,0.05681079200054459,-0.016466778921413905,0.05589401304976424,-0.09503166281295383,0.0632885016726939,-0.09504063407557842,0.061325203559773056,-0.09504063407557842,0.05589401304976424,right_arm__right_thigh,right_arm__torso
11.381181304001242,0.0,0.0,0.0,0.0,1.5708,0.0,0.0,1.5708,0.0005561088357340975,0.024635831014730037,0.03784868974827496,0.3836364402238953,1.5912849743457085,0.0393738813046023,-0.3786334296432308,1.5921077352403576,0.5431426197027341,0.16561060951136836,0.31246458604872657,-0.016456828261696088,0.05678630366731208,-0.016466778921413905,0.055857431774146926,-0.09503166281295383,0.06319668478256982,-0.09504063407557842,0.061246382566640445,-0.09504063407557842,0.055857431774146926,right_arm__right_thigh,right_arm__torso
11.401181304001241,0.0,0.0,0.0,0.0,1.5708,0.0,0.0,1.5708,0.0005176290605752411,0.024547681121586902,0.03767010771364762,0.3834651897993578,1.5911961727302755,0.03932656424048212,-0.37842936334821026,1.5920838717232402,0.54285524235101,0.16561060951136836,0.3123964987035593,-0.016456828261696088,0.056756432571263976,-0.016466778921413905,0.05582063321005404,-0.09503166281295383,0.06310428285387151,-0.09504063407557842,0.0611700748355572,-0.09504063407557842,0.05582063321005404,right_arm__right_thigh,right_arm__torso
11.42118130400124,0.0,0.0,0.0,0.0,1.5708,0.0,0.0,1.5708,0.00047914928541638476,0.024459531228443767,0.03749152567902029,0.38329393937482026,1.5911073711148425,0.03927924717636194,-0.3782252970531897,1.5920600082061227,0.5425679391296518,0.16561060951136836,0.31232840518882377,-0.016456828261696088,0.05672656409990337,-0.016466778921413905,0.055783831713088095,-0.09503166281295383,0.06301191054073188,-0.09504063407557842,0.06109375828792393,-0.09504063407557842,0.055783831713088095,right_arm__right_thigh,right_arm__torso
11.44118130400124,0.0,0.0,0.0,0.0,1.5708,0.0,0.0,1.5708,0.0004406695102575284,0.02437138133530063,0.03731294364439295,0.38312268895028273,1.5910185694994095,0.03923193011224176,-0.3780212307581692,1.5920361446890055,0.5422807101564837,0.16561060951136836,0.31226030550799416,-0.016456828261696088,0.05669669825792478,-0.016466778921413905,0.05574702728516229,-0.09503166281295383,0.06291956793146511,-0.09504063407557842,0.06101743293293921,-0.09504063407557842,0.05574702728516229,right_arm__right_thigh,right_arm__torso
11.46118130400124,0.0,0.0,0.0,0.0,1.5708,0.0,0.0,1.5708,0.00040218973509867194,0.024283231442157494,0.03713436160976562,0.3829514385257452,1.5909297678839764,0.03918461304812158,-0.3778171644631486,1.592012281171888,0.5419935555495488,0.16561060951136836,0.3121921996645453,-0.016456828261696088,0.05666683505002243,-0.016466778921413905,0.055710219928189725,-0.09503166281295383,0.06282725511448925,-0.09504063407557842,0.060941098779810104,-0.09504063407557842,0.055710219928189725,right_arm__right_thigh,right_arm__torso
11.48118130400124,0.0,0.0,0.0,0.0,1.5708,0.0,0.0,1.5708,0.00036769376387627445,0.024202968939928782,0.03697711109371686,0.38274044189050854,1.5908520499248842,0.03913896446322701,-0.3775912024336574,1.5919897321721852,0.5416655200932196,0.16561060951136836,0.31211287367110696,-0.016456828261696088,0.05662961402467767,-0.016466778921413905,0.05566941455212676,-0.09503166281295383,0.06272319869443813,-0.09504063407557842,0.06085613568015649,-0.09504063407557842,0.05566941455212676,right_arm__right_thigh,right_arm__torso
11.50118130400124,0.0,0.0,0.0,0.0,1.5708,0.0,0.0,1.5708,0.0003336170392358958,0.024123536489011495,0.03682210545879076,0.38252526245329427,1.5907754983849007,0.03909349146534015,-0.37736293614622973,1.5919673215093437,0.5413332271955091,0.16561060951136836,0.3120323592068705,-0.016456828261696088,0.05659161862613221,-0.016466778921413905,0.05562818500262154,-0.09503166281295383,0.06261791671002448,-0.09504063407557842,0.060770253900408744,-0.09504063407557842,0.05562818500262154,right_arm__right_thigh,right_arm__torso
11.521181304001239,0.0,0.0,0.0,0.0,1.5708,0.0,0.0,1.5708,0.00029954031459551717,0.02404410403809421,0.03666709982386467,0.38231008301608,1.5906989468449173,0.03904801846745329,-0.3771346698588021,1.5919449108465022,0.5410009858998739,0.16561060951136836,0.31195183630279905,-0.016456828261696088,0.056553623336805164,-0.016466778921413905,0.055586951676040025,-0.09503166281295383,0.0625126474223626,-0.09504063407557842,0.06068436047885012,-0.09504063407557842,0.055586951676040025,right_arm__right_thigh,right_arm__torso
11.541181304001238,0.0,0.0,0.0,0.0,1.5708,0.0,0.0,1.5708,0.0002654635899551385,0.02396467158717692,0.036512094188938575,0.38209490357886566,1.5906223953049337,0.03900254546956642,-0.3769064035713745,1.5919225001836608,0.5406687963014424,0.16561060951136836,0.311871304963648,-0.016456828261696088,0.05651562816216507,-0.016466778921413905,0.05554571457493723,-0.09503166281295383,0.06240739090285924,-0.09504063407557842,0.06059845542441625,-0.09504063407557842,0.05554571457493723,right_arm__right_thigh,right_arm__torso
11.561181304001238,0.0,0.0,0.0,0.0,1.5708,0.0,0.0,1.5708,0.00022845320317471727,0.02388544800577954,0.036349382142841856,0.3817638576363853,1.590542215164977,0.03896416370835657,-0.376576381728209,1.5919035677427227,0.5401838394074528,0.16561060951136836,0.3117512015995942,-0.016456828261696088,0.056456649004254844,-0.016466778921413905,0.05548590948395088,-0.09503166281295383,0.06225721747144855,-0.09504063407557842,0.0604756005705776,-0.09504063407557842,0.05548590948395088,right_arm__right_thigh,right_arm__torso
11.581181304001237,0.0,0.0,0.0,0.0,1.5708,0.0,0.0,1.5708,0.00019092058775308974,0.023806261605775363,0.036185298258938986,0.3814121860033115,1.5904613890887322,0.03892704427618038,-0.37622824612037964,1.5918852544688913,0.5396717262522094,0.16561060951136836,0.31162403631611196,-0.016456828261696088,0.05639392934157225,-0.016466778921413905,0.05542279080352214,-0.09503166281295383,0.0620990381884407,-0.09504063407557842,0.06034614435190902,-0.09504063407557842,0.05542279080352214,right_arm__right_thigh,right_arm__torso
11.601181304001237,0.0,0.0,0.0,0.0,1.5708,0.0,0.0,1.5708,0.00015483413628325653,0.0237299102708361,0.03602717475573553,0.3810669477789923,1.5903834609931822,0.038891349183486315,-0.3758876618305576,1.5918676375589242,0.5391702303355503,0.16561060951136836,0.31149939172092694,-0.016456828261696088,0.05633233120813383,-0.016466778921413905,0.05536102813668928,-0.09503166281295383,0.061944223338287,-0.09504063407557842,0.06021943807450417,-0.09504063407557842,0.05536102813668928,right_arm__right_thigh,right_arm__torso
11.621181304001237,0.0,0.0,0.0,0.0,1.5708,0.0,0.0,1.5708,0.00013311378032102505,0.02368172228172098,0.035928261273832494,0.3807856186048846,1.5903343212430947,0.03886980338348494,-0.3756220918263333,1.5918569382807866,0.5387737659010718,0.16561060951136836,0.3113999700758023,-0.016456828261696088,0.05628192368293852,-0.016466778921413905,0.05531282155909237,-0.09503166281295383,0.061822912567274124,-0.09504063407557842,0.06012029787772205,-0.09504063407557842,0.05531282155909237,right_arm__right_thigh,right_arm__torso
11.641181304001236,0.0,0.0,0.0,0.0,1.5708,0.0,0.0,1.5708,0.00011139342435879357,0.023633534292605854,0.03582934779192945,0.38050428943077685,1.5902851814930072,0.03884825758348356,-0.37535652182210905,1.591846239002649,0.5383773164386725,0.16561060951136836,0.3113005363156383,-0.016456828261696088,0.05623151147756475,-0.016466778921413905,0.05526460949371312,-0.09503166281295383,0.061701589160513465,-0.09504063407557842,0.06002114273238057,-0.09504063407557842,0.05526460949371312,right_arm__right_thigh,right_arm__torso
11.661181304001236,0.0,0.0,0.0,0.0,1.5708,0.0,0.0,1.5708,8.967306839656209e-05,0.023585346303490733,0.035730434310026406,0.38022296025666913,1.5902360417429198,0.03882671178348218,-0.37509095181788477,1.5918355397245114,0.5379808819814519,0.16561060951136836,0.3112010904483303,-0.016456828261696088,0.056181094598145104,-0.016466778921413905,0.055216391944099996,-0.09503166281295383,0.06158025314783144,-0.09504063407557842,0.05992197264553839,-0.09504063407557842,0.055216391944099996,right_arm__right_thigh,right_arm__torso
11.681181304001235,0.0,0.0,0.0,0.0,1.5708,0.0,0.0,1.5708,6.598298588972062e-05,0.02352779524613784,0.03561243089084747,0.3798533053516973,1.5901777825380787,0.0388015470911731,-0.3747475907986445,1.5918231714220834,0.5374654680835375,0.16561060951136836,0.31107141423120976,-0.016456828261696088,0.05611475656069018,-0.016466778921413905,0.055154024318752104,-0.09503166281295383,0.061423123963950194,-0.09504063407557842,0.059793268822694756,-0.09504063407557842,0.055154024318752104,right_arm__right_thigh,right_arm__torso
11.701181304001235,0.0,0.0,0.0,0.0,1.5708,0.0,0.0,1.5708,4.0090094857325246e-05,0.023459773168532948,0.03547307858103258,0.3793848729420481,1.5901093247537776,0.038772335275241564,-0.3743172335861726,1.5918089365961288,0.5368170027739927,0.16561060951136836,0.3109079168014952,-0.016456828261696088,0.056030606945085465,-0.016466778921413905,0.055075826259144256,-0.09503166281295383,0.06122594708767973,-0.09504063407557842,0.059631521532867604,-0.09504063407557842,0.055075826259144256,right_arm__right_thigh,right_arm__torso
11.721181304001234,0.0,0.0,0.0,0.0,1.5708,0.0,0.0,1.5708,1.8201564669343585e-05,0.02340205650114858,0.03535450952030406,0.3789732471508821,1.5900510711302034,0.03874787336782974,-0.37394005002214825,1.5917970633638354,0.5362484117365253,0.16561060951136836,0.31076439700716924,-0.016456828261696088,0.05595662298625778,-0.016466778921413905,0.05500727064684144,-0.09503166281295383,0.06105325735410125,-0.09504063407557842,0.0594897400571919,-0.09504063407557842,0.05500727064684144,right_arm__right_thigh,right_arm__torso
11.741181304001234,0.0,0.0,0.0,0.0,1.5708,0.0,0.0,1.5708,8.300651384712999e-06,0.023375190527434295,0.03529815803629617,0.3787316799549352,1.5900233650957114,0.038737630979055866,-0.3737220492470159,1.5917922598940322,0.5359188668554762,0.16561060951136836,0.3106807630246748,-0.016456828261696088,0.05591310583720918,-0.016466778921413905,0.05496761653056692,-0.09503166281295383,0.06095397179022591,-0.09504063407557842,0.05940782192470309,-0.09504063407557842,0.05496761653056692,right_arm__right_thigh,right_arm__torso
11.761181304001234,0.0,0.0,0.0,0.0,1.5708,0.0,0.0,1.5708,-1.600261899917587e-06,0.023348324553720008,0.03524180655228827,0.3784901127589883,1.5899956590612196,0.03872738859028199,-0.3735040484718836,1.591787456424229,0.5355893260262667,0.16561060951136836,0.31059712057287414,-0.016456828261696088,0.055869584608762485,-0.016466778921413905,0.05492795869345926,-0.09503166281295383,0.06085467451787327,-0.09504063407557842,0.05932589479446354,-0.09504063407557842,0.05492795869345926,right_arm__right_thigh,right_arm__torso
