vegewenqi/Human_Humanoid_Interaction/g1_real_ws/bdcc_exp/runs/real_default/S1_self_collision/run_001/metrics_timeseries.csv
t_sec,q_nom_waist_roll_joint,q_nom_waist_pitch_joint,q_nom_left_shoulder_pitch_joint,q_nom_left_shoulder_roll_joint,q_nom_left_elbow_joint,q_nom_right_shoulder_pitch_joint,q_nom_right_shoulder_roll_joint,q_nom_right_elbow_joint,q_cbf_waist_roll_joint,q_cbf_waist_pitch_joint,q_cbf_left_shoulder_pitch_joint,q_cbf_left_shoulder_roll_joint,q_cbf_left_elbow_joint,q_cbf_right_shoulder_pitch_joint,q_cbf_right_shoulder_roll_joint,q_cbf_right_elbow_joint,correction_norm,self_unsafe_clearance__left_arm__right_arm,self_safe_clearance__left_arm__right_arm,self_unsafe_clearance__left_arm__torso,self_safe_clearance__left_arm__torso,self_unsafe_clearance__right_arm__torso,self_safe_clearance__right_arm__torso,self_unsafe_clearance__left_arm__left_thigh,self_safe_clearance__left_arm__left_thigh,self_unsafe_clearance__right_arm__right_thigh,self_safe_clearance__right_arm__right_thigh,self_unsafe_global_min_clearance,self_safe_global_min_clearance,self_unsafe_global_min_pair,self_safe_global_min_pair
8.012763340002795,0.0,0.0,0.0,0.0,1.5708,0.0,0.0,1.5708,-0.0003461903482339616,0.06816208051717047,0.20908316585359396,0.32139586102187045,1.6161503358410998,0.2148439130853124,-0.31212548915019767,1.6162462799512265,0.5471375549922548,0.16561060951136836,0.2871102575729919,-0.016456828261696088,0.04660431762853376,-0.016466778921413905,0.04501023114343064,-0.09503166281295383,0.07412757807326731,-0.09504063407557842,0.07285415925117644,-0.09504063407557842,0.04501023114343064,right_arm__right_thigh,right_arm__torso
8.032763340002795,0.0,0.0,0.0,0.0,1.5708,0.0,0.0,1.5708,-0.00015463981150471296,0.06810960498450853,0.20593748381101135,0.3214980125880429,1.616038051454663,0.2122686338863541,-0.311930021257873,1.6164152985695934,0.5448813718581441,0.16561060951136836,0.2871469338536688,-0.016456828261696088,0.04655932128098669,-0.016466778921413905,0.04491884091109391,-0.09503166281295383,0.0734504558605018,-0.09504063407557842,0.07216857175031491,-0.09504063407557842,0.04491884091109391,right_arm__right_thigh,right_arm__torso
8.052763340002794,0.0,0.0,0.0,0.0,1.5708,0.0,0.0,1.5708,4.911936666631377e-05,0.0680555886893907,0.20266986874848789,0.3216372700147288,1.6159157952606942,0.20962082906717341,-0.31175263501824707,1.616600208832927,0.5426056268197029,0.16561060951136836,0.2871947747321826,-0.016456828261696088,0.04652021618943877,-0.016466778921413905,0.044830177961899365,-0.09503166281295383,0.07276218416245467,-0.09504063407557842,0.07147275930562239,-0.09504063407557842,0.044830177961899365,right_arm__right_thigh,right_arm__torso
8.072763340002794,0.0,0.0,0.0,0.0,1.5708,0.0,0.0,1.5708,0.0002528785448373405,0.06800157239427286,0.1994022536859644,0.3217765274414148,1.615793539066725,0.20697302424799272,-0.31157524877862114,1.6167851190962608,0.5403532995520757,0.16561060951136836,0.28724163632693056,-0.016456828261696088,0.046482685540319896,-0.016466778921413905,0.044742494512169356,-0.09503166281295383,0.07207907392009283,-0.09504063407557842,0.07077904154831519,-0.09504063407557842,0.044742494512169356,right_arm__right_thigh,right_arm__torso
8.092763340002794,0.0,0.0,0.0,0.0,1.5708,0.0,0.0,1.5708,0.00043547475841475833,0.06793118233020003,0.19587466958777086,0.32220108962432903,1.6156748686058457,0.20431472425683816,-0.3115431994620216,1.6169375829343942,0.5382762911208966,0.16561060951136836,0.28737037815723576,-0.016456828261696088,0.04649441506500154,-0.016466778921413905,0.04468242925434121,-0.09503166281295383,0.07142483070474637,-0.09504063407557842,0.07012683319723917,-0.09504063407557842,0.04468242925434121,right_arm__right_thigh,right_arm__torso
8.112763340002793,0.0,0.0,0.0,0.0,1.5708,0.0,0.0,1.5708,0.0005919294568764495,0.06784056659657388,0.19202595919153292,0.3229780740099334,1.6155606274155134,0.2016434601228017,-0.3116906773261893,1.6170499673823702,0.5364188985700221,0.16561060951136836,0.28760035962962094,-0.016456828261696088,0.0465671347399165,-0.016466778921413905,0.04465630405977153,-0.09503166281295383,0.0708082379996772,-0.09504063407557842,0.06952611955968749,-0.09504063407557842,0.04465630405977153,right_arm__right_thigh,right_arm__torso
8.132763340002793,0.0,0.0,0.0,0.0,1.5708,0.0,0.0,1.5708,0.0007483841553381405,0.06774995086294774,0.188177248795295,0.3237550583955378,1.615446386225181,0.19897219598876525,-0.311838155190357,1.617162351830346,0.5345973886963589,0.16561060951136836,0.28782917699010657,-0.016456828261696088,0.04664214214492521,-0.016466778921413905,0.044631240462384425,-0.09503166281295383,0.0702014629945373,-0.09504063407557842,0.06892856775657838,-0.09504063407557842,0.044631240462384425,right_arm__right_thigh,right_arm__torso
8.152763340002792,0.0,0.0,0.0,0.0,1.5708,0.0,0.0,1.5708,0.0008920584783716285,0.06765757351057371,0.1843858480022334,0.324545478876402,1.6153379438089628,0.19634642565795596,-0.31199880890692866,1.6172604237373496,0.5328636100024707,0.16561060951136836,0.2880609459094326,-0.016456828261696088,0.04672287359434646,-0.016466778921413905,0.04461054809389703,-0.09503166281295383,0.06961953711248281,-0.09504063407557842,0.06834911602379051,-0.09504063407557842,0.04461054809389703,right_arm__right_thigh,right_arm__torso
8.172763340002792,0.0,0.0,0.0,0.0,1.5708,0.0,0.0,1.5708,0.00091561704251394,0.06754863966704105,0.18113306882603655,0.32546217786823295,1.6152840008992155,0.1941482267025083,-0.3122832952541942,1.6172239798994734,0.5316454434985427,0.16561060951136836,0.28833041255193653,-0.016456828261696088,0.046837829941578396,-0.016466778921413905,0.04462182912797022,-0.09503166281295383,0.06918641387009786,-0.09504063407557842,0.06791260414921599,-0.09504063407557842,0.04462182912797022,right_arm__right_thigh,right_arm__torso
8.192763340002791,0.0,0.0,0.0,0.0,1.5708,0.0,0.0,1.5708,0.0009391756066562516,0.0674397058235084,0.1778802896498397,0.32637887686006395,1.6152300579894683,0.19195002774706063,-0.31256778160145976,1.6171875360615973,0.5304553039426582,0.16561060951136836,0.2885990375044249,-0.016456828261696088,0.04695443196408608,-0.016466778921413905,0.04463385369617179,-0.09503166281295383,0.0687613053054586,-0.09504063407557842,0.06747887444520648,-0.09504063407557842,0.04463385369617179,right_arm__right_thigh,right_arm__torso
8.212763340002791,0.0,0.0,0.0,0.0,1.5708,0.0,0.0,1.5708,0.000962734170798563,0.06733077197997575,0.1746275104736429,0.32729557585189495,1.615176115079721,0.18975182879161298,-0.3128522679487253,1.6171510922237213,0.5292933803943443,0.16561060951136836,0.2888668204204814,-0.016456828261696088,0.04707267796684808,-0.016466778921413905,0.04464662249352505,-0.09503166281295383,0.06834429273535336,-0.09504063407557842,0.067047956474411,-0.09504063407557842,0.04464662249352505,right_arm__right_thigh,right_arm__torso
8.23276334000279,0.0,0.0,0.0,0.0,1.5708,0.0,0.0,1.5708,0.0009862927349408746,0.06722183813644309,0.17137473129744604,0.3282122748437259,1.615122172169974,0.1875536298361653,-0.31313675429599086,1.6171146483858452,0.5281598590747737,0.16561060951136836,0.2891337609644636,-0.016456828261696088,0.04719256612022363,-0.016466778921413905,0.04466013618907402,-0.09503166281295383,0.06793545671335019,-0.09504063407557842,0.0666198798581421,-0.09504063407557842,0.04466013618907402,right_arm__right_thigh,right_arm__torso
8.25276334000279,0.0,0.0,0.0,0.0,1.5708,0.0,0.0,1.5708,0.0010367855490737877,0.06689054516094226,0.1659536063565649,0.33025841869121525,1.6149249688076701,0.18401957090405346,-0.3139607538440485,1.6170342113543168,0.5268831133536576,0.16561060951136836,0.2897377762028707,-0.016456828261696088,0.04749166664522392,-0.016466778921413905,0.04475126204483773,-0.09503166281295383,0.067416920336344,-0.09504063407557842,0.06603235773588964,-0.09504063407557842,0.04475126204483773,right_arm__right_thigh,right_arm__torso
8.27276334000279,0.0,0.0,0.0,0.0,1.5708,0.0,0.0,1.5708,0.0010924073319583429,0.06651690933052974,0.16011957303049754,0.33251963767067955,1.6147004849981748,0.18023113013174666,-0.31488749047774717,1.6169453968956984,0.5256684524017492,0.16561060951136836,0.29040350032728474,-0.016456828261696088,0.04782955501184241,-0.016466778921413905,0.04485916543973881,-0.09503166281295383,0.06690572484026411,-0.09504063407557842,0.06542404446749789,-0.09504063407557842,0.04485916543973881,right_arm__right_thigh,right_arm__torso
8.29276334000279,0.0,0.0,0.0,0.0,1.5708,0.0,0.0,1.5708,0.0011373388455978913,0.06616729127054959,0.15462110070710314,0.33467866165464377,1.6144954862336605,0.17664550515824426,-0.3158044443519651,1.6168548536315686,0.5246554316404597,0.16561060951136836,0.29104172004748985,-0.016456828261696088,0.0481579274049444,-0.016466778921413905,0.04497075000854284,-0.09503166281295383,0.0664618044145402,-0.09504063407557842,0.06487179018231648,-0.09504063407557842,0.04497075000854284,right_arm__right_thigh,right_arm__torso
8.312763340002789,0.0,0.0,0.0,0.0,1.5708,0.0,0.0,1.5708,0.0011216988175414147,0.06595375896761137,0.15102393197103037,0.3362586442422515,1.6144008906018894,0.1742090435343582,-0.31666596867523233,1.6167545148784093,0.5242787827587433,0.16561060951136836,0.29153808000182996,-0.016456828261696088,0.048406055062874376,-0.016466778921413905,0.045091886468213965,-0.09503166281295383,0.06623849330964299,-0.09504063407557842,0.06458316902661601,-0.09504063407557842,0.045091886468213965,right_arm__right_thigh,right_arm__torso
8.332763340002789,0.0,0.0,0.0,0.0,1.5708,0.0,0.0,1.5708,0.0011060587894849382,0.06574022666467315,0.14742676323495763,0.33783862682985927,1.6143062949701186,0.17177258191047215,-0.31752749299849964,1.61665417612525,0.5239441963992387,0.16561060951136836,0.29203324712076306,-0.016456828261696088,0.048656137030515356,-0.016466778921413905,0.04521396319849108,-0.09503166281295383,0.06602802523350323,-0.09504063407557842,0.06429990580464351,-0.09504063407557842,0.04521396319849108,right_arm__right_thigh,right_arm__torso
8.352763340002788,0.0,0.0,0.0,0.0,1.5708,0.0,0.0,1.5708,0.0010904187614284616,0.06552669436173493,0.14382959449888486,0.339418609417467,1.6142116993383477,0.1693361202865861,-0.3183890173217669,1.6165538373720907,0.5236517531892743,0.16561060951136836,0.29252722022500877,-0.016456828261696088,0.048908164215669264,-0.016466778921413905,0.04533697870338407,-0.09503166281295383,0.06583047211570514,-0.09504063407557842,0.06402203812791823,-0.09504063407557842,0.04533697870338407,right_arm__right_thigh,right_arm__torso
8.372763340002788,0.0,0.0,0.0,0.0,1.5708,0.0,0.0,1.5708,0.001074778733371985,0.06531316205879671,0.1402324257628121,0.3409985920050747,1.614117103706577,0.16689965866270004,-0.3192505416450342,1.6164534986189316,0.5234015237695234,0.16561060951136836,0.2930199981585274,-0.016456828261696088,0.04916212732578698,-0.016466778921413905,0.04546093144231325,-0.09503166281295383,0.06564590262591152,-0.09504063407557842,0.06374960318159059,-0.09504063407557842,0.04546093144231325,right_arm__right_thigh,right_arm__torso
8.392763340002787,0.0,0.0,0.0,0.0,1.5708,0.0,0.0,1.5708,0.0010541296759675972,0.0649457123390183,0.1358287985830746,0.34312011851302543,1.6139446122361678,0.16383550035576927,-0.3205917095625628,1.6162927096054835,0.5234043318533391,0.16561060951136836,0.29371003873049256,-0.016456828261696088,0.04951018527070897,-0.016466778921413905,0.04566585595647407,-0.09503166281295383,0.06548729938482536,-0.09504063407557842,0.06348542181969766,-0.09504063407557842,0.04566585595647407,right_arm__right_thigh,right_arm__torso
8.412763340002787,0.0,0.0,0.0,0.0,1.5708,0.0,0.0,1.5708,0.0010246987554734985,0.06430841359502204,0.13001128317312372,0.3461910833722407,1.6136355532708084,0.1596708601092263,-0.322773791773879,1.616025938799413,0.5238757452047458,0.16561060951136836,0.29474508194735527,-0.016456828261696088,0.05002378377756789,-0.016466778921413905,0.04601322573017547,-0.09503166281295383,0.0653821609146028,-0.09504063407557842,0.0632417681601678,-0.09504063407557842,0.04601322573017547,right_arm__right_thigh,right_arm__torso
8.432763340002786,0.0,0.0,0.0,0.0,1.5708,0.0,0.0,1.5708,0.0009952678349793998,0.06367111485102579,0.12419376776317287,0.349262048231456,1.6133264943054488,0.1555062198626833,-0.32495587398519515,1.615759167993342,0.5244725022997,0.16561060951136836,0.29577636826615,-0.016456828261696088,0.05054223659525384,-0.016466778921413905,0.046363263196159216,-0.09503166281295383,0.06531625894958257,-0.09504063407557842,0.06301861965179836,-0.09504063407557842,0.046363263196159216,right_arm__right_thigh,right_arm__torso
8.452763340002786,0.0,0.0,0.0,0.0,1.5708,0.0,0.0,1.5708,0.0009658369144853013,0.06303381610702953,0.11837625235322201,0.3523330130906713,1.6130174353400895,0.1513415796161403,-0.3271379561965113,1.6154923971872712,0.5251941758691576,0.16561060951136836,0.296803888666247,-0.016456828261696088,0.05106548695140903,-0.016466778921413905,0.046715950412507395,-0.09503166281295383,0.06528973622604828,-0.09504063407557842,0.06281611377307988,-0.09504063407557842,0.046715950412507395,right_arm__right_thigh,right_arm__torso
8.472763340002786,0.0,0.0,0.0,0.0,1.5708,0.0,0.0,1.5708,0.001004470144727864,0.062488451633010235,0.11116251457557293,0.3562673769025312,1.6126380210002593,0.14638621325496637,-0.3298732487457568,1.6153212977956168,0.5264667260780779,0.16561060951136836,0.2981006707663663,-0.016456828261696088,0.05174404460868162,-0.016466778921413905,0.047164492101783806,-0.09503166281295383,0.06538480834590057,-0.09504063407557842,0.06266495299294064,-0.09504063407557842,0.047164492101783806,right_arm__right_thigh,right_arm__torso
8.492763340002785,0.0,0.0,0.0,0.0,1.5708,0.0,0.0,1.5708,0.0010520075740154064,0.061955114063463705,0.10376612202682213,0.3603146911596162,1.6122494027219183,0.14132740355925386,-0.33268091265216093,1.6151627142042428,0.5279865108711903,0.16561060951136836,0.299427336589824,-0.016456828261696088,0.05244961113323798,-0.016466778921413905,0.04762895558817268,-0.09503166281295383,0.06555257916377999,-0.09504063407557842,0.06254716174733568,-0.09504063407557842,0.04762895558817268,right_arm__right_thigh,right_arm__torso
8.512763340002785,0.0,0.0,0.0,0.0,1.5708,0.0,0.0,1.5708,0.001099545003302949,0.061421776493917175,0.09636972947807132,0.36436200541670116,1.6118607844435773,0.13626859386354134,-0.33548857655856507,1.6150041306128686,0.5297002428119514,0.16561060951136836,0.30074802273634516,-0.016456828261696088,0.05316252196727661,-0.016466778921413905,0.04809717684774953,-0.09503166281295383,0.0657836435095063,-0.09504063407557842,0.06245939382723195,-0.09504063407557842,0.04809717684774953,right_arm__right_thigh,right_arm__torso
8.532763340002784,0.0,0.0,0.0,0.0,1.5708,0.0,0.0,1.5708,0.0009442946970940245,0.06097474712636112,0.0908794234497645,0.3674167946874459,1.6114683092907829,0.13205285533654937,-0.3377739099663957,1.6148922009612092,0.5311310445899899,0.16561060951136836,0.30177140403601455,-0.016456828261696088,0.05370581279195735,-0.016466778921413905,0.048480147057212736,-0.09503166281295383,0.06596661319060892,-0.09504063407557842,0.062428974389768715,-0.09504063407557842,0.048480147057212736,right_arm__right_thigh,right_arm__torso
8.552763340002784,0.0,0.0,0.0,0.0,1.5708,0.0,0.0,1.5708,0.0006915842207369806,0.060569197644314794,0.08630518621696305,0.3699945745680116,1.611073980516814,0.12824229841163667,-0.33980821034631714,1.6148026932814288,0.5324355489757172,0.16561060951136836,0.30265142556637925,-0.016456828261696088,0.054167547141629746,-0.016466778921413905,0.04882272004970292,-0.09503166281295383,0.06612720034188313,-0.09504063407557842,0.062430925473866,-0.09504063407557842,0.04882272004970292,right_arm__right_thigh,right_arm__torso
8.572763340002783,0.0,0.0,0.0,0.0,1.5708,0.0,0.0,1.5708,0.0004388737443799367,0.06016364816226847,0.0817309489841616,0.3725723544485772,1.610679651742845,0.12443174148672395,-0.34184251072623856,1.6147131856016481,0.5338242027235346,0.16561060951136836,0.30352859903639673,-0.016456828261696088,0.05463195830844275,-0.016466778921413905,0.049167381240550395,-0.09503166281295383,0.06631263146172076,-0.09504063407557842,0.06245008872735233,-0.09504063407557842,0.049167381240550395,right_arm__right_thigh,right_arm__torso
8.592763340002783,0.0,0.0,0.0,0.0,1.5708,0.0,0.0,1.5708,0.00018616326802289277,0.05975809868022214,0.07715671175136014,0.37515013432914285,1.610285322968876,0.12062118456181123,-0.34387681110616003,1.6146236779218675,0.5352963509386984,0.16561060951136836,0.30440291999082847,-0.016456828261696088,0.05509901174378529,-0.016466778921413905,0.0495141143603465,-0.09503166281295383,0.06652284223248406,-0.09504063407557842,0.06248649080279259,-0.09504063407557842,0.0495141143603465,right_arm__right_thigh,right_arm__torso
8.612763340002783,0.0,0.0,0.0,0.0,1.5708,0.0,0.0,1.5708,-0.0001518547906954903,0.059264572049946326,0.07289466271548316,0.3775978012896116,1.6097973291695735,0.11669069192616924,-0.3459730135616087,1.6145208488896796,0.5367982786451512,0.16561060951136836,0.30526041771457196,-0.016456828261696088,0.05554514265752769,-0.016466778921413905,0.0498735405316178,-0.09503166281295383,0.06672427673705877,-0.09504063407557842,0.06255026678103887,-0.09504063407557842,0.0498735405316178,right_arm__right_thigh,right_arm__torso
8.632763340002782,0.0,0.0,0.0,0.0,1.5708,0.0,0.0,1.5708,-0.0011888441497869189,0.05805020091794017,0.07119054093443249,0.3789793825114148,1.6085418870058386,0.1117775009491943,-0.34857641330280187,1.6143088707905844,0.5379422851626577,0.16561060951136836,0.3060015371904428,-0.016456828261696088,0.055799814685695004,-0.016466778921413905,0.05032291999368799,-0.09503166281295383,0.06666657985713648,-0.09504063407557842,0.06272297149510361,-0.09504063407557842,0.05032291999368799,right_arm__right_thigh,right_arm__torso
8.652763340002782,0.0,0.0,0.0,0.0,1.5708,0.0,0.0,1.5708,-0.0022258335088783474,0.05683582978593402,0.06948641915338181,0.3803609637332179,1.6072864448421038,0.10686430997221934,-0.35117981304399504,1.6140968926914894,0.5391578752744829,0.16561060951136836,0.30674144302818324,-0.016456828261696088,0.05605481272746035,-0.016466778921413905,0.05077566908333814,-0.09503166281295383,0.0666164486627853,-0.09504063407557842,0.0629288024660413,-0.09504063407557842,0.05077566908333814,right_arm__right_thigh,right_arm__torso
8.672763340002781,0.0,0.0,0.0,0.0,1.5708,0.0,0.0,1.5708,-0.003262822867969776,0.05562145865392787,0.06778229737233116,0.3817425449550211,1.6060310026783688,0.1019511189952444,-0.35378321278518815,1.6138849145923941,0.5404445659545621,0.16561060951136836,0.3074801279663956,-0.016456828261696088,0.05631013368567159,-0.016466778921413905,0.05123175108709624,-0.09503166281295383,0.0665738852636,-0.09504063407557842,0.06316775971868632,-0.09504063407557842,0.05123175108709624,right_arm__right_thigh,right_arm__torso
8.69276334000278,0.0,0.0,0.0,0.0,1.5708,0.0,0.0,1.5708,-0.004224027176592038,0.05432595407682354,0.0659684193902319,0.38314255529007235,1.6047965872714267,0.09678596279664042,-0.35661948792628795,1.6135851845885836,0.5418953067269183,0.16561060951136836,0.30826408172058645,-0.016456828261696088,0.056569209477087434,-0.016466778921413905,0.05173314343052693,-0.09503166281295383,0.06654550652211755,-0.09504063407557842,0.06345789571313559,-0.09504063407557842,0.05173314343052693,right_arm__right_thigh,right_arm__torso
8.71276334000278,0.0,0.0,0.0,0.0,1.5708,0.0,0.0,1.5708,-0.004703291041225562,0.052514496969360266,0.06345656796961935,0.3846597620242304,1.60369588747781,0.09001848226058663,-0.360936689357339,1.6127274132341691,0.5440481873361782,0.16561060951136836,0.3093416243995657,-0.016456828261696088,0.05685071210236037,-0.016466778921413905,0.05250647112432158,-0.09503166281295383,0.06657024210990287,-0.09504063407557842,0.06391663460488728,-0.09504063407557842,0.05250647112432158,right_arm__right_thigh,right_arm__torso
8.73276334000278,0.0,0.0,0.0,0.0,1.5708,0.0,0.0,1.5708,-0.005182554905859086,0.05070303986189698,0.06094471654900678,0.3861769687583885,1.602595187684193,0.08325100172453286,-0.36525389078839005,1.6118696418797547,0.5463362977777013,0.16561060951136836,0.3104163958024738,-0.016456828261696088,0.05713299373654801,-0.016466778921413905,0.053285582312824986,-0.09503166281295383,0.06660866093206272,-0.09504063407557842,0.064444412519778,-0.09504063407557842,0.053285582312824986,right_arm__right_thigh,right_arm__torso
8.75276334000278,0.0,0.0,0.0,0.0,1.5708,0.0,0.0,1.5708,-0.005661818770492611,0.048891582754433706,0.05843286512839422,0.3876941754925465,1.6014944878905761,0.07648352118847906,-0.3695710922194411,1.6110118705253402,0.548757946484288,0.16561060951136836,0.3114883782311515,-0.016456828261696088,0.057416047674813675,-0.016466778921413905,0.05407034634497224,-0.09503166281295383,0.06666076332003729,-0.09504063407557842,0.06504077676098086,-0.09504063407557842,0.05407034634497224,right_arm__right_thigh,right_arm__torso
8.77276334000278,0.0,0.0,0.0,0.0,1.5708,0.0,0.0,1.5708,-0.005370988289141008,0.04712091080659529,0.0561921728241921,0.3886279505127553,1.6004297688448104,0.07283950093469509,-0.37225710549252927,1.6099553467535905,0.5502094890350183,0.16561060951136836,0.3121557227192926,-0.016456828261696088,0.05759343432487821,-0.016466778921413905,0.0545624154173405,-0.09503166281295383,0.0666984076942033,-0.09504063407557842,0.06533958934698769,-0.09504063407557842,0.0545624154173405,right_arm__right_thigh,right_arm__torso
8.792763340002779,0.0,0.0,0.0,0.0,1.5708,0.0,0.0,1.5708,-0.004547593277377912,0.045378444142299884,0.05413900264406581,0.3891582489480671,1.5993899325555316,0.07135553310456322,-0.37381505834044054,1.6087613742544762,0.5509472009680545,0.16561060951136836,0.3125441494467422,-0.016456828261696088,0.05769785961294421,-0.016466778921413905,0.05484951534105362,-0.09503166281295383,0.06672697871092612,-0.09504063407557842,0.0654057692213664,-0.09504063407557842,0.05484951534105362,right_arm__right_thigh,right_arm__torso
8.812763340002778,0.0,0.0,0.0,0.0,1.5708,0.0,0.0,1.5708,-0.0037241982656148168,0.043635977478004476,0.052085832463939524,0.3896885473833789,1.5983500962662527,0.06987156527443135,-0.37537301118835187,1.607567401755362,0.5517117443801987,0.16561060951136836,0.3129320062202195,-0.016456828261696088,0.0578028960722807,-0.016466778921413905,0.05513679904729751,-0.09503166281295383,0.06676511763732257,-0.09504063407557842,0.06547991006448514,-0.09504063407557842,0.05513679904729751,right_arm__right_thigh,right_arm__torso
8.832763340002778,0.0,0.0,0.0,0.0,1.5708,0.0,0.0,1.5708,-0.0029008032538517213,0.04189351081370906,0.050032662283813235,0.3902188458186907,1.597310259976974,0.0683875974442995,-0.37693096403626314,1.6063734292562477,0.552503007884753,0.16561060951136836,0.31331929210907555,-0.016456828261696088,0.0579085422389356,-0.016466778921413905,0.05542426355587243,-0.09503166281295383,0.06681285508700008,-0.09504063407557842,0.06556199706029417,-0.09504063407557842,0.05542426355587243,right_arm__right_thigh,right_arm__torso
8.852763340002777,0.0,0.0,0.0,0.0,1.5708,0.0,0.0,1.5708,-0.002570638510724038,0.04034559567723871,0.048545301481876274,0.39039830213653953,1.5965457810184898,0.0663566451264101,-0.37835837272013706,1.6052546108244963,0.553000980005592,0.16561060951136836,0.3136164462663438,-0.016456828261696088,0.057948456273175686,-0.016466778921413905,0.05568864209509636,-0.09503166281295383,0.06671527890058995,-0.09504063407557842,0.0656511381647831,-0.09504063407557842,0.05568864209509636,right_arm__right_thigh,right_arm__torso
8.872763340002777,0.0,0.0,0.0,0.0,1.5708,0.0,0.0,1.5708,-0.0025859185838271927,0.03893393904121052,0.047454217893848044,0.39033203835467034,1.5959741547062907,0.06394260002636586,-0.37969435188797446,1.6041884282195382,0.5532978616478865,0.16561060951136836,0.3138504702648537,-0.016456828261696088,0.05794217396063145,-0.016466778921413905,0.05593736654430337,-0.09503166281295383,0.06651344715247343,-0.09504063407557842,0.06575086854882459,-0.09504063407557842,0.05593736654430337,right_arm__right_thigh,right_arm__torso
8.892763340002777,0.0,0.0,0.0,0.0,1.5708,0.0,0.0,1.5708,-0.002601198656930348,0.03752228240518234,0.046363134305819814,0.39026577457280115,1.5954025283940916,0.06152855492632162,-0.38103033105581186,1.6031222456145804,0.5536167367030095,0.16561060951136836,0.31408413277669267,-0.016456828261696088,0.05793606987649985,-0.016466778921413905,0.05618684564832291,-0.09503166281295383,0.06631449540990247,-0.09504063407557842,0.06586264867842853,-0.09504063407557842,0.05618684564832291,right_arm__right_thigh,right_arm__torso
8.912763340002776,0.0,0.0,0.0,0.0,1.5708,0.0,0.0,1.5708,-0.0025836022554570617,0.036209772489635174,0.04535018378573181,0.39016203534400096,1.5948758584602432,0.05937240663564178,-0.3821774551491338,1.602130947993808,0.5538473081764533,0.16561060951136836,0.31427626052214924,-0.016456828261696088,0.057922914450483004,-0.016466778921413905,0.0564020248769124,-0.09503166281295383,0.0661232255474514,-0.09504063407557842,0.06594553968458292,-0.09504063407557842,0.0564020248769124,right_arm__right_thigh,right_arm__torso
8.932763340002776,0.0,0.0,0.0,0.0,1.5708,0.0,0.0,1.5708,-0.0025003095547472807,0.03509538517393953,0.044493364769334416,0.3899834097958093,1.5944390238181276,0.05773160757806615,-0.38294719451226367,1.6012892913060357,0.553872322528053,0.16561060951136836,0.31438586873892566,-0.016456828261696088,0.05789544344359662,-0.016466778921413905,0.05654765850567875,-0.09503166281295383,0.06594361663464718,-0.09504063407557842,0.06595456223987842,-0.09504063407557842,0.05654765850567875,right_arm__right_thigh,right_arm__torso
8.952763340002775,0.0,0.0,0.0,0.0,1.5708,0.0,0.0,1.5708,-0.0024170168540374997,0.033980997858243885,0.043636545752937024,0.38980478424761766,1.5940021891760119,0.05609080852049052,-0.38371693387539346,1.6004476346182634,0.5539085268324794,0.16561060951136836,0.31449529178197494,-0.016456828261696088,0.05786808017812353,-0.016466778921413905,0.05669365644697452,-0.09503166281295383,0.06576571083386729,-0.09504063407557842,0.06596945700428458,-0.09504063407557842,0.05669365644697452,right_arm__right_thigh,right_arm__torso
8.972763340002775,0.0,0.0,0.0,0.0,1.5708,0.0,0.0,1.5708,-0.002333724153327719,0.03286661054254824,0.04277972673653963,0.389626158699426,1.5935653545338961,0.054450009462914895,-0.3844866732385233,1.5996059779304912,0.5539559188957431,0.16561060951136836,0.3146045297058043,-0.016456828261696088,0.057840824742851765,-0.016466778921413905,0.056840017280775534,-0.09503166281295383,0.06558951752312747,-0.09504063407557842,0.0659902282362203,-0.09504063407557842,0.056840017280775534,right_arm__right_thigh,right_arm__torso
8.992763340002774,0.0,0.0,0.0,0.0,1.5708,0.0,0.0,1.5708,-0.002250431452617938,0.0317522232268526,0.04192290772014224,0.38944753315123437,1.5931285198917804,0.05280921040533927,-0.38525641260165316,1.598764321242719,0.5540144958467409,0.16561060951136836,0.3147135825657346,-0.016456828261696088,0.057813677225971555,-0.016466778921413905,0.05698673957967457,-0.09503166281295383,0.06541504603285436,-0.09504063407557842,0.06601687936699865,-0.09504063407557842,0.05698673957967457,right_arm__right_thigh,right_arm__torso
9.012763340002774,0.0,0.0,0.0,0.0,1.5708,0.0,0.0,1.5708,-0.0021531426698305992,0.03051598482341589,0.041024041879494,0.3891020388521825,1.5926799640958107,0.05084651474889301,-0.38594459579703155,1.5977701405049043,0.5538627541177391,0.16561060951136836,0.3147775259759228,-0.016456828261696088,0.05775667537727619,-0.016466778921413905,0.057120537401286614,-0.09503166281295383,0.06517552522638217,-0.09504063407557842,0.06597445580495478,-0.09504063407557842,0.057120537401286614,right_arm__right_thigh,right_arm__torso
9.032763340002774,0.0,0.0,0.0,0.0,1.5708,0.0,0.0,1.5708,-0.0020409098152089356,0.029149642052328117,0.04008028127768847,0.3885783733630831,1.5922188932428265,0.048540119629261934,-0.3865456988207837,1.596613104880439,0.5534909701153562,0.16561060951136836,0.31479328727514266,-0.016456828261696088,0.05766779349813375,-0.016466778921413905,0.057240816389004856,-0.09503166281295383,0.06486656614144418,-0.09504063407557842,0.0658611342246315,-0.09504063407557842,0.057240816389004856,right_arm__right_thigh,right_arm__torso
9.052763340002773,0.0,0.0,0.0,0.0,1.5708,0.0,0.0,1.5708,-0.001928676960587272,0.02778329928124034,0.039136520675882934,0.3880547078739837,1.5917578223898423,0.046233724509630855,-0.38714680184453587,1.5954560692559736,0.5531375150887077,0.16561060951136836,0.3148088236812704,-0.016456828261696088,0.05757902491430253,-0.016466778921413905,0.05736186562478501,-0.09503166281295383,0.0645595328651622,-0.09504063407557842,0.06575811228659789,-0.09504063407557842,0.05736186562478501,right_arm__right_thigh,right_arm__torso
9.072763340002773,0.0,0.0,0.0,0.0,1.5708,0.0,0.0,1.5708,-0.0017690334801127156,0.026672426901044464,0.03829419217763084,0.38746364689389884,1.591346024651063,0.04439247422281035,-0.38750740543155365,1.594534704140774,0.5526547086532713,0.16561060951136836,0.3147682069614404,-0.016456828261696088,0.057477494716724836,-0.016466778921413905,0.057437445848250196,-0.09503166281295383,0.06425553551202257,-0.09504063407557842,0.06562432112705363,-0.09504063407557842,0.057437445848250196,right_arm__right_thigh,right_arm__torso
9.092763340002772,0.0,0.0,0.0,0.0,1.5708,0.0,0.0,1.5708,-0.0014935541612107086,0.026185731620180123,0.03769968729586146,0.38670792212665445,1.591054613268573,0.04368768734961341,-0.3872804096482973,1.5941891401364507,0.5518190261856957,0.16561060951136836,0.31459079748413676,-0.016456828261696088,0.0573445533201942,-0.016466778921413905,0.05740037522285735,-0.09503166281295383,0.06395509438482963,-0.09504063407557842,0.06539427167555004,-0.09504063407557842,0.0573445533201942,right_arm__right_thigh,left_arm__torso
9.112763340002772,0.0,0.0,0.0,0.0,1.5708,0.0,0.0,1.5708,-0.0012180748423087015,0.02569903633931578,0.03710518241409208,0.3859521973594101,1.5907632018860833,0.04298290047641647,-0.38705341386504094,1.5938435761321275,0.5509856877742659,0.16561060951136836,0.31441328608343083,-0.016456828261696088,0.057211621149414194,-0.016466778921413905,0.05736337545290518,-0.09503166281295383,0.06365496000623758,-0.09504063407557842,0.06516499488120203,-0.09504063407557842,0.057211621149414194,right_arm__right_thigh,left_arm__torso
9.132763340002771,0.0,0.0,0.0,0.0,1.5708,0.0,0.0,1.5708,-0.0009425955234066944,0.025212341058451437,0.0365106775323227,0.3851964725921658,1.5904717905035934,0.042278113603219536,-0.38682641808178464,1.5934980121278042,0.5501547040708517,0.16561060951136836,0.31423567281459835,-0.016456828261696088,0.0570786984699774,-0.016466778921413905,0.05732644661613859,-0.09503166281295383,0.06335513690388186,-0.09504063407557842,0.06493649476404134,-0.09504063407557842,0.0570786984699774,right_arm__right_thigh,left_arm__torso
9.152763340002771,0.0,0.0,0.0,0.0,1.5708,0.0,0.0,1.5708,-0.0008435312246550072,0.02494160993165232,0.03623522090009031,0.384363804574439,1.5903382514828064,0.04184287248671949,-0.3863669161794639,1.5932833510548274,0.5491709981355118,0.16561060951136836,0.31400160950835787,-0.016456828261696088,0.056929611980600925,-0.016466778921413905,0.05724582037176859,-0.09503166281295383,0.06302828700688984,-0.09504063407557842,0.06469140372147397,-0.09504063407557842,0.056929611980600925,right_arm__right_thigh,left_arm__torso
9.17276334000277,0.0,0.0,0.0,0.0,1.5708,0.0,0.0,1.5708,-0.0007775700986480023,0.024711403124679197,0.03601963167205806,0.38351669863804705,1.5902343362211335,0.041458209941924555,-0.3858637859612717,1.5930932530964055,0.5481587882225344,0.16561060951136836,0.3137568836107886,-0.016456828261696088,0.05677744552584696,-0.016466778921413905,0.05715698909976699,-0.09503166281295383,0.06269619726324896,-0.09504063407557842,0.06444319584620509,-0.09504063407557842,0.05677744552584696,right_arm__right_thigh,left_arm__torso
9.19276334000277,0.0,0.0,0.0,0.0,1.5708,0.0,0.0,1.5708,-0.0007116089726409975,0.024481196317706073,0.035804042444025796,0.382669592701655,1.5901304209594609,0.04107354739712962,-0.3853606557430795,1.5929031551379835,0.5471470258772356,0.16561060951136836,0.3135120697115873,-0.016456828261696088,0.056625229394258875,-0.016466778921413905,0.05706816032023118,-0.09503166281295383,0.06236396225983451,-0.09504063407557842,0.06419507699705965,-0.09504063407557842,0.056625229394258875,right_arm__right_thigh,left_arm__torso
9.21276334000277,0.0,0.0,0.0,0.0,1.5708,0.0,0.0,1.5708,-0.0006696838112181769,0.024231287548408843,0.03560914109435186,0.3817379071048392,1.5900371806016027,0.04062359242908882,-0.384830649101108,1.5926843614154753,0.5460525098966286,0.16561060951136836,0.31324690890908,-0.016456828261696088,0.056457460413362304,-0.016466778921413905,0.05697486040250618,-0.09503166281295383,0.061996512431479134,-0.09504063407557842,0.06393460890122904,-0.09504063407557842,0.056457460413362304,right_arm__right_thigh,left_arm__torso
9.23276334000277,0.0,0.0,0.0,0.0,1.5708,0.0,0.0,1.5708,-0.0006611200367468586,0.023954032891390056,0.035442954062037645,0.3806888268110164,1.5899587567740148,0.04008301302243739,-0.38426333857767864,1.5924257386074236,0.5448431980507048,0.16561060951136836,0.31295351910656505,-0.016456828261696088,0.05626809992401907,-0.016466778921413905,0.05687536554812389,-0.09503166281295383,0.061580174795385856,-0.09504063407557842,0.06365707051009722,-0.09504063407557842,0.05626809992401907,right_arm__right_thigh,left_arm__torso
9.252763340002769,0.0,0.0,0.0,0.0,1.5708,0.0,0.0,1.5708,-0.0006525562622755403,0.023676778234371264,0.03527676702972344,0.3796397465171937,1.5898803329464266,0.03954243361578596,-0.38369602805424935,1.592167115799372,0.543634676808553,0.16561060951136836,0.3126600105316198,-0.016456828261696088,0.05607865662591294,-0.016466778921413905,0.05677589014097725,-0.09503166281295383,0.061163599040861744,-0.09504063407557842,0.06337977221928243,-0.09504063407557842,0.05607865662591294,right_arm__right_thigh,left_arm__torso
9.272763340002768,0.0,0.0,0.0,0.0,1.5708,0.0,0.0,1.5708,-0.0006299665924388494,0.02344556204291408,0.03506374467280401,0.37897751581609485,1.5897788630504643,0.039176015551392274,-0.38333995630331924,1.5919916370557454,0.5428600924169488,0.16561060951136836,0.3124751017628666,-0.016456828261696088,0.05595979407885071,-0.016466778921413905,0.05671363984172176,-0.09503166281295383,0.060891939858734895,-0.09504063407557842,0.0631981275096058,-0.09504063407557842,0.05595979407885071,right_arm__right_thigh,left_arm__torso
9.292763340002768,0.0,0.0,0.0,0.0,1.5708,0.0,0.0,1.5708,-0.0006000884531736972,0.023238269454195836,0.034826384630291966,0.37851630910359235,1.589665417408183,0.03890009934699387,-0.38309365346876556,1.5918593636088885,0.5423109960382969,0.16561060951136836,0.31234664243285787,-0.016456828261696088,0.055877630847573384,-0.016466778921413905,0.056670732271622226,-0.09503166281295383,0.06069567469811654,-0.09504063407557842,0.0630661785000125,-0.09504063407557842,0.055877630847573384,right_arm__right_thigh,left_arm__torso
9.312763340002768,0.0,0.0,0.0,0.0,1.5708,0.0,0.0,1.5708,-0.0005702103139085448,0.023030976865477587,0.034589024587779925,0.37805510239108986,1.5895519717659015,0.038624183142595477,-0.38284735063421194,1.5917270901620317,0.5417622292665655,0.16561060951136836,0.31221815281803367,-0.016456828261696088,0.055795459998957464,-0.016466778921413905,0.05662783165605534,-0.09503166281295383,0.060499417340880435,-0.09504063407557842,0.0629343194435189,-0.09504063407557842,0.055795459998957464,right_arm__right_thigh,left_arm__torso
9.332763340002767,0.0,0.0,0.0,0.0,1.5708,0.0,0.0,1.5708,-0.0005403321746433926,0.022823684276759338,0.03435166454526788,0.3775938956785873,1.5894385261236201,0.038348266938197074,-0.38260104779965826,1.5915948167151748,0.5412137931043747,0.16561060951136836,0.31208963293553116,-0.016456828261696088,0.05571328156974592,-0.016466778921413905,0.05658493801064665,-0.09503166281295383,0.06030316818353876,-0.09504063407557842,0.06280255071032212,-0.09504063407557842,0.05571328156974592,right_arm__right_thigh,left_arm__torso
9.352763340002767,0.0,0.0,0.0,0.0,1.5708,0.0,0.0,1.5708,-0.0005104540353782403,0.022616391688041092,0.03411430450275584,0.3771326889660848,1.5893250804813388,0.03807235073379868,-0.38235474496510463,1.5914625432683178,0.5406656885578077,0.16561060951136836,0.31196108280249973,-0.016456828261696088,0.05563109559669385,-0.016466778921413905,0.056542051351019446,-0.09503166281295383,0.06010692762379616,-0.09504063407557842,0.06267087267118657,-0.09504063407557842,0.05563109559669385,right_arm__right_thigh,left_arm__torso
9.372763340002766,0.0,0.0,0.0,0.0,1.5708,0.0,0.0,1.5708,-0.00047597499852545784,0.022386178975181987,0.03381148477691305,0.37649339393596,1.5891799191318376,0.03777644672865247,-0.38196831610262744,1.5913194738100604,0.5398866403310972,0.16561060951136836,0.31177466961658024,-0.016456828261696088,0.055516972536832354,-0.016466778921413905,0.056473868314964815,-0.09503166281295383,0.059837438491286754,-0.09504063407557842,0.06248304796911938,-0.09504063407557842,0.055516972536832354,right_arm__right_thigh,left_arm__torso
9.392763340002766,0.0,0.0,0.0,0.0,1.5708,0.0,0.0,1.5708,-0.00043286370366112884,0.022112963256611017,0.033385848825518004,0.37551996751575784,1.5889752524005005,0.03744304137733365,-0.3813189811432136,1.5911561487486015,0.5386741972093991,0.16561060951136836,0.3114796533987484,-0.016456828261696088,0.055342910496292,-0.016466778921413905,0.056358202408271996,-0.09503166281295383,0.05943045370066888,-0.09504063407557842,0.06218974392055995,-0.09504063407557842,0.055342910496292,right_arm__right_thigh,left_arm__torso
9.412763340002765,0.0,0.0,0.0,0.0,1.5708,0.0,0.0,1.5708,-0.0003897524087967999,0.02183974753804005,0.03296021287412296,0.37454654109555574,1.5887705856691634,0.037109636026014824,-0.3806696461837998,1.5909928236871425,0.5374623803097787,0.16561060951136836,0.3111845088776254,-0.016456828261696088,0.05516880433656102,-0.016466778921413905,0.056242520757603415,-0.09503166281295383,0.05902339352600633,-0.09504063407557842,0.061896447782424036,-0.09504063407557842,0.05516880433656102,right_arm__right_thigh,left_arm__torso
9.432763340002765,0.0,0.0,0.0,0.0,1.5708,0.0,0.0,1.5708,-0.0003869372620971715,0.02179562121275757,0.03289667590741566,0.3738557860901312,1.5887386856541474,0.037026764516187784,-0.3801776102623574,1.5909509998541924,0.5366184815833112,0.16561060951136836,0.31096924804142884,-0.016456828261696088,0.05504345417224077,-0.016466778921413905,0.05615369663367151,-0.09503166281295383,0.0587553498938333,-0.09504063407557842,0.06170122027414232,-0.09504063407557842,0.05504345417224077,right_arm__right_thigh,left_arm__torso
9.452763340002765,0.0,0.0,0.0,0.0,1.5708,0.0,0.0,1.5708,-0.00039048220781507715,0.02178765292687966,0.0328902903835087,0.3732096461758174,1.588734054058882,0.03698343570357079,-0.37971040143889473,1.5909283530164977,0.5358326323247563,0.16561060951136836,0.3107665601211715,-0.016456828261696088,0.05492577263675366,-0.016466778921413905,0.05606909703082641,-0.09503166281295383,0.05850919575326269,-0.09504063407557842,0.061521432377706825,-0.09504063407557842,0.05492577263675366,right_arm__right_thigh,left_arm__torso
9.472763340002764,0.0,0.0,0.0,0.0,1.5708,0.0,0.0,1.5708,-0.0003940271535329828,0.021779684641001752,0.03288390485960174,0.37256350626150364,1.5887294224636164,0.03694010689095378,-0.37924319261543205,1.590905706178803,0.5350468218485444,0.16561060951136836,0.31056382191199616,-0.016456828261696088,0.0548080582562924,-0.016466778921413905,0.05598448037439349,-0.09503166281295383,0.05826297884148998,-0.09504063407557842,0.06134160358174656,-0.09504063407557842,0.0548080582562924,right_arm__right_thigh,left_arm__torso
9.492763340002764,0.0,0.0,0.0,0.0,1.5708,0.0,0.0,1.5708,-0.00039757209925088844,0.021771716355123847,0.032877519335694785,0.3719173663471899,1.5887247908683508,0.03689677807833679,-0.37877598379196936,1.590883059341108,0.5342610503258026,0.16561060951136836,0.3103610334788822,-0.016456828261696088,0.05469031108038894,-0.016466778921413905,0.0558998466838424,-0.09503166281295383,0.05801669931407724,-0.09504063407557842,0.06116173393027405,-0.09504063407557842,0.05469031108038894,right_arm__right_thigh,left_arm__torso
9.512763340002763,0.0,0.0,0.0,0.0,1.5708,0.0,0.0,1.5708,-0.0003995151115716479,0.021741344857444344,0.03284843569938508,0.37125885083901955,1.5887110736139403,0.03681969087372687,-0.3783096092130582,1.5908460313995754,0.5334618071939087,0.16561060951136836,0.3101560839645759,-0.016456828261696088,0.054570438623721795,-0.016466778921413905,0.05581557331882728,-0.09503166281295383,0.05776332044265414,-0.09504063407557842,0.06097794943444684,-0.09504063407557842,0.054570438623721795,right_arm__right_thigh,left_arm__torso
9.532763340002763,0.0,0.0,0.0,0.0,1.5708,0.0,0.0,1.5708,-0.000399870676340508,0.02168877273407561,0.03279685920349041,0.3705880716461005,1.588688352859513,0.03670915054502287,-0.3778440613348533,1.5907947523985901,0.5326492234956491,0.16561060951136836,0.30994899018348654,-0.016456828261696088,0.05444845845422125,-0.016466778921413905,0.055731658316147153,-0.09503166281295383,0.05750288961324454,-0.09504063407557842,0.06079028250805543,-0.09504063407557842,0.05444845845422125,right_arm__right_thigh,left_arm__torso
9.552763340002763,0.0,0.0,0.0,0.0,1.5708,0.0,0.0,1.5708,-0.0004002262411093681,0.02163620061070688,0.03274528270759574,0.3699172924531815,1.5886656321050858,0.03659861021631887,-0.37737851345664847,1.590743473397605,0.5318366908963643,0.16561060951136836,0.30974184326342746,-0.016456828261696088,0.054326443775392336,-0.016466778921413905,0.05564772824377062,-0.09503166281295383,0.057242374777337984,-0.09504063407557842,0.06060257133003663,-0.09504063407557842,0.054326443775392336,right_arm__right_thigh,left_arm__torso
9.572763340002762,0.0,0.0,0.0,0.0,1.5708,0.0,0.0,1.5708,-0.00040058180587822814,0.021583628487338146,0.03269370621170106,0.3692465132602625,1.5886429113506588,0.03648806988761487,-0.3769129655784436,1.5906921943966197,0.5310242096306172,0.16561060951136836,0.3095346432742562,-0.016456828261696088,0.054204394644505494,-0.016466778921413905,0.05556378312461763,-0.09503166281295383,0.05698177606505514,-0.09504063407557842,0.06041481596346332,-0.09504063407557842,0.054204394644505494,right_arm__right_thigh,left_arm__torso
9.592763340002762,0.0,0.0,0.0,0.0,1.5708,0.0,0.0,1.5708,-0.00039843966120201957,0.0215373393455484,0.03265106613939609,0.36844637708146294,1.5886245909174452,0.03637567329964346,-0.37634839286483296,1.5906387929180337,0.5300522962977405,0.16561060951136836,0.3092857337087543,-0.016456828261696088,0.05405862294022251,-0.016466778921413905,0.055461816895787136,-0.09503166281295383,0.05667355214696457,-0.09504063407557842,0.06018908718435864,-0.09504063407557842,0.05405862294022251,right_arm__right_thigh,left_arm__torso
9.612763340002761,0.0,0.0,0.0,0.0,1.5708,0.0,0.0,1.5708,-0.00039378034683648297,0.021497382137531197,0.03261743211646783,0.367515876065951,1.5886107050893872,0.03626140598985025,-0.3756840237899337,1.5905832524251227,0.5289197312709916,0.16561060951136836,0.3089947527497137,-0.016456828261696088,0.05388891973027449,-0.016466778921413905,0.05534167615527727,-0.09503166281295383,0.05631728745821965,-0.09504063407557842,0.059925055261092985,-0.09504063407557842,0.05388891973027449,right_arm__right_thigh,left_arm__torso
9.63276334000276,0.0,0.0,0.0,0.0,1.5708,0.0,0.0,1.5708,-0.00038912103247094637,0.021457424929513993,0.03258379809353957,0.3665853750504391,1.5885968192613291,0.03614713868005703,-0.3750196547150344,1.5905277119322119,0.5277872488513671,0.16561060951136836,0.30870366919444403,-0.016456828261696088,0.05371914970230682,-0.016466778921413905,0.055221502932021355,-0.09503166281295383,0.05596087904634536,-0.09504063407557842,0.05966093363320496,-0.09504063407557842,0.05371914970230682,right_arm__right_thigh,left_arm__torso
9.65276334000276,0.0,0.0,0.0,0.0,1.5708,0.0,0.0,1.5708,-0.0003866742136495994,0.0214313210777924,0.03256108795891226,0.36590778699196,1.5885892350316322,0.036057056187897035,-0.3745244475009116,1.5904843561482538,0.526954255991249,0.16561060951136836,0.3084895510566215,-0.016456828261696088,0.053595464084365246,-0.016466778921413905,0.05513194027938137,-0.09503166281295383,0.055701379754016234,-0.09504063407557842,0.05946383019862206,-0.09504063407557842,0.053595464084365246,right_arm__right_thigh,left_arm__torso
9.67276334000276,0.0,0.0,0.0,0.0,1.5708,0.0,0.0,1.5708,-0.00038542951168799423,0.021412744180514042,0.03254431310869036,0.3653676143196926,1.5885850746540886,0.035980114050800364,-0.37412115112719646,1.5904476206913294,0.526283974946756,0.16561060951136836,0.30831725892138195,-0.016456828261696088,0.05349682355028548,-0.016466778921413905,0.05505901153324877,-0.09503166281295383,0.05549454835996259,-0.09504063407557842,0.05930314550347257,-0.09504063407557842,0.05349682355028548,right_arm__right_thigh,left_arm__torso
9.69276334000276,0.0,0.0,0.0,0.0,1.5708,0.0,0.0,1.5708,-0.000384184809726389,0.021394167283235684,0.032527538258468464,0.3648274416474252,1.5885809142765448,0.035903171913703694,-0.3737178547534813,1.590410885234405,0.5256137187736529,0.16561060951136836,0.30814493125714004,-0.016456828261696088,0.05339816059877153,-0.016466778921413905,0.05498607106209635,-0.09503166281295383,0.05528767033713833,-0.09504063407557842,0.05914242780524853,-0.09504063407557842,0.05339816059877153,right_arm__right_thigh,left_arm__torso
9.712763340002759,0.0,0.0,0.0,0.0,1.5708,0.0,0.0,1.5708,-0.0003829401077647838,0.021375590385957325,0.032510763408246574,0.3642872689751578,1.5885767538990012,0.03582622977660702,-0.3733145583797662,1.5903741497774808,0.5249434875672079,0.16561060951136836,0.3079725681037033,-0.016456828261696088,0.053299475259061674,-0.016466778921413905,0.05491311887989739,-0.09503166281295383,0.055080745768076506,-0.09504063407557842,0.05898167713487973,-0.09504063407557842,0.053299475259061674,right_arm__right_thigh,left_arm__torso
9.732763340002759,0.0,0.0,0.0,0.0,1.5708,0.0,0.0,1.5708,-0.00038148782131069346,0.021356247757372694,0.03249257116740204,0.3637433602801572,1.5885718202206771,0.03574907306730307,-0.3729080042895907,1.5903373048264131,0.5242682080218617,0.16561060951136836,0.30779889222171813,-0.016456828261696088,0.05320009490455099,-0.016466778921413905,0.05483956274079882,-0.09503166281295383,0.05487223434743149,-0.09504063407557842,0.058819579637840624,-0.09504063407557842,0.05320009490455099,right_arm__right_thigh,left_arm__torso
9.752763340002758,0.0,0.0,0.0,0.0,1.5708,0.0,0.0,1.5708,-0.0003744495329570914,0.021316299656384288,0.032436237605808604,0.363098916955454,1.588546077378929,0.035666142319952784,-0.37241378656848806,1.5902975134390036,0.5234564320692289,0.16561060951136836,0.30759080129237404,-0.016456828261696088,0.05308258678951627,-0.016466778921413905,0.054750054268881854,-0.09503166281295383,0.05462220953777952,-0.09504063407557842,0.05862208463962015,-0.09504063407557842,0.05308258678951627,right_arm__right_thigh,left_arm__torso
9.772763340002758,0.0,0.0,0.0,0.0,1.5708,0.0,0.0,1.5708,-0.0003674112446034893,0.021276351555395884,0.03237990404421516,0.3624544736307508,1.588520334537181,0.03558321157260249,-0.3719195688473854,1.590257722051594,0.5226446838994739,0.16561060951136836,0.3073826583096441,-0.016456828261696088,0.0529650475544908,-0.016466778921413905,0.05466052792993645,-0.09503166281295383,0.05437210777891627,-0.09504063407557842,0.058424540278985165,-0.09504063407557842,0.0529650475544908,right_arm__right_thigh,left_arm__torso
9.792763340002757,0.0,0.0,0.0,0.0,1.5708,0.0,0.0,1.5708,-0.00036037295624988724,0.021236403454407478,0.032323570482621716,0.3618100303060476,1.588494591695433,0.0355002808252522,-0.3714253511262828,1.5902179306641844,0.5218329636422516,0.16561060951136836,0.3071744633422718,-0.016456828261696088,0.05284747725085695,-0.016466778921413905,0.05457098374895608,-0.09503166281295383,0.05412192918427275,-0.09504063407557842,0.05822694661202468,-0.09504063407557842,0.05284747725085695,right_arm__right_thigh,left_arm__torso
9.812763340002757,0.0,0.0,0.0,0.0,1.5708,0.0,0.0,1.5708,-0.000355636036113176,0.021202672668988815,0.03227660187624471,0.361244794106841,1.588473342660787,0.035428213571788894,-0.3709901651846662,1.590183423441418,0.5211201255267532,0.16561060951136836,0.3069915010013546,-0.016456828261696088,0.05274431280213371,-0.016466778921413905,0.054492113465661574,-0.09503166281295383,0.053902429132090174,-0.09504063407557842,0.05805334174769955,-0.09504063407557842,0.05274431280213371,right_arm__right_thigh,left_arm__torso
9.832763340002757,0.0,0.0,0.0,0.0,1.5708,0.0,0.0,1.5708,-0.00035516877304164816,0.021180476676287793,0.03224700778078322,0.3608265084305919,1.5884604308470616,0.035376301021552425,-0.3706644990723855,1.5901587197654012,0.5205907047089173,0.16561060951136836,0.30685541656582044,-0.016456828261696088,0.05266791369513232,-0.016466778921413905,0.054433068155319175,-0.09503166281295383,0.05373994255493558,-0.09504063407557842,0.057924303549331674,-0.09504063407557842,0.05266791369513232,right_arm__right_thigh,left_arm__torso
9.852763340002756,0.0,0.0,0.0,0.0,1.5708,0.0,0.0,1.5708,-0.0003547015099701204,0.021158280683586776,0.032217413685321716,0.36040822275434276,1.5884475190333363,0.035324388471315964,-0.3703388329601049,1.5901340160893844,0.5200612946119555,0.16561060951136836,0.30671931012345927,-0.016456828261696088,0.052591501458362916,-0.016466778921413905,0.05437401507452816,-0.09503166281295383,0.05357742503405055,-0.09504063407557842,0.05779524403736999,-0.09504063407557842,0.052591501458362916,right_arm__right_thigh,left_arm__torso
9.872763340002756,0.0,0.0,0.0,0.0,1.5708,0.0,0.0,1.5708,-0.0003542342468985926,0.021136084690885758,0.03218781958986022,0.3599899370780936,1.5884346072196107,0.035272475921079495,-0.37001316684782426,1.5901093124133674,0.519531895268642,0.16561060951136836,0.3065831816934558,-0.016456828261696088,0.052515076105721814,-0.016466778921413905,0.054314954230374024,-0.09503166281295383,0.05341487660236294,-0.09504063407557842,0.057666163227105355,-0.09504063407557842,0.052515076105721814,right_arm__right_thigh,left_arm__torso
9.892763340002755,0.0,0.0,0.0,0.0,1.5708,0.0,0.0,1.5708,-0.0003537669838270648,0.02111388869818474,0.03215822549439872,0.35957165140184444,1.5884216954058854,0.03522056337084303,-0.3696875007355436,1.5900846087373506,0.5190025067118837,0.16561060951136836,0.3064470312949986,-0.016456828261696088,0.05243863765110829,-0.016466778921413905,0.054255885629944156,-0.09503166281295383,0.05325229729282105,-0.09504063407557842,0.05753706113383253,-0.09504063407557842,0.05243863765110829,right_arm__right_thigh,left_arm__torso
9.912763340002755,0.0,0.0,0.0,0.0,1.5708,0.0,0.0,1.5708,-0.000353299720755537,0.021091692705483722,0.03212863139893723,0.3591533657255953,1.5884087835921599,0.03516865082060657,-0.36936183462326294,1.5900599050613338,0.518473128974722,0.16561060951136836,0.30631085894727983,-0.016456828261696088,0.052362186108424524,-0.016466778921413905,0.05419680928032705,-0.09503166281295383,0.05308968713839368,-0.09504063407557842,0.057407937772848805,-0.09504063407557842,0.052362186108424524,right_arm__right_thigh,left_arm__torso
9.932763340002754,0.0,0.0,0.0,0.0,1.5708,0.0,0.0,1.5708,-0.00035564032836660805,0.021069150793428526,0.032110018084720915,0.3587203606561004,1.5884023683876498,0.035092510211446507,-0.3690175409823876,1.5900236610213256,0.5179191137111945,0.16561060951136836,0.30616855141658045,-0.016456828261696088,0.05228293584965518,-0.016466778921413905,0.054134496575465235,-0.09503166281295383,0.0529220064778167,-0.09504063407557842,0.057269874468512894,-0.09504063407557842,0.05228293584965518,right_arm__right_thigh,left_arm__torso
9.952763340002754,0.0,0.0,0.0,0.0,1.5708,0.0,0.0,1.5708,-0.0003586568672403422,0.021046525609124615,0.03209404814485161,0.3582838122261067,1.5883975170946463,0.03501053724591705,-0.36866876318595576,1.5899846389001,0.5173591794387085,0.16561060951136836,0.3060247483200854,-0.016456828261696088,0.052203000753362316,-0.016466778921413905,0.054071398459215214,-0.09503166281295383,0.05275308185494812,-0.09504063407557842,0.05712964013496072,-0.09504063407557842,0.052203000753362316,right_arm__right_thigh,left_arm__torso
9.972763340002754,0.0,0.0,0.0,0.0,1.5708,0.0,0.0,1.5708,-0.00036167340611407636,0.021023900424820705,0.032078078204982305,0.3578472637961131,1.5883926658016427,0.03492856428038759,-0.3683199853895239,1.5899456167788744,0.5167992601352052,0.16561060951136836,0.3058809210898708,-0.016456828261696088,0.05212305128654568,-0.016466778921413905,0.054008292107036976,-0.09503166281295383,0.05258412650507743,-0.09504063407557842,0.05698938146593388,-0.09504063407557842,0.05212305128654568,right_arm__right_thigh,left_arm__torso
9.992763340002753,0.0,0.0,0.0,0.0,1.5708,0.0,0.0,1.5708,-0.0003646899449878105,0.021001275240516794,0.03206210826511299,0.3574107153661194,1.5883878145086392,0.03484659131485813,-0.36797120759309204,1.5899065946576487,0.516239355849391,0.16561060951136836,0.305737069748951,-0.016456828261696088,0.052043087464725246,-0.016466778921413905,0.05394517752859457,-0.09503166281295383,0.05241514047098572,-0.09504063407557842,0.056849098485844296,-0.09504063407557842,0.052043087464725246,right_arm__right_thigh,left_arm__torso
10.012763340002753,0.0,0.0,0.0,0.0,1.5708,0.0,0.0,1.5708,-0.00036770648386154467,0.020978650056212887,0.03204613832524369,0.35697416693612577,1.5883829632156359,0.034764618349328674,-0.3676224297966602,1.589867572536423,0.5156794666301829,0.16561060951136836,0.3055931943203448,-0.016456828261696088,0.05196310930342399,-0.016466778921413905,0.053882054733554174,-0.09503166281295383,0.052246123795499616,-0.09504063407557842,0.05670879121911995,-0.09504063407557842,0.05196310930342399,right_arm__right_thigh,left_arm__torso
10.032763340002752,0.0,0.0,0.0,0.0,1.5708,0.0,0.0,1.5708,-0.0003577928066507175,0.02096447747112969,0.03204360394696604,0.35615943206084133,1.5883852065564286,0.03469503673806335,-0.3669281757788796,1.589833212191637,0.514613938153425,0.16561060951136836,0.3053167086325599,-0.016456828261696088,0.051813602800357905,-0.016466778921413905,0.05375571284648217,-0.09503166281295383,0.05193706469175122,-0.09504063407557842,0.056436326416547195,-0.09504063407557842,0.051813602800357905,right_arm__right_thigh,left_arm__torso
10.052763340002752,0.0,0.0,0.0,0.0,1.5708,0.0,0.0,1.5708,-0.0003450479357861758,0.020952155662948793,0.032044011412541845,0.3552618896704446,1.5883890033346928,0.03462816833153677,-0.36615827646027843,1.5897998725870908,0.5134377298793079,0.16561060951136836,0.3050110920519627,-0.016456828261696088,0.0516488188555132,-0.016466778921413905,0.053615488703710745,-0.09503166281295383,0.051597245684263604,-0.09504063407557842,0.05613483197327479,-0.09504063407557842,0.051597245684263604,right_arm__right_thigh,left_arm__left_thigh
10.072763340002751,0.0,0.0,0.0,0.0,1.5708,0.0,0.0,1.5708,-0.0003368590716078966,0.020943705214313844,0.03204590011987691,0.3545811161805478,1.5883924369339162,0.034579959208252166,-0.3655676363183507,1.5897762138225304,0.5125412381057909,0.16561060951136836,0.30477799131060695,-0.016456828261696088,0.05152378041360439,-0.016466778921413905,0.05350785980773021,-0.09503166281295383,0.05133930234760406,-0.09504063407557842,0.05590413583375653,-0.09504063407557842,0.05133930234760406,right_arm__right_thigh,left_arm__left_thigh
10.092763340002751,0.0,0.0,0.0,0.0,1.5708,0.0,0.0,1.5708,-0.0003343063996626526,0.020940043987492364,0.03204962125720464,0.3541685054211941,1.5883954212478268,0.03455483330554305,-0.36519875598689766,1.589764531132391,0.5119907477944216,0.16561060951136836,0.3046346852317671,-0.016456828261696088,0.051447959841296215,-0.016466778921413905,0.05344058978037611,-0.09503166281295383,0.051182736191449724,-0.09504063407557842,0.055761107659011794,-0.09504063407557842,0.051182736191449724,right_arm__right_thigh,left_arm__left_thigh
10.11276334000275,0.0,0.0,0.0,0.0,1.5708,0.0,0.0,1.5708,-0.00033175372771740864,0.020936382760670884,0.03205334239453237,0.35375589466184043,1.5883984055617375,0.03452970740283393,-0.3648298756554446,1.5897528484422514,0.5114402654824709,0.16561060951136836,0.30449135572679975,-0.016456828261696088,0.05137212645388309,-0.016466778921413905,0.05337330940474658,-0.09503166281295383,0.05102614813471554,-0.09504063407557842,0.055618056418824974,-0.09504063407557842,0.05102614813471554,right_arm__right_thigh,left_arm__left_thigh
10.13276334000275,0.0,0.0,0.0,0.0,1.5708,0.0,0.0,1.5708,-0.0003292010557721646,0.020932721533849404,0.0320570635318601,0.35334328390248676,1.5884013898756484,0.03450458150012481,-0.3644609953239916,1.5897411657521119,0.5108897911957967,0.16561060951136836,0.30434800281777064,-0.016456828261696088,0.051296280264333555,-0.016466778921413905,0.053306018690328916,-0.09503166281295383,0.05086953822424237,-0.09504063407557842,0.055474982137428075,-0.09504063407557842,0.05086953822424237,right_arm__right_thigh,left_arm__left_thigh
10.15276334000275,0.0,0.0,0.0,0.0,1.5708,0.0,0.0,1.5708,-0.0003266483838269206,0.020929060307027923,0.03206078466918784,0.3529306731431331,1.588404374189559,0.03447945559741569,-0.3640921149925386,1.5897294830619721,0.5103393249603684,0.16561060951136836,0.30420462652674873,-0.016456828261696088,0.05122042128561771,-0.016466778921413905,0.05323871764661228,-0.09503166281295383,0.050712906506947514,-0.09504063407557842,0.055331884839070394,-0.09504063407557842,0.050712906506947514,right_arm__right_thigh,left_arm__left_thigh
10.17276334000275,0.0,0.0,0.0,0.0,1.5708,0.0,0.0,1.5708,-0.0003262912183824461,0.020927974851122765,0.0320723701755544,0.35247914271316133,1.588412138707589,0.03444959254387982,-0.3636814089387797,1.5897150196250283,0.5097324559072309,0.16561060951136836,0.3040464092428773,-0.016456828261696088,0.05113733249045288,-0.016466778921413905,0.05316378853543546,-0.09503166281295383,0.05054185901203134,-0.09504063407557842,0.05517289685067764,-0.09504063407557842,0.05054185901203134,right_arm__right_thigh,left_arm__left_thigh
10.192763340002749,0.0,0.0,0.0,0.0,1.5708,0.0,0.0,1.5708,-0.0003284611697655698,0.020929854211775602,0.032093007888930825,0.351982814167352,1.588425405434,0.03441427683804481,-0.36322255978609197,1.5896973554359843,0.5090606689340942,0.16561060951136836,0.3038711046465426,-0.016456828261696088,0.05104591965225369,-0.016466778921413905,0.05308007668560644,-0.09503166281295383,0.050354219469601696,-0.09504063407557842,0.05499561192313723,-0.09504063407557842,0.050354219469601696,right_arm__right_thigh,left_arm__left_thigh
10.212763340002748,0.0,0.0,0.0,0.0,1.5708,0.0,0.0,1.5708,-0.00033063112114869347,0.020931733572428442,0.03211364560230725,0.35148648562154267,1.5884386721604107,0.0343789611322098,-0.36276371063340423,1.5896796912469406,0.5083888972174229,0.16561060951136836,0.30369576544572763,-0.016456828261696088,0.05095448837241903,-0.016466778921413905,0.05299634895478561,-0.09503166281295383,0.050166555250576006,-0.09504063407557842,0.0548182909496705,-0.09504063407557842,0.050166555250576006,right_arm__right_thigh,left_arm__left_thigh
10.232763340002748,0.0,0.0,0.0,0.0,1.5708,0.0,0.0,1.5708,-0.00033280107253181717,0.020933612933081283,0.03213428331568367,0.3509901570757334,1.5884519388868217,0.03434364542637479,-0.3623048614807165,1.5896620270578967,0.5077171408177759,0.16561060951136836,0.30352039168100303,-0.016456828261696088,0.05086303867355757,-0.016466778921413905,0.05291260536136386,-0.09503166281295383,0.049978866456174526,-0.09504063407557842,0.05464093397557343,-0.09504063407557842,0.049978866456174526,right_arm__right_thigh,left_arm__left_thigh
10.252763340002748,0.0,0.0,0.0,0.0,1.5708,0.0,0.0,1.5708,-0.00033569030054759097,0.02095262063629488,0.03218347939090966,0.3503976905269874,1.58848115797912,0.03431142212561294,-0.36173747718225097,1.5896470124949664,0.5069048748885607,0.16561060951136836,0.3033073929101763,-0.016456828261696088,0.050753659379524335,-0.016466778921413905,0.05280894481618009,-0.09503166281295383,0.04975772982108109,-0.09504063407557842,0.054423264007563005,-0.09504063407557842,0.04975772982108109,right_arm__right_thigh,left_arm__left_thigh
10.272763340002747,0.0,0.0,0.0,0.0,1.5708,0.0,0.0,1.5708,-0.00033924676345817344,0.020987517397108843,0.032259167548179785,0.3497160418369556,1.5885251752376477,0.034282067485502686,-0.3610694105686805,1.5896344558500621,0.5059623036825347,0.16561060951136836,0.3030594633113999,-0.016456828261696088,0.05062763447891974,-0.016466778921413905,0.05268679350708588,-0.09503166281295383,0.049505573812365006,-0.09504063407557842,0.05416817300715129,-0.09504063407557842,0.049505573812365006,right_arm__right_thigh,left_arm__left_thigh
10.292763340002747,0.0,0.0,0.0,0.0,1.5708,0.0,0.0,1.5708,-0.0003428032263687559,0.021022414157922806,0.03233485570544991,0.34903439314692375,1.5885691924961753,0.03425271284539244,-0.36040134395511003,1.5896218992051578,0.5050197966986903,0.16561060951136836,0.3028114655663497,-0.016456828261696088,0.050501575507963026,-0.016466778921413905,0.052564608337427376,-0.09503166281295383,0.04925340707385939,-0.09504063407557842,0.05391301695669937,-0.09504063407557842,0.04925340707385939,right_arm__right_thigh,left_arm__left_thigh
10.312763340002746,0.0,0.0,0.0,0.0,1.5708,0.0,0.0,1.5708,-0.0003397265766051409,0.021034413104715703,0.032360930899676545,0.3486584109739985,1.58858441941171,0.0342443078615898,-0.3600169940298719,1.5896184264630482,0.5044876675400449,0.16561060951136836,0.30267174262654034,-0.016456828261696088,0.05043215294332093,-0.016466778921413905,0.052494236829362134,-0.09503166281295383,0.04911345596154426,-0.09504063407557842,0.053765803345585644,-0.09504063407557842,0.04911345596154426,right_arm__right_thigh,left_arm__left_thigh
10.332763340002746,0.0,0.0,0.0,0.0,1.5708,0.0,0.0,1.5708,-0.00033528141452324395,0.021041687883220094,0.0323767701828903,0.3483454924658251,1.5885937064403517,0.034240225111424515,-0.35969117918491295,1.58961682786864,0.5040402055494911,0.16561060951136836,0.3025543525689561,-0.016456828261696088,0.05037441279910346,-0.016466778921413905,0.05243455195832114,-0.09503166281295383,0.04899665005073339,-0.09504063407557842,0.053640854839560076,-0.09504063407557842,0.04899665005073339,right_arm__right_thigh,left_arm__left_thigh
10.352763340002745,0.0,0.0,0.0,0.0,1.5708,0.0,0.0,1.5708,-0.000330836252441347,0.02104896266172448,0.032392609466104054,0.3480325739576516,1.5886029934689934,0.03423614236125923,-0.35936536433995403,1.589615229274232,0.5035927520580887,0.16561060951136836,0.3024369471221556,-0.016456828261696088,0.05031666539439425,-0.016466778921413905,0.052374859004414354,-0.09503166281295383,0.0488798355768387,-0.09504063407557842,0.05351589223796663,-0.09504063407557842,0.0488798355768387,right_arm__right_thigh,left_arm__left_thigh
10.372763340002745,0.0,0.0,0.0,0.0,1.5708,0.0,0.0,1.5708,-0.00032639109035945005,0.02105623744022887,0.03240844874931781,0.34771965544947814,1.588612280497635,0.03423205961109394,-0.35903954949499506,1.589613630679824,0.5031453070885128,0.16561060951136836,0.3023195262981717,-0.016456828261696088,0.05025891073487551,-0.016466778921413905,0.052315157974033216,-0.09503166281295383,0.048763012567183905,-0.09504063407557842,0.05339091556333858,-0.09504063407557842,0.048763012567183905,right_arm__right_thigh,left_arm__left_thigh
10.392763340002745,0.0,0.0,0.0,0.0,1.5708,0.0,0.0,1.5708,-0.0003219459282775531,0.021063512218733257,0.03242428803253156,0.3474067369413047,1.588621567526277,0.034227976860928655,-0.35871373465003614,1.589612032085416,0.502697870663519,0.16561060951136836,0.3022020901090383,-0.016456828261696088,0.050201148826230196,-0.016466778921413905,0.0522554488735697,-0.09503166281295383,0.04864618104913565,-0.09504063407557842,0.053265924838235945,-0.09504063407557842,0.04864618104913565,right_arm__right_thigh,left_arm__left_thigh
10.412763340002744,0.0,0.0,0.0,0.0,1.5708,0.0,0.0,1.5708,-0.0003194373392455153,0.021073963963909856,0.032442711917600196,0.34706287407640757,1.5886327250812466,0.03422227786545196,-0.3583482798354987,1.5896097731618783,0.5022010053053422,0.16561060951136836,0.30207165920028695,-0.016456828261696088,0.05013765762352587,-0.016466778921413905,0.05218847371398655,-0.09503166281295383,0.04851750452976372,-0.09504063407557842,0.05312615457352021,-0.09504063407557842,0.04851750452976372,right_arm__right_thigh,left_arm__left_thigh
10.432763340002744,0.0,0.0,0.0,0.0,1.5708,0.0,0.0,1.5708,-0.00032003084661364926,0.02108950472799955,0.032465275942959684,0.3466694430438623,1.5886468789357828,0.034213989890043615,-0.35791932779995983,1.5896064564911951,0.5016249622200675,0.16561060951136836,0.30192041498837585,-0.016456828261696088,0.050064990426679,-0.016466778921413905,0.052109860212885856,-0.09503166281295383,0.04836985731041099,-0.09504063407557842,0.05296271079784787,-0.09504063407557842,0.04836985731041099,right_arm__right_thigh,left_arm__left_thigh
10.452763340002743,0.0,0.0,0.0,0.0,1.5708,0.0,0.0,1.5708,-0.00032062435398178316,0.021105045492089247,0.032487839968319165,0.3462760120113171,1.588661032790319,0.03420570191463526,-0.357490375764421,1.589603139820512,0.5010489350877565,0.16561060951136836,0.30176914536706967,-0.016456828261696088,0.04999231181413655,-0.016466778921413905,0.052031232778692205,-0.09503166281295383,0.04822219889431181,-0.09504063407557842,0.0527992423782383,-0.09504063407557842,0.04822219889431181,right_arm__right_thigh,left_arm__left_thigh
10.472763340002743,0.0,0.0,0.0,0.0,1.5708,0.0,0.0,1.5708,-0.0003212178613499171,0.021120586256178943,0.03251040399367865,0.34588258097877184,1.588675186644855,0.03419741393922691,-0.3570614237288821,1.5895998231498287,0.5004729239634932,0.16561060951136836,0.3016178503621538,-0.016456828261696088,0.0499196217972189,-0.016466778921413905,0.05195259142603023,-0.09503166281295383,0.04807452934129647,-0.09504063407557842,0.052635749365065515,-0.09504063407557842,0.04807452934129647,right_arm__right_thigh,left_arm__left_thigh
10.492763340002742,0.0,0.0,0.0,0.0,1.5708,0.0,0.0,1.5708,-0.0003262213247120674,0.021148401603569934,0.032559249711616486,0.34546351165237427,1.5887046384085353,0.03418181066739685,-0.35658220803743634,1.5895928485277928,0.49984549456546706,0.16561060951136836,0.3014525618202918,-0.016456828261696088,0.04984198742400986,-0.016466778921413905,0.05186476552509045,-0.09503166281295383,0.04791933403736745,-0.09504063407557842,0.05245355579678335,-0.09504063407557842,0.04791933403736745,right_arm__right_thigh,left_arm__left_thigh
10.512763340002742,0.0,0.0,0.0,0.0,1.5708,0.0,0.0,1.5708,-0.00033894664538933504,0.02119770981415133,0.032654114818492695,0.3449995495317631,1.5887608768956634,0.03415339827110778,-0.3560149804067386,1.5895794688127245,0.49912806033433627,0.16561060951136836,0.30126278025762615,-0.016456828261696088,0.04975570173313176,-0.016466778921413905,0.051760860926635094,-0.09503166281295383,0.04775099476947994,-0.09504063407557842,0.05223862166752277,-0.09504063407557842,0.04775099476947994,right_arm__right_thigh,left_arm__left_thigh
10.532763340002742,0.0,0.0,0.0,0.0,1.5708,0.0,0.0,1.5708,-0.00035167196606660265,0.021247018024732722,0.032748979925368904,0.34453558741115187,1.5888171153827915,0.03412498587481871,-0.35544775277604085,1.5895660890976562,0.4984107024214536,0.16561060951136836,0.3010729597257518,-0.016456828261696088,0.04966940132026251,-0.016466778921413905,0.05165693226123083,-0.09503166281295383,0.047582681763267465,-0.09504063407557842,0.052023642212511906,-0.09504063407557842,0.047582681763267465,right_arm__right_thigh,left_arm__left_thigh
10.552763340002741,0.0,0.0,0.0,0.0,1.5708,0.0,0.0,1.5708,-0.0003617994374612328,0.021296715877591302,0.032845071105419364,0.34416289654830284,1.5888730935536468,0.034103330753483055,-0.3549647057297677,1.5895559785839053,0.4978172174483145,0.16561060951136836,0.3009154109647561,-0.016456828261696088,0.04959991372401132,-0.016466778921413905,0.051568389620987753,-0.09503166281295383,0.047449924381576664,-0.09504063407557842,0.05184086164106866,-0.09504063407557842,0.047449924381576664,right_arm__right_thigh,left_arm__left_thigh
10.57276334000274,0.0,0.0,0.0,0.0,1.5708,0.0,0.0,1.5708,-0.0003677543596846852,0.021347039556425078,0.03294313154929171,0.3439368014920208,1.5889286536161629,0.034092528864548055,-0.3546168657681077,1.589551118914897,0.49742263642902285,0.16561060951136836,0.3008097379415337,-0.016456828261696088,0.04955744756125294,-0.016466778921413905,0.051504584249030955,-0.09503166281295383,0.047374261517933725,-0.09504063407557842,0.05170984658857419,-0.09504063407557842,0.047374261517933725,right_arm__right_thigh,left_arm__left_thigh
10.59276334000274,0.0,0.0,0.0,0.0,1.5708,0.0,0.0,1.5708,-0.0003737092819081376,0.021397363235258853,0.03304119199316406,0.3437107064357388,1.5889842136786791,0.03408172697561306,-0.35426902580644765,1.5895462592458884,0.4970281194472284,0.16561060951136836,0.3007040529928724,-0.016456828261696088,0.04951497902320681,-0.016466778921413905,0.05144076981122295,-0.09503166281295383,0.04729862905673238,-0.09504063407557842,0.051578817689068884,-0.09504063407557842,0.04729862905673238,right_arm__right_thigh,left_arm__left_thigh
10.61276334000274,0.0,0.0,0.0,0.0,1.5708,0.0,0.0,1.5708,-0.00037966420413159,0.02144768691409263,0.03313925243703641,0.3434846113794568,1.5890397737411954,0.03407092508667806,-0.35392118584478766,1.5895413995768801,0.4966336666555419,0.16561060951136836,0.30059835612933933,-0.016456828261696088,0.049472508113394986,-0.016466778921413905,0.05137694631540582,-0.09503166281295383,0.047223027055708994,-0.09504063407557842,0.05144777497327993,-0.09504063407557842,0.047223027055708994,right_arm__right_thigh,left_arm__left_thigh
10.63276334000274,0.0,0.0,0.0,0.0,1.5708,0.0,0.0,1.5708,-0.0003856191263550424,0.021498010592926407,0.03323731288090876,0.3432585163231747,1.5890953338037115,0.03406012319774307,-0.35357334588312767,1.5895365399078716,0.4962392782070345,0.16561060951136836,0.3004926473615042,-0.016456828261696088,0.049430034835340475,-0.016466778921413905,0.051313113769422936,-0.09503166281295383,0.04714745557265701,-0.09504063407557842,0.051316718471980105,-0.09504063407557842,0.04714745557265701,right_arm__right_thigh,left_arm__left_thigh
10.652763340002739,0.0,0.0,0.0,0.0,1.5708,0.0,0.0,1.5708,-0.0003935026418030659,0.021582891473625722,0.03339373825375496,0.34306074094250333,1.5891847106700838,0.034052648766800635,-0.35316825538967506,1.5895343297151292,0.4958307795796775,0.16561060951136836,0.30038160506185474,-0.016456828261696088,0.049392333602582716,-0.016466778921413905,0.05123872377103375,-0.09503166281295383,0.04708974445988262,-0.09504063407557842,0.05116554724979064,-0.09504063407557842,0.04708974445988262,right_arm__right_thigh,left_arm__left_thigh
10.672763340002739,0.0,0.0,0.0,0.0,1.5708,0.0,0.0,1.5708,-0.0004029044389626079,0.02169497745228206,0.03359611131693114,0.3428852601779323,1.5893007097573488,0.03404779387146145,-0.352718094513164,1.5895342053180375,0.49541133202267873,0.16561060951136836,0.3002663596224043,-0.016456828261696088,0.04935839368464029,-0.016466778921413905,0.051156015727799126,-0.09503166281295383,0.04704616289340918,-0.09504063407557842,0.050998537661107346,-0.09504063407557842,0.04704616289340918,right_arm__right_thigh,left_arm__left_thigh
10.692763340002738,0.0,0.0,0.0,0.0,1.5708,0.0,0.0,1.5708,-0.00041230623612214986,0.021807063430938398,0.03379848438010732,0.3427097794133613,1.5894167088446138,0.03404293897612226,-0.3522679336366529,1.5895340809209457,0.4949921361625731,0.16561060951136836,0.3001511000021109,-0.016456828261696088,0.04932445786170109,-0.016466778921413905,0.05107329251940129,-0.09503166281295383,0.04700269211896296,-0.09504063407557842,0.050831514184970894,-0.09504063407557842,0.04700269211896296,right_arm__right_thigh,left_arm__left_thigh
10.712763340002738,0.0,0.0,0.0,0.0,1.5708,0.0,0.0,1.5708,-0.0004217080332816919,0.021919149409594735,0.034000857443283496,0.34253429864879026,1.5895327079318788,0.03403808408078308,-0.3518177727601418,1.589533956523854,0.49457319263936916,0.16561060951136836,0.3000358262210136,-0.016456828261696088,0.04929052613973825,-0.016466778921413905,0.05099055416274281,-0.09503166281295383,0.04695933222674312,-0.09504063407557842,0.050664476912272965,-0.09504063407557842,0.04695933222674312,right_arm__right_thigh,left_arm__left_thigh
10.732763340002737,0.0,0.0,0.0,0.0,1.5708,0.0,0.0,1.5708,-0.00040198297908326385,0.021965735772406035,0.03408292542594862,0.34245572189065826,1.5895798579776057,0.03405129901722924,-0.35135749633836244,1.5895409456969996,0.49420209399473547,0.16561060951136836,0.2999365783428901,-0.016456828261696088,0.04927539828249913,-0.016466778921413905,0.05090581125903043,-0.09503166281295383,0.046943653696280147,-0.09504063407557842,0.05048778936363696,-0.09504063407557842,0.046943653696280147,right_arm__right_thigh,left_arm__left_thigh
10.752763340002737,0.0,0.0,0.0,0.0,1.5708,0.0,0.0,1.5708,-0.00037917331690101477,0.022005385558534544,0.034152252793183735,0.3423874075144176,1.5896197167339106,0.03406642759503355,-0.3508961486544919,1.58954868821541,0.49383622552285855,0.16561060951136836,0.29983901494515086,-0.016456828261696088,0.04926226194651542,-0.016466778921413905,0.05082084178554935,-0.09503166281295383,0.04693091255183096,-0.09504063407557842,0.05031006565966625,-0.09504063407557842,0.04693091255183096,right_arm__right_thigh,left_arm__left_thigh
10.772763340002736,0.0,0.0,0.0,0.0,1.5708,0.0,0.0,1.5708,-0.00035636365471876575,0.02204503534466305,0.03422158016041886,0.34231909313817693,1.5896595754902154,0.034081556172837854,-0.3504348009706214,1.5895564307338204,0.4934705443469212,0.16561060951136836,0.29974143735457054,-0.016456828261696088,0.04924912601214576,-0.016466778921413905,0.05073585640582379,-0.09503166281295383,0.04691818432573561,-0.09504063407557842,0.050132326333238025,-0.09504063407557842,0.04691818432573561,right_arm__right_thigh,left_arm__left_thigh
10.792763340002736,0.0,0.0,0.0,0.0,1.5708,0.0,0.0,1.5708,-0.00034125014649086824,0.022070182074973826,0.034260072820262076,0.34228272373911356,1.58968178209329,0.03409235685085474,-0.3500430433099448,1.5895628189635547,0.49317280032886296,0.16561060951136836,0.29966256265582036,-0.016456828261696088,0.049242120640464015,-0.016466778921413905,0.050663690899301034,-0.09503166281295383,0.04691229850690304,-0.09504063407557842,0.04998181665418383,-0.09504063407557842,0.04691229850690304,right_arm__right_thigh,left_arm__left_thigh
10.812763340002736,0.0,0.0,0.0,0.0,1.5708,0.0,0.0,1.5708,-0.00033206539473311397,0.022084156330497037,0.03427481186602234,0.3422709632539637,1.5896903903044541,0.03409982351762146,-0.34970489454310205,1.5895681639127364,0.49292737527687447,0.16561060951136836,0.29959809802823634,-0.016456828261696088,0.04923983776359009,-0.016466778921413905,0.05060140333886043,-0.09503166281295383,0.04691167713697347,-0.09504063407557842,0.04985228345817189,-0.09504063407557842,0.04691167713697347,right_arm__right_thigh,left_arm__left_thigh
10.832763340002735,0.0,0.0,0.0,0.0,1.5708,0.0,0.0,1.5708,-0.00032288064297535975,0.022098130586020247,0.034289550911782596,0.34225920276881394,1.589698998515618,0.034107290184388184,-0.3493667457762593,1.589573508861918,0.49268206166541073,0.16561060951136836,0.2995336262462421,-0.016456828261696088,0.049237554910540965,-0.016466778921413905,0.05053910726206304,-0.09503166281295383,0.04691105643373683,-0.09504063407557842,0.04972273935745475,-0.09504063407557842,0.04691105643373683,right_arm__right_thigh,left_arm__left_thigh
10.852763340002735,0.0,0.0,0.0,0.0,1.5708,0.0,0.0,1.5708,-0.0003136958912176055,0.022112104841543457,0.03430428995754286,0.34224744228366416,1.5897076067267821,0.034114756851154907,-0.34902859700941663,1.5895788538111,0.49243685966101813,0.16561060951136836,0.29946914731402763,-0.016456828261696088,0.04923527208131892,-0.016466778921413905,0.050476802676052895,-0.09503166281295383,0.046910436397209876,-0.09504063407557842,0.0495931843850031,-0.09504063407557842,0.046910436397209876,right_arm__right_thigh,left_arm__left_thigh
10.872763340002734,0.0,0.0,0.0,0.0,1.5708,0.0,0.0,1.5708,-0.0003045947557298499,0.02212662458291014,0.034316636833149325,0.3422367795010469,1.5897148748345011,0.03412616188396425,-0.3486832846775054,1.5895862482170093,0.4921876152959209,0.16561060951136836,0.29940354369856625,-0.016456828261696088,0.049233209929252064,-0.016466778921413905,0.050413141338932044,-0.09503166281295383,0.046909970193459494,-0.09504063407557842,0.04946133852490883,-0.09504063407557842,0.046909970193459494,right_arm__right_thigh,left_arm__left_thigh
10.892763340002734,0.0,0.0,0.0,0.0,1.5708,0.0,0.0,1.5708,-0.0002959898599084931,0.02214438163339138,0.03431478683392382,0.34223263128238435,1.5897141897952243,0.03416094004082205,-0.3482954585484605,1.5896058055874087,0.4919138551893011,0.16561060951136836,0.2993312995197996,-0.016456828261696088,0.04923245730408379,-0.016466778921413905,0.05034146854452959,-0.09503166281295383,0.04691041328610507,-0.09504063407557842,0.049315953264445156,-0.09504063407557842,0.04691041328610507,right_arm__right_thigh,left_arm__left_thigh
10.912763340002734,0.0,0.0,0.0,0.0,1.5708,0.0,0.0,1.5708,-0.00028738496408713625,0.02216213868387262,0.03431293683469831,0.34222848306372183,1.5897135047559474,0.03419571819767985,-0.3479076324194156,1.589625362957808,0.4916402526511267,0.16561060951136836,0.2992590462050403,-0.016456828261696088,0.04923170467827004,-0.016466778921413905,0.05026978468953763,-0.09503166281295383,0.04691085640065512,-0.09504063407557842,0.04917056227647171,-0.09504063407557842,0.04691085640065512,right_arm__right_thigh,left_arm__left_thigh
10.932763340002733,0.0,0.0,0.0,0.0,1.5708,0.0,0.0,1.5708,-0.0002787800682657795,0.022179895734353857,0.0343110868354728,0.3422243348450593,1.5897128197166706,0.034230496354537655,-0.34751980629037066,1.5896449203282075,0.4913668079446092,0.16561060951136836,0.2991867837605073,-0.016456828261696088,0.04923095205181083,-0.016466778921413905,0.05019808978492368,-0.09503166281295383,0.04691129953711051,-0.09504063407557842,0.04902516563069165,-0.09504063407557842,0.04691129953711051,right_arm__right_thigh,left_arm__left_thigh
10.952763340002733,0.0,0.0,0.0,0.0,1.5708,0.0,0.0,1.5708,-0.0002670006555540096,0.022218862471224163,0.03430741678490849,0.3422174338548787,1.5897112418976422,0.03430646149070091,-0.3471257643169137,1.5896877652878951,0.49109177586255015,0.16561060951136836,0.2991128512446276,-0.016456828261696088,0.04922970469943286,-0.016466778921413905,0.050124928287140436,-0.09503166281295383,0.04691173458689374,-0.09504063407557842,0.04888187053400392,-0.09504063407557842,0.04691173458689374,right_arm__right_thigh,left_arm__left_thigh
10.972763340002732,0.0,0.0,0.0,0.0,1.5708,0.0,0.0,1.5708,-0.00025105460652485016,0.022285667475345786,0.03430135786943353,0.34220691978019513,1.5897084922818767,0.0344364856127514,-0.3467235638853467,1.5897611758166508,0.49081466121521883,0.16561060951136836,0.29903672985292507,-0.016456828261696088,0.04922780800582885,-0.016466778921413905,0.05004984631037762,-0.09503166281295383,0.04691215922308614,-0.09504063407557842,0.04874137899638817,-0.09504063407557842,0.04691215922308614,right_arm__right_thigh,left_arm__left_thigh
10.992763340002732,0.0,0.0,0.0,0.0,1.5708,0.0,0.0,1.5708,-0.00023510855749569077,0.022352472479467405,0.034295298953958574,0.34219640570551163,1.589705742666111,0.0345665097348019,-0.3463213634537797,1.5898345863454064,0.490537775174268,0.16561060951136836,0.29896059974066025,-0.016456828261696088,0.04922591131054649,-0.016466778921413905,0.049974754720175985,-0.09503166281295383,0.04691258417053565,-0.09504063407557842,0.04860094274205967,-0.09504063407557842,0.04691258417053565,right_arm__right_thigh,left_arm__left_thigh
11.012763340002731,0.0,0.0,0.0,0.0,1.5708,0.0,0.0,1.5708,-0.0002257084410680889,0.02240570337058761,0.034291363346900625,0.34218974349767906,1.5897040630417933,0.034670579488005226,-0.34595899996413115,1.5898932783555704,0.4902890782580159,0.16561060951136836,0.2988925233078398,-0.016456828261696088,0.04922470992154973,-0.016466778921413905,0.04990719045353989,-0.09503166281295383,0.04691302236706843,-0.09504063407557842,0.04847380301628085,-0.09504063407557842,0.04691302236706843,right_arm__right_thigh,left_arm__left_thigh
11.032763340002731,0.0,0.0,0.0,0.0,1.5708,0.0,0.0,1.5708,-0.0002354090958804519,0.022419325539313726,0.03429362346943751,0.34219432088427026,1.5897055056100065,0.03469891542416474,-0.34571287908814835,1.5899090223132981,0.4901220968354322,0.16561060951136836,0.29884796710305067,-0.016456828261696088,0.04922553741254396,-0.016466778921413905,0.049861612298435554,-0.09503166281295383,0.04691349846069534,-0.09504063407557842,0.04838532017702013,-0.09504063407557842,0.04691349846069534,right_arm__right_thigh,left_arm__left_thigh
11.05276334000273,0.0,0.0,0.0,0.0,1.5708,0.0,0.0,1.5708,-0.0002451097506928149,0.022432947708039844,0.03429588359197439,0.3421988982708615,1.5897069481782196,0.034727251360324264,-0.3454667582121656,1.5899247662710259,0.4899551849116493,0.16561060951136836,0.29880340728330895,-0.016456828261696088,0.04922636490290888,-0.016466778921413905,0.04981602975808044,-0.09503166281295383,0.046913974600807484,-0.09504063407557842,0.048296836404390864,-0.09504063407557842,0.046913974600807484,right_arm__right_thigh,left_arm__left_thigh
11.07276334000273,0.0,0.0,0.0,0.0,1.5708,0.0,0.0,1.5708,-0.0002548104055051779,0.02244656987676596,0.03429814371451128,0.3422034756574527,1.5897083907464327,0.03475558729648378,-0.34522063733618286,1.5899405102287538,0.48978834255771947,0.16561060951136836,0.29875884385017376,-0.016456828261696088,0.049227192392644475,-0.016466778921413905,0.04977044283532253,-0.09503166281295383,0.04691445078740056,-0.09504063407557842,0.04820835171792312,-0.09504063407557842,0.04691445078740056,right_arm__right_thigh,left_arm__left_thigh
11.09276334000273,0.0,0.0,0.0,0.0,1.5708,0.0,0.0,1.5708,-0.0002645110603175409,0.02246019204549208,0.03430040383704817,0.34220805304404395,1.5897098333146458,0.0347839232326433,-0.3449745164602001,1.5899562541864816,0.48962156984476213,0.16561060951136836,0.298714276805205,-0.016456828261696088,0.049228019881750656,-0.016466778921413905,0.049724851533010234,-0.09503166281295383,0.04691492702047034,-0.09504063407557842,0.0481198661371752,-0.09504063407557842,0.04691492702047034,right_arm__right_thigh,left_arm__left_thigh
11.11276334000273,0.0,0.0,0.0,0.0,1.5708,0.0,0.0,1.5708,-0.0002719390330478931,0.022458535025448246,0.03429803777521832,0.34221700446226583,1.589708889712077,0.03478134986034076,-0.34471073414148545,1.5899551983910842,0.48944151187930346,0.16561060951136836,0.2986672581403124,-0.016456828261696088,0.049229689165036034,-0.016466778921413905,0.04967622794020904,-0.09503166281295383,0.04691658042042546,-0.09504063407557842,0.048020340123488076,-0.09504063407557842,0.04691658042042546,right_arm__right_thigh,left_arm__left_thigh
11.132763340002729,0.0,0.0,0.0,0.0,1.5708,0.0,0.0,1.5708,-0.00027917224026783986,0.022455568601408616,0.0342952752561952,0.3422263307285625,1.5897077416181835,0.03477612760578296,-0.3444454382631157,1.5899527028815632,0.489260386256111,0.16561060951136836,0.29862002545837235,-0.016456828261696088,0.0492314305837199,-0.016466778921413905,0.04962733973212177,-0.09503166281295383,0.04691833471981868,-0.09504063407557842,0.04791985857412445,-0.09504063407557842,0.04691833471981868,right_arm__right_thigh,left_arm__left_thigh
11.152763340002728,0.0,0.0,0.0,0.0,1.5708,0.0,0.0,1.5708,-0.0002864054474877866,0.022452602177368986,0.03429251273717208,0.34223565699485914,1.5897065935242898,0.03477090535122516,-0.344180142384746,1.5899502073720424,0.4890793378513964,0.16561060951136836,0.2985727885267489,-0.016456828261696088,0.049233171997038694,-0.016466778921413905,0.04957844636900005,-0.09503166281295383,0.04692008904015327,-0.09504063407557842,0.04781936722074903,-0.09504063407557842,0.04692008904015327,right_arm__right_thigh,left_arm__left_thigh
11.172763340002728,0.0,0.0,0.0,0.0,1.5708,0.0,0.0,1.5708,-0.0002921465897357181,0.02245095165650431,0.034290414228034465,0.34224382352164584,1.58970566812053,0.03476801592749737,-0.34391530446018864,1.5899488436743363,0.48889820198195144,0.16561060951136836,0.29852541794496706,-0.016456828261696088,0.049234694680676705,-0.016466778921413905,0.04952961535593706,-0.09503166281295383,0.046921801228151705,-0.09504063407557842,0.04771903431253205,-0.09504063407557842,0.046921801228151705,right_arm__right_thigh,left_arm__left_thigh
11.192763340002728,0.0,0.0,0.0,0.0,1.5708,0.0,0.0,1.5708,-0.00029258445724690487,0.022453978275170844,0.03429067582178565,0.34224786796436796,1.5897055342285231,0.034773418128489636,-0.3436520942495242,1.58995150279676,0.48871655598596153,0.16561060951136836,0.29847758321203205,-0.016456828261696088,0.04923543994553933,-0.016466778921413905,0.04948101915311462,-0.09503166281295383,0.04692336359567556,-0.09504063407557842,0.04761929112850244,-0.09504063407557842,0.04692336359567556,right_arm__right_thigh,left_arm__left_thigh
11.212763340002727,0.0,0.0,0.0,0.0,1.5708,0.0,0.0,1.5708,-0.00029302232475809155,0.02245700489383738,0.03429093741553684,0.34225191240709013,1.589705400336516,0.0347788203294819,-0.34338888403885975,1.5899541619191833,0.48853498438873905,0.16561060951136836,0.2984297442877642,-0.016456828261696088,0.049236185209234895,-0.016466778921413905,0.04943241786474953,-0.09503166281295383,0.04692492595916642,-0.09504063407557842,0.04751954069270026,-0.09504063407557842,0.04692492595916642,right_arm__right_thigh,left_arm__left_thigh
11.232763340002727,0.0,0.0,0.0,0.0,1.5708,0.0,0.0,1.5708,-0.00029346019226927824,0.02246003151250391,0.03429119900928803,0.34225595684981225,1.589705266444509,0.03478422253047417,-0.3431256738281953,1.5899568210416068,0.488353487273269,0.16561060951136836,0.2983819011740701,-0.016456828261696088,0.04923693047176331,-0.016466778921413905,0.04938381149421853,-0.09503166281295383,0.04692648831862428,-0.09504063407557842,0.04741978301956018,-0.09504063407557842,0.04692648831862428,right_arm__right_thigh,left_arm__left_thigh
11.252763340002726,0.0,0.0,0.0,0.0,1.5708,0.0,0.0,1.5708,-0.000293560836627708,0.02246249742983129,0.03428950811198497,0.34226007287758015,1.5897044450920415,0.034789814140841,-0.3428777917561062,1.589959971721696,0.48818272360827203,0.16561060951136836,0.29833689597668145,-0.016456828261696088,0.04923770269251679,-0.016466778921413905,0.04933802645507887,-0.09503166281295383,0.04692792996485301,-0.09504063407557842,0.04732582768862881,-0.09504063407557842,0.04692792996485301,right_arm__right_thigh,left_arm__left_thigh
11.272763340002726,0.0,0.0,0.0,0.0,1.5708,0.0,0.0,1.5708,-0.0002933199083129538,0.022464395413866706,0.03428583954030423,0.34226426141370114,1.5897029274122152,0.03479559760359362,-0.3426454355256604,1.5899636202995846,0.4880228187685775,0.16561060951136836,0.29829476605637284,-0.016456828261696088,0.049238502220633446,-0.016466778921413905,0.04929510004521226,-0.09503166281295383,0.046929249356275016,-0.09504063407557842,0.047237750977696724,-0.09504063407557842,0.046929249356275016,right_arm__right_thigh,left_arm__left_thigh
11.292763340002725,0.0,0.0,0.0,0.0,1.5708,0.0,0.0,1.5708,-0.0002930789799981996,0.02246629339790212,0.03428217096862349,0.3422684499498222,1.5897014097323892,0.03480138106634623,-0.3424130792952146,1.5899672688774733,0.487862972354281,0.16561060951136836,0.2982526328888995,-0.016456828261696088,0.049239301749473136,-0.016466778921413905,0.04925216968393717,-0.09503166281295383,0.04693056876415411,-0.09504063407557842,0.04714966884812807,-0.09504063407557842,0.04693056876415411,right_arm__right_thigh,left_arm__left_thigh
11.312763340002725,0.0,0.0,0.0,0.0,1.5708,0.0,0.0,1.5708,-0.00029283805168344546,0.022468191381937532,0.034278502396942745,0.34227263848594325,1.589699892052563,0.03480716452909885,-0.34218072306476877,1.589970917455362,0.48770318442282995,0.16561060951136836,0.2982104964755731,-0.016456828261696088,0.049240101279035914,-0.016466778921413905,0.0492092353735776,-0.09503166281295383,0.04693188818848987,-0.09504063407557842,0.047061581310174294,-0.09504063407557842,0.04693188818848987,right_arm__right_thigh,left_arm__left_thigh
11.332763340002725,0.0,0.0,0.0,0.0,1.5708,0.0,0.0,1.5708,-0.00029179064350179156,0.02247481173862106,0.03427602486871672,0.34227586534020377,1.589698688447529,0.03482120905903249,-0.34192111445539514,1.5899790441688015,0.4875247454752119,0.16561060951136836,0.2981631458839363,-0.016456828261696088,0.04924071516023354,-0.016466778921413905,0.04916120468537091,-0.09503166281295383,0.04693325268095788,-0.09504063407557842,0.04696397230248933,-0.09504063407557842,0.04693325268095788,right_arm__right_thigh,left_arm__left_thigh
11.352763340002724,0.0,0.0,0.0,0.0,1.5708,0.0,0.0,1.5708,-0.0002894955781795871,0.022488737797773523,0.03427538993313556,0.3422776044335302,1.5896979707289678,0.0348480337957388,-0.3416193453079079,1.5899940987399919,0.48731745018970696,0.16561060951136836,0.29810772899497956,-0.016456828261696088,0.04924104183485639,-0.016466778921413905,0.04910529001397898,-0.09503166281295383,0.046934686881010546,-0.09504063407557842,0.046851637812231256,-0.09504063407557842,0.046851637812231256,right_arm__right_thigh,right_arm__right_thigh
11.372763340002724,0.0,0.0,0.0,0.0,1.5708,0.0,0.0,1.5708,-0.0002872005128573827,0.022502663856925988,0.034274754997554405,0.3422793435268566,1.5896972530104065,0.03487485853244511,-0.34131757616042063,1.5900091533111822,0.4871102559955653,0.16561060951136836,0.2980523066713709,-0.016456828261696088,0.04924136850932462,-0.016466778921413905,0.049049368759042006,-0.09503166281295383,0.04693612108941031,-0.09504063407557842,0.046739300339594475,-0.09504063407557842,0.046739300339594475,right_arm__right_thigh,right_arm__right_thigh
11.392763340002723,0.0,0.0,0.0,0.0,1.5708,0.0,0.0,1.5708,-0.0002830756137664663,0.022523101507391997,0.034273457445303135,0.3422794010709113,1.58969630915611,0.03491530755654856,-0.34105066474242807,1.5900320087759554,0.48692792464628104,0.16561060951136836,0.2980030062059025,-0.016456828261696088,0.04924138944031892,-0.016466778921413905,0.04899977663150357,-0.09503166281295383,0.04693739613150749,-0.09504063407557842,0.0466416457133422,-0.09504063407557842,0.0466416457133422,right_arm__right_thigh,right_arm__right_thigh
11.412763340002723,0.0,0.0,0.0,0.0,1.5708,0.0,0.0,1.5708,-0.0002753070991201869,0.022556505218385415,0.0342708404724314,0.34227611026759786,1.5896949150140893,0.034982885638132406,-0.3408531629984633,1.5900703975955557,0.4867949721790249,0.16561060951136836,0.29796590339972184,-0.016456828261696088,0.049240801566969555,-0.016466778921413905,0.04896279668313255,-0.09503166281295383,0.04693835427488385,-0.09504063407557842,0.04657324310929212,-0.09504063407557842,0.04657324310929212,right_arm__right_thigh,right_arm__right_thigh
11.432763340002722,0.0,0.0,0.0,0.0,1.5708,0.0,0.0,1.5708,-0.0002675385844739075,0.022589908929378833,0.034268223499559665,0.3422728194642844,1.5896935208720686,0.035050463719716256,-0.3406556612544986,1.5901087864151557,0.48666207841134945,0.16561060951136836,0.29792879855242677,-0.016456828261696088,0.04924021369399814,-0.016466778921413905,0.04892581454104225,-0.09503166281295383,0.04693931249539268,-0.09504063407557842,0.046504855871309786,-0.09504063407557842,0.046504855871309786,right_arm__right_thigh,right_arm__right_thigh
11.452763340002722,0.0,0.0,0.0,0.0,1.5708,0.0,0.0,1.5708,-0.00025977006982762804,0.02262331264037225,0.03426560652668793,0.34226952866097093,1.5896921267300481,0.035118041801300105,-0.3404581595105338,1.590147175234756,0.48652924339135534,0.16561060951136836,0.2978916916649339,-0.016456828261696088,0.04923962582140465,-0.016466778921413905,0.048888830207217765,-0.09503166281295383,0.04694027079303412,-0.09504063407557842,0.046436484028901825,-0.09504063407557842,0.046436484028901825,right_arm__right_thigh,right_arm__right_thigh
11.472763340002722,0.0,0.0,0.0,0.0,1.5708,0.0,0.0,1.5708,-0.00025301895249038776,0.02265706682463163,0.034263398585284745,0.34226661018211374,1.5896909659876253,0.035186202926358254,-0.3402605689334689,1.5901857303293383,0.48639677055620495,0.16561060951136836,0.2978546352388128,-0.016456828261696088,0.04923910357962244,-0.016466778921413905,0.04885182333919544,-0.09503166281295383,0.04694122535302983,-0.09504063407557842,0.046368364333546686,-0.09504063407557842,0.046368364333546686,right_arm__right_thigh,right_arm__right_thigh
11.492763340002721,0.0,0.0,0.0,0.0,1.5708,0.0,0.0,1.5708,-0.0002545133185683868,0.02269366141497062,0.034264505634161384,0.34226670920202734,1.5896916968292425,0.03525908931976039,-0.3400622584096857,1.5902256329973745,0.4862668177251833,0.16561060951136836,0.29781800225377547,-0.016456828261696088,0.04923911323912458,-0.016466778921413905,0.048814649449444636,-0.09503166281295383,0.04694214915032863,-0.09504063407557842,0.04630217960684871,-0.09504063407557842,0.04630217960684871,right_arm__right_thigh,right_arm__right_thigh
11.51276334000272,0.0,0.0,0.0,0.0,1.5708,0.0,0.0,1.5708,-0.00025600768464638574,0.02273025600530961,0.03426561268303802,0.34226680822194094,1.5896924276708597,0.03533197571316253,-0.33986394788590246,1.5902655356654107,0.48613692801864716,0.16561060951136836,0.2977813672106933,-0.016456828261696088,0.049239122898826815,-0.016466778921413905,0.048777473459335974,-0.09503166281295383,0.046943073163492444,-0.09504063407557842,0.046236012175057434,-0.09504063407557842,0.046236012175057434,right_arm__right_thigh,right_arm__right_thigh
11.53276334000272,0.0,0.0,0.0,0.0,1.5708,0.0,0.0,1.5708,-0.00025750205072438476,0.0227668505956486,0.03426671973191466,0.34226690724185455,1.5896931585124772,0.03540486210656466,-0.33966563736211924,1.5903054383334472,0.4860071014872084,0.16561060951136836,0.2977447301104725,-0.016456828261696088,0.04923913255872897,-0.016466778921413905,0.048740295370969994,-0.09503166281295383,0.04694399739250732,-0.09504063407557842,0.04616986206961754,-0.09504063407557842,0.04616986206961754,right_arm__right_thigh,right_arm__right_thigh
11.55276334000272,0.0,0.0,0.0,0.0,1.5708,0.0,0.0,1.5708,-0.00026162780358524105,0.022779908488722477,0.034267947065310035,0.34226980967854703,1.5896939683355762,0.03543122025299433,-0.3395512740617056,1.590320371664683,0.4859324783632585,0.16561060951136836,0.2977241260341083,-0.016456828261696088,0.04923965876097369,-0.016466778921413905,0.048718968025222464,-0.09503166281295383,0.046944806300124736,-0.09504063407557842,0.04613037771026607,-0.09504063407557842,0.04613037771026607,right_arm__right_thigh,right_arm__right_thigh
11.57276334000272,0.0,0.0,0.0,0.0,1.5708,0.0,0.0,1.5708,-0.0002663897718203565,0.022787275690957245,0.03426920348103592,0.34227338992393974,1.5896947972547784,0.035446328823248406,-0.33945720747878033,1.5903292679222125,0.48587120336503836,0.16561060951136836,0.2977073982485423,-0.016456828261696088,0.04924030985195135,-0.016466778921413905,0.04870147281231893,-0.09503166281295383,0.046945587302495956,-0.09504063407557842,0.04609733851122452,-0.09504063407557842,0.04609733851122452,right_arm__right_thigh,right_arm__right_thigh
11.592763340002719,0.0,0.0,0.0,0.0,1.5708,0.0,0.0,1.5708,-0.00027115174005547195,0.022794642893192017,0.03427045989676179,0.3422769701693325,1.5896956261739805,0.03546143739350248,-0.33936314089585506,1.590338164179742,0.48580993967441904,0.16561060951136836,0.29769066995049254,-0.016456828261696088,0.04924096094227942,-0.016466778921413905,0.04868397698519286,-0.09503166281295383,0.046946368314035786,-0.09504063407557842,0.04606429979582413,-0.09504063407557842,0.04606429979582413,right_arm__right_thigh,right_arm__right_thigh
11.612763340002719,0.0,0.0,0.0,0.0,1.5708,0.0,0.0,1.5708,-0.0002759137082905874,0.02280201009542679,0.034271716312487675,0.3422805504147252,1.5896964550931825,0.03547654596375655,-0.3392690743129298,1.5903470604372718,0.4857486872956787,0.16561060951136836,0.2976739411400462,-0.016456828261696088,0.0492416120319579,-0.016466778921413905,0.04866648054401007,-0.09503166281295383,0.04694714933474353,-0.09504063407557842,0.04603126156550327,-0.09504063407557842,0.04603126156550327,right_arm__right_thigh,right_arm__right_thigh
11.632763340002718,0.0,0.0,0.0,0.0,1.5708,0.0,0.0,1.5708,-0.00028067567652570284,0.02280937729766156,0.03427297272821356,0.342284130660118,1.5896972840123846,0.035491654534010625,-0.3391750077300045,1.5903559566948013,0.4856874462330974,0.16561060951136836,0.29765721181729005,-0.016456828261696088,0.04924226312098681,-0.016466778921413905,0.048648983488936065,-0.09503166281295383,0.04694793036461817,-0.09504063407557842,0.04599822382170082,-0.09504063407557842,0.04599822382170082,right_arm__right_thigh,right_arm__right_thigh
11.652763340002718,0.0,0.0,0.0,0.0,1.5708,0.0,0.0,1.5708,-0.0002846549307979186,0.022816173010359233,0.03427296542987191,0.34228829166022817,1.5896973689901253,0.035506446649751285,-0.3390743252894661,1.5903644624258728,0.4856218221159996,0.16561060951136836,0.2976393670983309,-0.016456828261696088,0.049243031027746575,-0.016466778921413905,0.048630265880395124,-0.09503166281295383,0.04694892990603722,-0.09504063407557842,0.04596244065700414,-0.09504063407557842,0.04596244065700414,right_arm__right_thigh,right_arm__right_thigh
11.672763340002717,0.0,0.0,0.0,0.0,1.5708,0.0,0.0,1.5708,-0.0002865869023813482,0.02282147392330683,0.03426965273510622,0.342293971694284,1.5896955080993271,0.03552041104057861,-0.3389563382761149,1.5903719466879342,0.48554471899346985,0.16561060951136836,0.2976186055720286,-0.016456828261696088,0.04924410448636066,-0.016466778921413905,0.048608356519243556,-0.09503166281295383,0.046950500969751535,-0.09504063407557842,0.04591947537416877,-0.09504063407557842,0.04591947537416877,right_arm__right_thigh,right_arm__right_thigh
11.692763340002717,0.0,0.0,0.0,0.0,1.5708,0.0,0.0,1.5708,-0.00028851887396477786,0.022826774836254424,0.03426634004034053,0.34229965172833987,1.589693647208529,0.03553437543140594,-0.3388383512627636,1.5903794309499957,0.48546763297938084,0.16561060951136836,0.29759784324890026,-0.016456828261696088,0.04924517794425126,-0.016466778921413905,0.048586446169351066,-0.09503166281295383,0.04695207203296367,-0.09504063407557842,0.04587651003125731,-0.09504063407557842,0.04587651003125731,right_arm__right_thigh,right_arm__right_thigh
11.712763340002716,0.0,0.0,0.0,0.0,1.5708,0.0,0.0,1.5708,-0.00029045084554820745,0.02283207574920202,0.034263027345574834,0.34230533176239575,1.589691786317731,0.035548339822233266,-0.3387203642494124,1.5903869152120569,0.4853905640818835,0.16561060951136836,0.2975770801291175,-0.016456828261696088,0.04924625140141825,-0.016466778921413905,0.04856453483103279,-0.09503166281295383,0.04695364309567299,-0.09504063407557842,0.04583354463054226,-0.09504063407557842,0.04583354463054226,right_arm__right_thigh,right_arm__right_thigh
11.732763340002716,0.0,0.0,0.0,0.0,1.5708,0.0,0.0,1.5708,-0.00029237594281127875,0.022837810437107885,0.03426128904481563,0.34231023635513314,1.5896908529944827,0.03556153135282162,-0.33860405142509864,1.590394048424123,0.48531423029201126,0.16561060951136836,0.29755648187226685,-0.016456828261696088,0.049247169734531304,-0.016466778921413905,0.048542937478543435,-0.09503166281295383,0.046955108899460474,-0.09504063407557842,0.04579114601901246,-0.09504063407557842,0.04579114601901246,right_arm__right_thigh,right_arm__right_thigh
11.752763340002716,0.0,0.0,0.0,0.0,1.5708,0.0,0.0,1.5708,-0.0002942870462601588,0.022844428145567114,0.0342627556830238,0.34231356240902444,1.5896918078881441,0.035573149598777276,-0.33849114668901636,1.5904004670159577,0.485239373928027,0.16561060951136836,0.2975362200759431,-0.016456828261696088,0.049247772287966146,-0.016466778921413905,0.0485219803714573,-0.09503166281295383,0.04695636043842205,-0.09504063407557842,0.04574990118042713,-0.09504063407557842,0.04574990118042713,right_arm__right_thigh,right_arm__right_thigh
