vegewenqi/Human_Humanoid_Interaction/g1_real_ws/bdcc_exp/runs/real_default/S2_human_robot_2/run_001/metrics_timeseries.csv
t_sec,q_nom_waist_roll_joint,q_nom_waist_pitch_joint,q_nom_left_shoulder_pitch_joint,q_nom_left_shoulder_roll_joint,q_nom_left_elbow_joint,q_nom_right_shoulder_pitch_joint,q_nom_right_shoulder_roll_joint,q_nom_right_elbow_joint,q_cbf_waist_roll_joint,q_cbf_waist_pitch_joint,q_cbf_left_shoulder_pitch_joint,q_cbf_left_shoulder_roll_joint,q_cbf_left_elbow_joint,q_cbf_right_shoulder_pitch_joint,q_cbf_right_shoulder_roll_joint,q_cbf_right_elbow_joint,correction_norm,hr_unsafe_clearance__left_arm__right_upper_arm,hr_safe_clearance__left_arm__right_upper_arm,hr_unsafe_clearance__left_arm__right_forearm_hand,hr_safe_clearance__left_arm__right_forearm_hand,hr_unsafe_clearance__left_upper_arm__right_upper_arm,hr_safe_clearance__left_upper_arm__right_upper_arm,hr_unsafe_clearance__left_upper_arm__right_forearm_hand,hr_safe_clearance__left_upper_arm__right_forearm_hand,hr_unsafe_clearance__torso__right_upper_arm,hr_safe_clearance__torso__right_upper_arm,hr_unsafe_clearance__torso__right_forearm_hand,hr_safe_clearance__torso__right_forearm_hand,hr_unsafe_clearance__left_arm__torso,hr_safe_clearance__left_arm__torso,hr_unsafe_clearance__left_upper_arm__torso,hr_safe_clearance__left_upper_arm__torso,hr_unsafe_clearance__left_arm__right_thigh,hr_safe_clearance__left_arm__right_thigh,hr_unsafe_clearance__torso__torso,hr_safe_clearance__torso__torso,hr_unsafe_global_min_clearance,hr_safe_global_min_clearance,hr_unsafe_global_min_pair,hr_safe_global_min_pair
10.00574418800003,0.0,0.0,0.0,0.0,1.5708,0.0,0.0,1.5708,3.7553251520314365e-50,1.6786913816645369e-49,-6.820348583612339e-50,-1.942514576366617e-49,1.5708,-1.3942790231337617e-50,1.073412967591905e-49,1.5708,2.89296031621662e-49,0.4214563825147624,0.4214563825147624,0.276472891936215,0.276472891936215,0.3570272804133774,0.3570272804133774,0.300294523065609,0.300294523065609,0.45348722071864134,0.45348722071864134,0.3877841065102414,0.3877841065102414,0.43130587585989494,0.43130587585989494,0.4300144836981968,0.4300144836981968,0.37208368362308825,0.37208368362308825,0.5361959087331993,0.5361959087331993,0.276472891936215,0.276472891936215,left_arm__right_forearm_hand,left_arm__right_forearm_hand
10.02574418800003,0.0,0.0,0.0,0.0,1.5708,0.0,0.0,1.5708,3.113749867046303e-50,1.3918968011710457e-49,-5.655132015384692e-50,-1.610647349837372e-49,1.5708,-1.1560746266031605e-50,8.90026655432763e-50,1.5708,2.398715007438675e-49,0.42129682764069615,0.42129682764069615,0.27649221877956726,0.27649221877956726,0.35686193350374407,0.35686193350374407,0.300303645656949,0.300303645656949,0.45335105800709796,0.45335105800709796,0.387787276133024,0.387787276133024,0.43156441434549403,0.43156441434549403,0.4302703423109771,0.4302703423109771,0.37206548337483986,0.37206548337483986,0.5364509311703275,0.5364509311703275,0.27649221877956726,0.27649221877956726,left_arm__right_forearm_hand,left_arm__right_forearm_hand
10.045744188000029,0.0,0.0,0.0,0.0,1.5708,0.0,0.0,1.5708,2.4721745820611695e-50,1.1051022206775542e-49,-4.489915447157046e-50,-1.278780123308127e-49,1.5708,-9.178702300725593e-51,7.066403432736211e-50,1.5708,1.9044696986607306e-49,0.42116988989878273,0.42116988989878273,0.2766320092306105,0.2766320092306105,0.3566505259229855,0.3566505259229855,0.3004063157640604,0.3004063157640604,0.4531189272975359,0.4531189272975359,0.38792295107979713,0.38792295107979713,0.431793362745534,0.431793362745534,0.4304971932511576,0.4304971932511576,0.3720746001731556,0.3720746001731556,0.5366769754263361,0.5366769754263361,0.2766320092306105,0.2766320092306105,left_arm__right_forearm_hand,left_arm__right_forearm_hand
10.065744188000028,0.0,0.0,0.0,0.0,1.5708,0.0,0.0,1.5708,1.8305992970760363e-50,8.183076401840629e-50,-3.3246988789293984e-50,-9.469128967788823e-50,1.5708,-6.79665833541958e-51,5.232540311144792e-50,1.5708,1.410224389882786e-49,0.42105768886008493,0.42105768886008493,0.27681996002545745,0.27681996002545745,0.3564220866616954,0.3564220866616954,0.3005457580113458,0.3005457580113458,0.45284929539333374,0.45284929539333374,0.38811183392031334,0.38811183392031334,0.4320092790118481,0.4320092790118481,0.4307112604964504,0.4307112604964504,0.37209469584709415,0.37209469584709415,0.5368902506926617,0.5368902506926617,0.27681996002545745,0.27681996002545745,left_arm__right_forearm_hand,left_arm__right_forearm_hand
10.085744188000028,0.0,0.0,0.0,0.0,1.5708,0.0,0.0,1.5708,1.4809937739433695e-50,6.620282888880352e-50,-2.689752119863521e-50,-7.660726773118365e-50,1.5708,-5.498641179669704e-51,4.233236424317964e-50,1.5708,1.140901531326625e-49,0.42116585799185285,0.42116585799185285,0.27674668519415696,0.27674668519415696,0.3565460271723176,0.3565460271723176,0.30050546746408074,0.30050546746408074,0.45297382517543117,0.45297382517543117,0.3880423376695731,0.3880423376695731,0.43207482016220383,0.43207482016220383,0.4307764983716112,0.4307764983716112,0.3720897516958886,0.3720897516958886,0.5369551819045236,0.5369551819045236,0.27674668519415696,0.27674668519415696,left_arm__right_forearm_hand,left_arm__right_forearm_hand
10.105744188000028,0.0,0.0,0.0,0.0,1.5708,0.0,0.0,1.5708,1.1983462629602327e-50,5.356802573521623e-50,-2.1764132016202963e-50,-6.198677848376175e-50,1.5708,-4.449226070324045e-51,3.425323683705471e-50,1.5708,9.231605902234852e-50,0.4212740365961006,0.4212740365961006,0.2766734190708759,0.2766734190708759,0.3566699708259231,0.3566699708259231,0.3004651130993479,0.3004651130993479,0.45309835717884916,0.45309835717884916,0.3879728490758,0.3879728490758,0.4321403619358973,0.4321403619358973,0.43084173680561094,0.43084173680561094,0.3720847611655887,0.3720847611655887,0.5370201136256454,0.5370201136256454,0.2766734190708759,0.2766734190708759,left_arm__right_forearm_hand,left_arm__right_forearm_hand
10.125744188000027,0.0,0.0,0.0,0.0,1.5708,0.0,0.0,1.5708,9.156987519770957e-51,4.0933222581628937e-50,-1.6630742833770714e-50,-4.736628923633982e-50,1.5708,-3.399810960978386e-51,2.617410943092978e-50,1.5708,7.0541964912034545e-50,0.42138222466720204,0.42138222466720204,0.27660016166050183,0.27660016166050183,0.3567939176200865,0.3567939176200865,0.3004246950385721,0.3004246950385721,0.45322289140223415,0.45322289140223415,0.38790336814196136,0.38790336814196136,0.4322059043327388,0.4322059043327388,0.4309069757982806,0.4309069757982806,0.37207972418662966,0.37207972418662966,0.5370850458559011,0.5370850458559011,0.27660016166050183,0.27660016166050183,left_arm__right_forearm_hand,left_arm__right_forearm_hand
10.145744188000027,0.0,0.0,0.0,0.0,1.5708,0.0,0.0,1.5708,6.615770955401276e-51,2.957357149191462e-50,-1.2015434679675118e-50,-3.422135499456826e-50,1.5708,-2.456306788770015e-51,1.8910358082586003e-50,1.5708,5.096539463380718e-50,0.4214847329679858,0.4214847329679858,0.27675800171887643,0.27675800171887643,0.35683930194969304,0.35683930194969304,0.300572583150278,0.300572583150278,0.45321816546189353,0.45321816546189353,0.38809177633126835,0.38809177633126835,0.4324087189593164,0.4324087189593164,0.43110958715565,0.43110958715565,0.3721207397104322,0.3721207397104322,0.5372865556164218,0.5372865556164218,0.27675800171887643,0.27675800171887643,left_arm__right_forearm_hand,left_arm__right_forearm_hand
10.165744188000026,0.0,0.0,0.0,0.0,1.5708,0.0,0.0,1.5708,5.36055230245576e-51,2.3962540091173295e-50,-9.735730948265957e-51,-2.772849370783001e-50,1.5708,-1.990268571998979e-51,1.5322471748679325e-50,1.5708,4.1295665371663476e-50,0.4217219338323815,0.4217219338323815,0.2767227577885847,0.2767227577885847,0.3571178917832241,0.3571178917832241,0.30057900345850985,0.30057900345850985,0.4534928392198033,0.4534928392198033,0.38807746231071927,0.38807746231071927,0.4324406350194218,0.4324406350194218,0.4311554211876621,0.4311554211876621,0.37217624822956125,0.37217624822956125,0.5373319881498273,0.5373319881498273,0.2767227577885847,0.2767227577885847,left_arm__right_forearm_hand,left_arm__right_forearm_hand
10.185744188000026,0.0,0.0,0.0,0.0,1.5708,0.0,0.0,1.5708,4.105333649510243e-51,1.8351508690431974e-50,-7.456027216856795e-51,-2.1235632421091756e-50,1.5708,-1.5242303552279426e-51,1.1734585414772648e-50,1.5708,3.162593610951978e-50,0.42224533685604765,0.42224533685604765,0.2764796998267154,0.2764796998267154,0.3578992925814934,0.3578992925814934,0.30050887045663177,0.30050887045663177,0.45433720036429304,0.45433720036429304,0.38788944525373925,0.38788944525373925,0.43249553051207595,0.43249553051207595,0.43120905778864965,0.43120905778864965,0.37218333138989607,0.37218333138989607,0.5373849868832502,0.5373849868832502,0.2764796998267154,0.2764796998267154,left_arm__right_forearm_hand,left_arm__right_forearm_hand
10.205744188000025,0.0,0.0,0.0,0.0,1.5708,0.0,0.0,1.5708,2.850114996564727e-51,1.2740477289690648e-50,-5.176323485447634e-51,-1.4742771134353505e-50,1.5708,-1.0581921384569066e-51,8.146699080865972e-51,1.5708,2.1956206847376083e-50,0.42229061825096953,0.42229061825096953,0.27671206884181515,0.27671206884181515,0.3578911118703124,0.3578911118703124,0.3007050189059656,0.3007050189059656,0.4542924961332252,0.4542924961332252,0.3881407302292059,0.3881407302292059,0.43250198798361644,0.43250198798361644,0.4312123513448001,0.4312123513448001,0.37215545146200074,0.37215545146200074,0.5373881550576152,0.5373881550576152,0.27671206884181515,0.27671206884181515,left_arm__right_forearm_hand,left_arm__right_forearm_hand
10.225744188000025,0.0,0.0,0.0,0.0,1.5708,0.0,0.0,1.5708,2.3485205565584344e-51,1.0498268614167776e-50,-4.265337408358108e-51,-1.214817686703793e-50,1.5708,-8.719599008987336e-52,6.71295378697711e-51,1.5708,1.8092113190963567e-50,0.42229411096017117,0.42229411096017117,0.27693512255289676,0.27693512255289676,0.3578166556190679,0.3578166556190679,0.30088933574422977,0.30088933574422977,0.4541741693689282,0.4541741693689282,0.3883807730973655,0.3883807730973655,0.4325001403198471,0.4325001403198471,0.4312106974859687,0.4312106974859687,0.3721225822989324,0.3721225822989324,0.53738643495677,0.53738643495677,0.27693512255289676,0.27693512255289676,left_arm__right_forearm_hand,left_arm__right_forearm_hand
10.245744188000025,0.0,0.0,0.0,0.0,1.5708,0.0,0.0,1.5708,1.921231288795187e-51,8.58821613606505e-51,-3.48930294151431e-51,-9.93794047643902e-51,1.5708,-7.133157252991306e-52,5.491600582230486e-51,1.5708,1.4800438448722806e-50,0.4222652438707712,0.4222652438707712,0.2771509007477249,0.2771509007477249,0.3576908188073185,0.3576908188073185,0.30106401484478457,0.30106401484478457,0.453998686866802,0.453998686866802,0.38861209317182976,0.38861209317182976,0.43249184715365335,0.43249184715365335,0.4312052039908692,0.4312052039908692,0.3720858154431567,0.3720858154431567,0.5373809211251409,0.5373809211251409,0.2771509007477249,0.2771509007477249,left_arm__right_forearm_hand,left_arm__right_forearm_hand
10.265744188000024,0.0,0.0,0.0,0.0,1.5708,0.0,0.0,1.5708,1.4939420210319392e-51,6.678163657962325e-51,-2.713268474670512e-51,-7.727704085840109e-51,1.5708,-5.5467154969952754e-52,4.2702473774838624e-51,1.5708,1.1508763706482046e-50,0.4222322299009155,0.4222322299009155,0.2773719346590727,0.2773719346590727,0.357559376715279,0.357559376715279,0.3012412983707076,0.3012412983707076,0.4538169833489125,0.4538169833489125,0.3888488441750786,0.3888488441750786,0.43248347240134016,0.43248347240134016,0.43119959112158407,0.43119959112158407,0.37204870908519677,0.37204870908519677,0.5373752867706505,0.5373752867706505,0.2773719346590727,0.2773719346590727,left_arm__right_forearm_hand,left_arm__right_forearm_hand
10.285744188000024,0.0,0.0,0.0,0.0,1.5708,0.0,0.0,1.5708,1.077279926952175e-51,4.815616373555714e-51,-1.9565348742086146e-51,-5.572438806796155e-51,1.5708,-3.999730365238731e-52,3.079270626383419e-51,1.5708,8.29895668672925e-51,0.4220418037027806,0.4220418037027806,0.2777797160305721,0.2777797160305721,0.35721765490671814,0.35721765490671814,0.3015382136268379,0.3015382136268379,0.4534075645592194,0.4534075645592194,0.38927840991900164,0.38927840991900164,0.43247211807655456,0.43247211807655456,0.4311896403274686,0.4311896403274686,0.37200209282325386,0.37200209282325386,0.5373652727775604,0.5373652727775604,0.2777797160305721,0.2777797160305721,left_arm__right_forearm_hand,left_arm__right_forearm_hand
10.305744188000023,0.0,0.0,0.0,0.0,1.5708,0.0,0.0,1.5708,8.102655928311742e-52,3.6220188997727914e-51,-1.4715886280649957e-51,-4.191255513391344e-51,1.5708,-3.0083581940712094e-52,2.3160433766115717e-51,1.5708,6.241979351344058e-51,0.421722455710478,0.421722455710478,0.27830620860177496,0.27830620860177496,0.35667533507280846,0.35667533507280846,0.3018772789422153,0.3018772789422153,0.4527692526635748,0.4527692526635748,0.3898308683172359,0.3898308683172359,0.43245705501927395,0.43245705501927395,0.4311744457161116,0.4311744457161116,0.37198867294892785,0.37198867294892785,0.5373499923840028,0.5373499923840028,0.27830620860177496,0.27830620860177496,left_arm__right_forearm_hand,left_arm__right_forearm_hand
10.325744188000023,0.0,0.0,0.0,0.0,1.5708,0.0,0.0,1.5708,5.432512587101735e-52,2.4284214259898688e-51,-9.866423819213767e-52,-2.810072219986533e-51,1.5708,-2.0169860229036877e-52,1.5528161268397235e-51,1.5708,4.1850020159588686e-51,0.4214800200063728,0.4214800200063728,0.2786821520268689,0.2786821520268689,0.3562719120629125,0.3562719120629125,0.3020976549262244,0.3020976549262244,0.45229865697405347,0.45229865697405347,0.39022180522921623,0.39022180522921623,0.43244878171949025,0.43244878171949025,0.4311640394520752,0.4311640394520752,0.37200359691107093,0.37200359691107093,0.5373394959389632,0.5373394959389632,0.2786821520268689,0.2786821520268689,left_arm__right_forearm_hand,left_arm__right_forearm_hand
10.345744188000022,0.0,0.0,0.0,0.0,1.5708,0.0,0.0,1.5708,4.007518726120498e-52,1.791426008413295e-51,-7.278377653319929e-52,-2.0729665808938396e-51,1.5708,-1.4879135809646055e-52,1.1454993627271197e-51,1.5708,3.0872406973574716e-51,0.42138315371526486,0.42138315371526486,0.2788797434254984,0.2788797434254984,0.35610574468978134,0.35610574468978134,0.30221810049224773,0.30221810049224773,0.4521039458458387,0.4521039458458387,0.39042499620067184,0.39042499620067184,0.43244723863418116,0.43244723863418116,0.43116047835048904,0.43116047835048904,0.3720074195889536,0.3720074195889536,0.5373358602448989,0.5373358602448989,0.2788797434254984,0.2788797434254984,left_arm__right_forearm_hand,left_arm__right_forearm_hand
10.365744188000022,0.0,0.0,0.0,0.0,1.5708,0.0,0.0,1.5708,3.392760760246756e-52,1.5166192054488115e-51,-6.1618661790622984e-52,-1.7549711314182472e-51,1.5708,-1.2596659322467659e-52,9.697784475508852e-52,1.5708,2.6136544358885477e-51,0.4212863737076539,0.4212863737076539,0.27907737891752765,0.27907737891752765,0.35593963742186313,0.35593963742186313,0.30233832042927405,0.30233832042927405,0.4519092361353174,0.4519092361353174,0.3906282207053867,0.3906282207053867,0.4324456958421559,0.4324456958421559,0.4311569172834188,0.4311569172834188,0.37201120283802075,0.37201120283802075,0.5373322245784949,0.5373322245784949,0.27907737891752765,0.27907737891752765,left_arm__right_forearm_hand,left_arm__right_forearm_hand
10.385744188000022,0.0,0.0,0.0,0.0,1.5708,0.0,0.0,1.5708,2.7780027943730146e-52,1.2418124024843279e-51,-5.045354704804668e-52,-1.4369756819426544e-51,1.5708,-1.0314182835289263e-52,7.940575323746506e-52,1.5708,2.1400681744196237e-51,0.42098856872997065,0.42098856872997065,0.27959158858300914,0.27959158858300914,0.35547185080786264,0.35547185080786264,0.30268284132005063,0.30268284132005063,0.4513755198405638,0.4513755198405638,0.3911714089927598,0.3911714089927598,0.432429724738049,0.432429724738049,0.4311461426255336,0.4311461426255336,0.3719716575875864,0.3719716575875864,0.5373211454002029,0.5373211454002029,0.27959158858300914,0.27959158858300914,left_arm__right_forearm_hand,left_arm__right_forearm_hand
10.405744188000021,0.0,0.0,0.0,0.0,1.5708,0.0,0.0,1.5708,2.163244828499273e-52,9.670055995198443e-52,-3.928843230547038e-52,-1.1189802324670617e-51,1.5708,-8.031706348110865e-53,6.18336617198416e-52,1.5708,1.6664819129506994e-51,0.421026090008022,0.421026090008022,0.2797263893996918,0.2797263893996918,0.3554217204094519,0.3554217204094519,0.3027767959499095,0.3027767959499095,0.451282691904789,0.451282691904789,0.39132638792673613,0.39132638792673613,0.43242818938340716,0.43242818938340716,0.4311443118111287,0.4311443118111287,0.3719571360815201,0.3719571360815201,0.5373192272198053,0.5373192272198053,0.2797263893996918,0.2797263893996918,left_arm__right_forearm_hand,left_arm__right_forearm_hand
10.42574418800002,0.0,0.0,0.0,0.0,1.5708,0.0,0.0,1.5708,1.6510105796707887e-52,7.380285644855724e-52,-2.998533339382163e-52,-8.540171588101029e-52,1.5708,-6.129880436482703e-53,4.719208308477297e-52,1.5708,1.2718760414281717e-51,0.4210637193594186,0.4210637193594186,0.2798615318440314,0.2798615318440314,0.35537171056294387,0.35537171056294387,0.3028707728193655,0.3028707728193655,0.45118986404104344,0.45118986404104344,0.3914816066849698,0.3914816066849698,0.4324266540853275,0.4324266540853275,0.4311424810444459,0.4311424810444459,0.3719425506713527,0.3719425506713527,0.5373173090781588,0.5373173090781588,0.2798615318440314,0.2798615318440314,left_arm__right_forearm_hand,left_arm__right_forearm_hand
10.44574418800002,0.0,0.0,0.0,0.0,1.5708,0.0,0.0,1.5708,1.3459865596278552e-52,6.016778696942689e-52,-2.4445546401096934e-52,-6.962375841826375e-52,1.5708,-4.997385711045318e-53,3.847335101002886e-52,1.5708,1.0368970849456084e-51,0.4211308339007081,0.4211308339007081,0.2799731471466413,0.2799731471466413,0.3553734203325124,0.3553734203325124,0.30296379067090357,0.30296379067090357,0.45115830061800155,0.45115830061800155,0.39160860220025473,0.39160860220025473,0.43242570291256427,0.43242570291256427,0.4311407470445077,0.4311407470445077,0.3719574243413784,0.3719574243413784,0.537315494076053,0.537315494076053,0.2799731471466413,0.2799731471466413,left_arm__right_forearm_hand,left_arm__right_forearm_hand
10.46574418800002,0.0,0.0,0.0,0.0,1.5708,0.0,0.0,1.5708,1.0409625395849215e-52,4.6532717490296544e-52,-1.890575940837224e-52,-5.384580095551722e-52,1.5708,-3.864890985607934e-53,2.9754618935284742e-52,1.5708,8.019181284630453e-52,0.42120631396813785,0.42120631396813785,0.28007816149187353,0.28007816149187353,0.3553898012281133,0.3553898012281133,0.303056502028939,0.303056502028939,0.45114407503634646,0.45114407503634646,0.3917276633018114,0.3917276633018114,0.4324249171216204,0.4324249171216204,0.43113904045552537,0.43113904045552537,0.3719806065671197,0.3719806065671197,0.537313708283394,0.537313708283394,0.28007816149187353,0.28007816149187353,left_arm__right_forearm_hand,left_arm__right_forearm_hand
10.48574418800002,0.0,0.0,0.0,0.0,1.5708,0.0,0.0,1.5708,7.35938519541988e-53,3.2897648011166197e-52,-1.3365972415647544e-52,-3.8067843492770685e-52,1.5708,-2.73239626017055e-53,2.103588686054063e-52,1.5708,5.669391719804822e-52,0.42129966875195674,0.42129966875195674,0.28016971217392583,0.28016971217392583,0.3554099867570787,0.3554099867570787,0.3031345807643017,0.3031345807643017,0.4511260568326325,0.4511260568326325,0.39183772997055244,0.39183772997055244,0.43242573183021665,0.43242573183021665,0.4311378918908367,0.4311378918908367,0.3719977380333212,0.3719977380333212,0.5373124798838513,0.5373124798838513,0.28016971217392583,0.28016971217392583,left_arm__right_forearm_hand,left_arm__right_forearm_hand
10.505744188000019,0.0,0.0,0.0,0.0,1.5708,0.0,0.0,1.5708,5.77207032244978e-53,2.5802092528303605e-52,-1.0483121981311096e-52,-2.9857150268616732e-52,1.5708,-2.143057190744501e-53,1.6498744804077395e-52,1.5708,4.4465844392265024e-52,0.4214367314456929,0.4214367314456929,0.2802285397042325,0.2802285397042325,0.3554394766423809,0.3554394766423809,0.3031772005613884,0.3031772005613884,0.451098764262142,0.451098764262142,0.39192592401150494,0.39192592401150494,0.4324304606628508,0.4324304606628508,0.4311381077483453,0.4311381077483453,0.3720001466009993,0.3720001466009993,0.5373126143739368,0.5373126143739368,0.2802285397042325,0.2802285397042325,left_arm__right_forearm_hand,left_arm__right_forearm_hand
10.525744188000019,0.0,0.0,0.0,0.0,1.5708,0.0,0.0,1.5708,4.375285791810254e-53,1.9558238644283686e-52,-7.946309053140137e-53,-2.2632012095580127e-52,1.5708,-1.6244583232523144e-53,1.2506210023675807e-52,1.5708,3.370554520682826e-52,0.42149965162704756,0.42149965162704756,0.2802710028556334,0.2802710028556334,0.3554317185904256,0.3554317185904256,0.30321637539537394,0.30321637539537394,0.4510558466967568,0.4510558466967568,0.39199919873529443,0.39199919873529443,0.43242359980779194,0.43242359980779194,0.4311404688262937,0.4311404688262937,0.372080122276859,0.372080122276859,0.5373148612597428,0.5373148612597428,0.2802710028556334,0.2802710028556334,left_arm__right_forearm_hand,left_arm__right_forearm_hand
10.545744188000018,0.0,0.0,0.0,0.0,1.5708,0.0,0.0,1.5708,2.9785012611707286e-53,1.331438476026377e-52,-5.409496124969179e-53,-1.5406873922543525e-52,1.5708,-1.1058594557601275e-53,8.51367524327422e-53,1.5708,2.29452460213915e-52,0.42147622319174266,0.42147622319174266,0.280291979976069,0.280291979976069,0.3554046722998066,0.3554046722998066,0.30323792143157285,0.30323792143157285,0.4510288568157892,0.4510288568157892,0.39202906592594655,0.39202906592594655,0.4324220402014863,0.4324220402014863,0.4311416803994063,0.4311416803994063,0.37213042932003976,0.37213042932003976,0.5373160180351572,0.5373160180351572,0.280291979976069,0.280291979976069,left_arm__right_forearm_hand,left_arm__right_forearm_hand
10.565744188000018,0.0,0.0,0.0,0.0,1.5708,0.0,0.0,1.5708,2.4290514244228512e-53,1.0858254682934242e-52,-4.411596006040131e-53,-1.2564738358629306e-52,1.5708,-9.018594422786257e-54,6.94314125239627e-53,1.5708,1.8712492507082746e-52,0.42144136845774033,0.42144136845774033,0.2803098921133725,0.2803098921133725,0.35537712859622766,0.35537712859622766,0.3032559650919383,0.3032559650919383,0.45100687421584207,0.45100687421584207,0.3920509641565759,0.3920509641565759,0.4324227780625723,0.4324227780625723,0.4311424299305084,0.4311424299305084,0.3721666556219622,0.3721666556219622,0.5373167289241325,0.5373167289241325,0.2803098921133725,0.2803098921133725,left_arm__right_forearm_hand,left_arm__right_forearm_hand
10.585744188000017,0.0,0.0,0.0,0.0,1.5708,0.0,0.0,1.5708,2.0012382587891069e-53,8.94586029619652e-53,-3.634610046062092e-53,-1.0351792004954583e-52,1.5708,-7.430207536125033e-54,5.720290550774893e-53,1.5708,1.5416781854001407e-52,0.4214065141974385,0.4214065141974385,0.2803278126352607,0.2803278126352607,0.35534958638121045,0.35534958638121045,0.3032739998499416,0.3032739998499416,0.4509848917682987,0.4509848917682987,0.39207287166128246,0.39207287166128246,0.43242351593299194,0.43242351593299194,0.4311431794708593,0.4311431794708593,0.37220273314977065,0.37220273314977065,0.53731743982077,0.53731743982077,0.2803278126352607,0.2803278126352607,left_arm__right_forearm_hand,left_arm__right_forearm_hand
10.605744188000017,0.0,0.0,0.0,0.0,1.5708,0.0,0.0,1.5708,1.5734250931553623e-53,7.033465909458798e-53,-2.8576240860840527e-53,-8.1388456512798585e-53,1.5708,-5.841820649463811e-54,4.497439849153516e-53,1.5708,1.2121071200920067e-52,0.4214452031890285,0.4214452031890285,0.2803237131583174,0.2803237131583174,0.35537432782426787,0.35537432782426787,0.30328638435060057,0.30328638435060057,0.45100136291431714,0.45100136291431714,0.39208678296711386,0.39208678296711386,0.4324218818224515,0.4324218818224515,0.4311441330599948,0.4311441330599948,0.372264645238874,0.372264645238874,0.5373182935899943,0.5373182935899943,0.2803237131583174,0.2803237131583174,left_arm__right_forearm_hand,left_arm__right_forearm_hand
10.625744188000017,0.0,0.0,0.0,0.0,1.5708,0.0,0.0,1.5708,1.1456119275216177e-53,5.121071522721076e-53,-2.0806381261060136e-53,-5.925899297605134e-53,1.5708,-4.2534337628025875e-54,3.2745891475321382e-53,1.5708,8.825360547838726e-53,0.4215329492995427,0.4215329492995427,0.28031523030718386,0.28031523030718386,0.3554372551518144,0.3554372551518144,0.303302701558329,0.303302701558329,0.4510483868238997,0.4510483868238997,0.3921057509060264,0.3921057509060264,0.4324185747088783,0.4324185747088783,0.4311453103163437,0.4311453103163437,0.3723653249001297,0.3723653249001297,0.5373192526562046,0.5373192526562046,0.28031523030718386,0.28031523030718386,left_arm__right_forearm_hand,left_arm__right_forearm_hand
10.645744188000016,0.0,0.0,0.0,0.0,1.5708,0.0,0.0,1.5708,9.25160564004037e-54,4.1356180958374672e-53,-1.6802586425587113e-53,-4.785571976597669e-53,1.5708,-3.434940824561204e-54,2.64445635544866e-53,1.5708,7.127086708708681e-53,0.4218220675184791,0.4218220675184791,0.27974846030184664,0.27974846030184664,0.35587777558303463,0.35587777558303463,0.30291203620450663,0.30291203620450663,0.4515493555889073,0.4515493555889073,0.3916590071274164,0.3916590071274164,0.4324211138030272,0.4324211138030272,0.43114692068889376,0.43114692068889376,0.37245772864694643,0.37245772864694643,0.5373205991104885,0.5373205991104885,0.27974846030184664,0.27974846030184664,left_arm__right_forearm_hand,left_arm__right_forearm_hand
10.665744188000016,0.0,0.0,0.0,0.0,1.5708,0.0,0.0,1.5708,7.172227695856803e-54,3.2061023567712974e-53,-1.3026060600989646e-53,-3.7099735123297163e-53,1.5708,-2.662908329006506e-54,2.0500920435850593e-53,1.5708,5.525212668138571e-53,0.42213017260144076,0.42213017260144076,0.27907104329029353,0.27907104329029353,0.3563886875045467,0.3563886875045467,0.3024370441668341,0.3024370441668341,0.4521443639367335,0.4521443639367335,0.39111626972076663,0.39111626972076663,0.43242517461263424,0.43242517461263424,0.4311482205199874,0.4311482205199874,0.3725013753123035,0.3725013753123035,0.5373217372215103,0.5373217372215103,0.27907104329029353,0.27907104329029353,left_arm__right_forearm_hand,left_arm__right_forearm_hand
10.685744188000015,0.0,0.0,0.0,0.0,1.5708,0.0,0.0,1.5708,5.092849751673237e-54,2.2765866177051275e-53,-9.249534776392178e-54,-2.6343750480617636e-53,1.5708,-1.8908758334518085e-54,1.4557277317214584e-53,1.5708,3.9233386275684616e-53,0.42212227755668547,0.42212227755668547,0.27895889154364556,0.27895889154364556,0.35649637941688966,0.35649637941688966,0.3023765634182882,0.3023765634182882,0.452307433745201,0.452307433745201,0.3910473154777303,0.3910473154777303,0.4324241977841013,0.4324241977841013,0.43114778861628217,0.43114778861628217,0.37248047632039266,0.37248047632039266,0.5373212044712566,0.5373212044712566,0.27895889154364556,0.27895889154364556,left_arm__right_forearm_hand,left_arm__right_forearm_hand
10.705744188000015,0.0,0.0,0.0,0.0,1.5708,0.0,0.0,1.5708,3.8423096955111136e-54,1.7175748864386492e-53,-6.978328221566421e-54,-1.9875090140750171e-53,1.5708,-1.4265746884624948e-54,1.0982764170060357e-53,1.5708,2.9599699151789887e-53,0.4220943098489753,0.4220943098489753,0.2788678057986475,0.2788678057986475,0.3565797752587575,0.3565797752587575,0.3023315292277234,0.3023315292277234,0.45244493877829495,0.45244493877829495,0.39099419716966843,0.39099419716966843,0.43242453897002514,0.43242453897002514,0.4311473584973616,0.4311473584973616,0.3724527496902173,0.3724527496902173,0.5373206811703662,0.5373206811703662,0.2788678057986475,0.2788678057986475,left_arm__right_forearm_hand,left_arm__right_forearm_hand
10.725744188000014,0.0,0.0,0.0,0.0,1.5708,0.0,0.0,1.5708,2.9340957121461644e-54,1.311588473848724e-53,-5.328847629530539e-54,-1.5177177630585637e-53,1.5708,-1.0893725410432495e-54,8.386747506723306e-54,1.5708,2.2603162484155354e-53,0.4219394890642814,0.4219394890642814,0.2788964106892551,0.2788964106892551,0.35650987180499233,0.35650987180499233,0.3023754256067159,0.3023754256067159,0.452422284873086,0.452422284873086,0.3910312718280371,0.3910312718280371,0.4324331392648841,0.4324331392648841,0.4311469391954826,0.4311469391954826,0.37238372234822964,0.37238372234822964,0.5373202167683215,0.5373202167683215,0.2788964106892551,0.2788964106892551,left_arm__right_forearm_hand,left_arm__right_forearm_hand
10.745744188000014,0.0,0.0,0.0,0.0,1.5708,0.0,0.0,1.5708,2.025881728781215e-54,9.056020612587983e-54,-3.679367037494657e-54,-1.0479265120421103e-53,1.5708,-7.521703936240043e-55,5.790730843386256e-54,1.5708,1.5606625816520813e-53,0.4217756607690903,0.4217756607690903,0.2789702570050671,0.2789702570050671,0.3563976763372635,0.3563976763372635,0.30245351426270317,0.30245351426270317,0.45234218472481813,0.45234218472481813,0.39109444780244806,0.39109444780244806,0.4324399304763275,0.4324399304763275,0.43114758562600713,0.43114758562600713,0.37230389184668883,0.37230389184668883,0.5373208480001598,0.5373208480001598,0.2789702570050671,0.2789702570050671,left_arm__right_forearm_hand,left_arm__right_forearm_hand
10.765744188000014,0.0,0.0,0.0,0.0,1.5708,0.0,0.0,1.5708,1.5658379576413168e-54,6.999550180505049e-54,-2.8438444779643925e-54,-8.099599725208904e-54,1.5708,-5.8136510943263964e-55,4.475752966345917e-54,1.5708,1.2062622781496203e-53,0.42161563105925576,0.42161563105925576,0.2790880805072861,0.2790880805072861,0.3562599530716513,0.3562599530716513,0.3025639033155247,0.3025639033155247,0.45222267748912326,0.45222267748912326,0.3911878029178749,0.3911878029178749,0.4324449478557127,0.4324449478557127,0.4311487709370149,0.4311487709370149,0.3722248391501088,0.3722248391501088,0.5373220403850241,0.5373220403850241,0.2790880805072861,0.2790880805072861,left_arm__right_forearm_hand,left_arm__right_forearm_hand
10.785744188000013,0.0,0.0,0.0,0.0,1.5708,0.0,0.0,1.5708,1.2594299584224304e-54,5.629856620724815e-54,-2.287352222600155e-54,-6.514645078935347e-54,1.5708,-4.676017923999783e-55,3.599923826604119e-54,1.5708,9.702171565089389e-54,0.42154038601547944,0.42154038601547944,0.27929599493727203,0.27929599493727203,0.35616180484886545,0.35616180484886545,0.30273606834255945,0.30273606834255945,0.4521173448881566,0.4521173448881566,0.39137152799531827,0.39137152799531827,0.4324460342200111,0.4324460342200111,0.431148109367206,0.431148109367206,0.37221784036573896,0.37221784036573896,0.5373213930136721,0.5373213930136721,0.27929599493727203,0.27929599493727203,left_arm__right_forearm_hand,left_arm__right_forearm_hand
10.805744188000013,0.0,0.0,0.0,0.0,1.5708,0.0,0.0,1.5708,9.530219592035439e-55,4.2601630609445804e-54,-1.730859967235917e-54,-4.92969043266179e-54,1.5708,-3.538384753673169e-55,2.724094686862321e-54,1.5708,7.341720348682574e-54,0.42146515246241206,0.42146515246241206,0.27950473889645794,0.27950473889645794,0.3560636614238127,0.3560636614238127,0.302908518826902,0.302908518826902,0.4520120123169038,0.4520120123169038,0.3915559067266138,0.3915559067266138,0.4324471207573645,0.4324471207573645,0.43114744779873776,0.43114744779873776,0.3722108282956001,0.3722108282956001,0.5373207456434436,0.5373207456434436,0.27950473889645794,0.27950473889645794,left_arm__right_forearm_hand,left_arm__right_forearm_hand
10.825744188000012,0.0,0.0,0.0,0.0,1.5708,0.0,0.0,1.5708,6.835604069988107e-55,3.0556261245588177e-54,-1.2414691311525574e-54,-3.5358484303389863e-54,1.5708,-2.537926538818229e-55,1.953872368702899e-54,1.5708,5.265890571725085e-54,0.4213516371511575,0.4213516371511575,0.2797198298845551,0.2797198298845551,0.35593302128788573,0.35593302128788573,0.30308225134515293,0.30308225134515293,0.4518780848516375,0.4518780848516375,0.39174420774192387,0.39174420774192387,0.43244641635322106,0.43244641635322106,0.43114687084678244,0.43114687084678244,0.3716604486150044,0.3716604486150044,0.5373201302584958,0.5373201302584958,0.2797198298845551,0.2797198298845551,left_arm__right_forearm_hand,left_arm__right_forearm_hand
10.845744188000012,0.0,0.0,0.0,0.0,1.5708,0.0,0.0,1.5708,5.366096701699274e-55,2.3987324456973315e-54,-9.745800578456837e-55,-2.775717318540306e-54,1.5708,-1.9923270993563045e-55,1.5338319724033132e-54,1.5708,4.1338377324262496e-54,0.4212236051556408,0.4212236051556408,0.2799380168928736,0.2799380168928736,0.3557900545115773,0.3557900545115773,0.30325669971598124,0.30325669971598124,0.45173331069207345,0.45173331069207345,0.39193453384158483,0.39193453384158483,0.43244503256136607,0.43244503256136607,0.4311463260122456,0.4311463260122456,0.3709038442035027,0.3709038442035027,0.5373195270219803,0.5373195270219803,0.2799380168928736,0.2799380168928736,left_arm__right_forearm_hand,left_arm__right_forearm_hand
10.865744188000011,0.0,0.0,0.0,0.0,1.5708,0.0,0.0,1.5708,3.8965893334104404e-55,1.7418387668358453e-54,-7.076909845388102e-55,-2.0155862067416252e-54,1.5708,-1.4467276598943795e-55,1.1137915761037273e-54,1.5708,3.001784893127414e-54,0.42108680883632227,0.42108680883632227,0.2803485796839411,0.2803485796839411,0.3555792192359993,0.3555792192359993,0.3035845433353365,0.3035845433353365,0.45149259256206464,0.45149259256206464,0.3922894014999342,0.3922894014999342,0.43243123760918906,0.43243123760918906,0.43114539306220695,0.43114539306220695,0.370189073353775,0.370189073353775,0.5373183442963343,0.5373183442963343,0.2803485796839411,0.2803485796839411,left_arm__right_forearm_hand,left_arm__right_forearm_hand
10.885744188000011,0.0,0.0,0.0,0.0,1.5708,0.0,0.0,1.5708,2.7458587825420357e-55,1.2274435067300952e-54,-4.986975375002975e-55,-1.4203485700424233e-54,1.5708,-1.0194838385472303e-55,7.84869566557327e-55,1.5708,2.1153056447141154e-54,0.4211294317780014,0.4211294317780014,0.2804355558060715,0.2804355558060715,0.3555677399191206,0.3555677399191206,0.30365038744281597,0.30365038744281597,0.45145346357807015,0.45145346357807015,0.39236035432849503,0.39236035432849503,0.4324333208888221,0.4324333208888221,0.4311454798699114,0.4311454798699114,0.36962713577515,0.36962713577515,0.5373183221341374,0.5373183221341374,0.2804355558060715,0.2804355558060715,left_arm__right_forearm_hand,left_arm__right_forearm_hand
10.90574418800001,0.0,0.0,0.0,0.0,1.5708,0.0,0.0,1.5708,2.3329439390982906e-55,1.0428638602311989e-54,-4.237047458345578e-55,-1.2067603800147972e-54,1.5708,-8.66176606484318e-56,6.66842996414943e-55,1.5708,1.797211682753627e-54,0.4211720940347215,0.4211720940347215,0.2805228246254851,0.2805228246254851,0.3555563087916397,0.3555563087916397,0.3037163942396843,0.3037163942396843,0.4514143348623084,0.4514143348623084,0.39243152821463534,0.39243152821463534,0.432435404491807,0.432435404491807,0.43114556675037446,0.43114556675037446,0.3690655407630746,0.3690655407630746,0.5373183000316757,0.5373183000316757,0.2805228246254851,0.2805228246254851,left_arm__right_forearm_hand,left_arm__right_forearm_hand
10.92574418800001,0.0,0.0,0.0,0.0,1.5708,0.0,0.0,1.5708,1.9200290956545456e-55,8.582842137323026e-55,-3.487119541688181e-55,-9.931721899871711e-55,1.5708,-7.128693744214056e-56,5.48816426272559e-55,1.5708,1.4791177207931387e-54,0.4211839909211081,0.4211839909211081,0.2806192367983241,0.2806192367983241,0.35552680224137645,0.35552680224137645,0.303794699356382,0.303794699356382,0.4513643408961934,0.4513643408961934,0.3925114692481324,0.3925114692481324,0.4324353200616227,0.4324353200616227,0.4311455173529753,0.4311455173529753,0.368561961131094,0.368561961131094,0.537318132903693,0.537318132903693,0.2806192367983241,0.2806192367983241,left_arm__right_forearm_hand,left_arm__right_forearm_hand
10.94574418800001,0.0,0.0,0.0,0.0,1.5708,0.0,0.0,1.5708,1.5071142522108007e-55,6.737045672334063e-55,-2.7371916250307836e-55,-7.79583999959545e-55,1.5708,-5.595621423584932e-56,4.3078985613017495e-55,1.5708,1.1610237588326503e-54,0.4210722987867859,0.4210722987867859,0.28075161976456786,0.28075161976456786,0.35542459669779,0.35542459669779,0.30392183202017803,0.30392183202017803,0.45127074903065556,0.45127074903065556,0.39262610656187846,0.39262610656187846,0.43242653733752706,0.43242653733752706,0.4311449209572387,0.4311449209572387,0.36828991377803116,0.36828991377803116,0.5373173837074117,0.5373173837074117,0.28075161976456786,0.28075161976456786,left_arm__right_forearm_hand,left_arm__right_forearm_hand
10.96574418800001,0.0,0.0,0.0,0.0,1.5708,0.0,0.0,1.5708,1.1217033198224659e-55,5.01419616022296e-55,-2.0372157772931957e-55,-5.802227399497694e-55,1.5708,-4.164665763128233e-56,3.2062493673470462e-55,1.5708,8.641177686196978e-55,0.42124848066165616,0.42124848066165616,0.28043411697236953,0.28043411697236953,0.35576053743457187,0.35576053743457187,0.3037548038944585,0.3037548038944585,0.4516746642175663,0.4516746642175663,0.39229577615913314,0.39229577615913314,0.43242166716360625,0.43242166716360625,0.4311446150320159,0.4311446150320159,0.3685099344040122,0.3685099344040122,0.5373169903652474,0.5373169903652474,0.28043411697236953,0.28043411697236953,left_arm__right_forearm_hand,left_arm__right_forearm_hand
10.985744188000009,0.0,0.0,0.0,0.0,1.5708,0.0,0.0,1.5708,9.191960585820984e-56,4.108955787136224e-55,-1.669426023688288e-55,-4.754719418553084e-55,1.5708,-3.412795778642401e-56,2.6274075588571905e-55,1.5708,7.081138417168083e-55,0.4215512094073887,0.4215512094073887,0.27993366858937596,0.27993366858937596,0.3562704433468217,0.3562704433468217,0.30345755274356967,0.30345755274356967,0.45226948848940085,0.45226948848940085,0.39178471752170785,0.39178471752170785,0.4324183705295059,0.4324183705295059,0.43114445308830623,0.43114445308830623,0.3689194164447141,0.3689194164447141,0.5373167437523757,0.5373167437523757,0.27993366858937596,0.27993366858937596,left_arm__right_forearm_hand,left_arm__right_forearm_hand
11.005744188000008,0.0,0.0,0.0,0.0,1.5708,0.0,0.0,1.5708,7.166887973417308e-56,3.2037154140494888e-55,-1.3016362700833806e-55,-3.707211437608473e-55,1.5708,-2.660925794156569e-56,2.0485657503673344e-55,1.5708,5.521099148139185e-55,0.42196899935571003,0.42196899935571003,0.2793064166025653,0.2793064166025653,0.356886648597307,0.356886648597307,0.3030408727064945,0.3030408727064945,0.4529615468896516,0.4529615468896516,0.3911492380059346,0.3911492380059346,0.4324161119204965,0.4324161119204965,0.43114447054330846,0.43114447054330846,0.36942789595315345,0.36942789595315345,0.537316605141429,0.537316605141429,0.2793064166025653,0.2793064166025653,left_arm__right_forearm_hand,left_arm__right_forearm_hand
11.025744188000008,0.0,0.0,0.0,0.0,1.5708,0.0,0.0,1.5708,5.141815361013633e-56,2.2984750409627534e-55,-9.33846516478473e-56,-2.659703456663863e-55,1.5708,-1.9090558096707368e-56,1.4697239418774786e-55,1.5708,3.961059879110289e-55,0.42255789788227555,0.42255789788227555,0.2781844939831597,0.2781844939831597,0.35780437888804145,0.35780437888804145,0.30222566969648823,0.30222566969648823,0.45400831797778063,0.45400831797778063,0.39012566742282806,0.39012566742282806,0.43241742608107586,0.43241742608107586,0.4311450061073165,0.4311450061073165,0.3701469968322721,0.3701469968322721,0.5373168334686569,0.5373168334686569,0.2781844939831597,0.2781844939831597,left_arm__right_forearm_hand,left_arm__right_forearm_hand
11.045744188000008,0.0,0.0,0.0,0.0,1.5708,0.0,0.0,1.5708,3.8480907130806663e-56,1.7201590952563623e-55,-6.988827593364095e-56,-1.9904993572385145e-55,1.5708,-1.4287210675916722e-56,1.0999288489456982e-55,1.5708,2.9644233922386303e-55,0.4228965194016728,0.4228965194016728,0.2773546514245639,0.2773546514245639,0.35840594931390496,0.35840594931390496,0.30159535439485935,0.30159535439485935,0.4547168032411921,0.4547168032411921,0.38943140659062825,0.38943140659062825,0.43241391194088125,0.43241391194088125,0.43114576120752274,0.43114576120752274,0.3706396723928698,0.3706396723928698,0.5373173405180467,0.5373173405180467,0.2773546514245639,0.2773546514245639,left_arm__right_forearm_hand,left_arm__right_forearm_hand
11.065744188000007,0.0,0.0,0.0,0.0,1.5708,0.0,0.0,1.5708,2.826458172642248e-56,1.2634727441598959e-55,-5.133358421438416e-56,-1.4620401636534922e-55,1.5708,-1.0494088208975096e-56,8.079078993277304e-56,1.5708,2.1773963632621597e-55,0.42305904694240487,0.42305904694240487,0.276866053115122,0.276866053115122,0.35874662090679177,0.35874662090679177,0.30122012748197613,0.30122012748197613,0.4551315745054443,0.4551315745054443,0.3890442449147081,0.3890442449147081,0.43240687906009473,0.43240687906009473,0.4311463700303834,0.4311463700303834,0.37094635610722676,0.37094635610722676,0.5373177927962812,0.5373177927962812,0.276866053115122,0.276866053115122,left_arm__right_forearm_hand,left_arm__right_forearm_hand
11.085744188000007,0.0,0.0,0.0,0.0,1.5708,0.0,0.0,1.5708,1.8281501940753037e-56,8.172128513352425e-56,-3.320250865640021e-56,-9.45646050877303e-56,1.5708,-6.787565293402783e-57,5.225539854956509e-56,1.5708,1.4083376936568637e-55,0.42316147967823786,0.42316147967823786,0.27648658568790413,0.27648658568790413,0.35897879189533416,0.35897879189533416,0.30090697700897323,0.30090697700897323,0.45541797727575617,0.45541797727575617,0.3887441967106916,0.3887441967106916,0.4324023330639036,0.4324023330639036,0.4311465866628345,0.4311465866628345,0.3712296368181825,0.3712296368181825,0.5373178550619152,0.5373178550619152,0.27648658568790413,0.27648658568790413,left_arm__right_forearm_hand,left_arm__right_forearm_hand
11.105744188000006,0.0,0.0,0.0,0.0,1.5708,0.0,0.0,1.5708,1.5453228998050168e-56,6.907844537478326e-56,-2.8065854284834588e-56,-7.99348162020151e-56,1.5708,-5.737482683758653e-57,4.417113226187943e-56,1.5708,1.1904582543161047e-55,0.4230818561801663,0.4230818561801663,0.27640074056818675,0.27640074056818675,0.35888367996089315,0.35888367996089315,0.3007611558042847,0.3007611558042847,0.4553184523408371,0.4553184523408371,0.38868034150296127,0.38868034150296127,0.43240525546868763,0.43240525546868763,0.4311456238916079,0.4311456238916079,0.37144258179293127,0.37144258179293127,0.5373167445295067,0.5373167445295067,0.27640074056818675,0.27640074056818675,left_arm__right_forearm_hand,left_arm__right_forearm_hand
11.125744188000006,0.0,0.0,0.0,0.0,1.5708,0.0,0.0,1.5708,1.2624956055347299e-56,5.643560561604229e-56,-2.292919991326896e-56,-6.530502731629989e-56,1.5708,-4.687400074114525e-57,3.608686597419377e-56,1.5708,9.725788149753456e-56,0.42300224050650886,0.42300224050650886,0.2763160784826946,0.2763160784826946,0.3587885712952721,0.3587885712952721,0.3006162010375846,0.3006162010375846,0.455218928464477,0.455218928464477,0.388617600324338,0.388617600324338,0.4324081789352327,0.4324081789352327,0.43114466125319323,0.43114466125319323,0.3716547415394131,0.3716547415394131,0.5373156341057461,0.5373156341057461,0.2763160784826946,0.2763160784826946,left_arm__right_forearm_hand,left_arm__right_forearm_hand
11.145744188000005,0.0,0.0,0.0,0.0,1.5708,0.0,0.0,1.5708,9.796683112644428e-57,4.37927658573013e-56,-1.7792545541703339e-56,-5.067523843058468e-56,1.5708,-3.637317464470396e-57,2.800259968650811e-56,1.5708,7.546993756345864e-56,0.4225276334243219,0.4225276334243219,0.2769083230912334,0.2769083230912334,0.35801397112193567,0.35801397112193567,0.30089417007944164,0.30089417007944164,0.4543244646993142,0.4543244646993142,0.38917847975555364,0.38917847975555364,0.4324073667565939,0.4324073667565939,0.43114498066795054,0.43114498066795054,0.3721321259913914,0.3721321259913914,0.537315477410578,0.537315477410578,0.2769083230912334,0.2769083230912334,left_arm__right_forearm_hand,left_arm__right_forearm_hand
11.165744188000005,0.0,0.0,0.0,0.0,1.5708,0.0,0.0,1.5708,7.069359239678873e-57,3.160118484845422e-56,-1.2839232909381632e-56,-3.6567628135262127e-56,1.5708,-2.624715276531819e-57,2.0206883753679893e-56,1.5708,5.4459667042165805e-56,0.4223115946234462,0.4223115946234462,0.27740035805080704,0.27740035805080704,0.357553132621353,0.357553132621353,0.30119459646633195,0.30119459646633195,0.45375939161314627,0.45375939161314627,0.389619403499902,0.389619403499902,0.43241532346863293,0.43241532346863293,0.4311450572854962,0.4311450572854962,0.37225144348217304,0.37225144348217304,0.5373153255767837,0.5373153255767837,0.27740035805080704,0.27740035805080704,left_arm__right_forearm_hand,left_arm__right_forearm_hand
11.185744188000005,0.0,0.0,0.0,0.0,1.5708,0.0,0.0,1.5708,4.992616786078657e-57,2.2317808529070294e-56,-9.067493611580003e-57,-2.582527607742354e-56,1.5708,-1.8536612872548125e-57,1.4270773856945068e-56,1.5708,3.846122945809195e-56,0.42212500050897755,0.42212500050897755,0.2777798427417947,0.2777798427417947,0.35719430697207627,0.35719430697207627,0.3014360446098351,0.3014360446098351,0.4533277097631978,0.4533277097631978,0.3899457058983047,0.3899457058983047,0.43241871406893045,0.43241871406893045,0.43114508413565494,0.43114508413565494,0.3723379888552934,0.3723379888552934,0.5373151319911149,0.5373151319911149,0.2777798427417947,0.2777798427417947,left_arm__right_forearm_hand,left_arm__right_forearm_hand
11.205744188000004,0.0,0.0,0.0,0.0,1.5708,0.0,0.0,1.5708,2.933684886574864e-57,1.3114048281408317e-56,-5.328101496109357e-57,-1.517505255584966e-56,1.5708,-1.0892200095172049e-57,8.38557321294634e-57,1.5708,2.259999763949731e-56,0.422018193304091,0.422018193304091,0.27782259760735134,0.27782259760735134,0.3571309990714602,0.3571309990714602,0.3015038473734501,0.3015038473734501,0.4532867549910984,0.4532867549910984,0.38993002795760756,0.38993002795760756,0.432408239370587,0.432408239370587,0.4311449744337806,0.4311449744337806,0.37233468913485496,0.37233468913485496,0.5373148205826127,0.5373148205826127,0.27782259760735134,0.27782259760735134,left_arm__right_forearm_hand,left_arm__right_forearm_hand
11.225744188000004,0.0,0.0,0.0,0.0,1.5708,0.0,0.0,1.5708,2.4340886377082386e-57,1.088077184506389e-56,-4.420744494947343e-57,-1.2590794318725962e-56,1.5708,-9.037296613767147e-58,6.957539499797393e-57,1.5708,1.875129729108676e-56,0.42186779144813685,0.42186779144813685,0.27789237734575567,0.27789237734575567,0.3569629230456348,0.3569629230456348,0.301531111452152,0.301531111452152,0.45311537520909373,0.45311537520909373,0.38994617681504284,0.38994617681504284,0.43240920720189907,0.43240920720189907,0.4311447993058745,0.4311447993058745,0.3723322517395861,0.3723322517395861,0.5373144918715022,0.5373144918715022,0.27789237734575567,0.27789237734575567,left_arm__right_forearm_hand,left_arm__right_forearm_hand
11.245744188000003,0.0,0.0,0.0,0.0,1.5708,0.0,0.0,1.5708,1.934492388841613e-57,8.647495408719464e-57,-3.51338749378533e-57,-1.0006536081602265e-56,1.5708,-7.182393132362246e-58,5.529505786648447e-57,1.5708,1.4902596942676207e-56,0.42169786888100774,0.42169786888100774,0.27797509104555185,0.27797509104555185,0.3567478536009352,0.3567478536009352,0.3015407462749411,0.3015407462749411,0.45288548835394304,0.45288548835394304,0.3899772072749438,0.3899772072749438,0.432415308458926,0.432415308458926,0.43114459483934414,0.43114459483934414,0.37233007067452023,0.37233007067452023,0.5373141554079974,0.5373141554079974,0.27797509104555185,0.27797509104555185,left_arm__right_forearm_hand,left_arm__right_forearm_hand
11.265744188000003,0.0,0.0,0.0,0.0,1.5708,0.0,0.0,1.5708,1.4348961399749873e-57,6.414218972375038e-57,-2.6060304926233155e-57,-7.42227784447857e-57,1.5708,-5.327489650957344e-58,4.1014720734995e-57,1.5708,1.1053896594265653e-56,0.4214753613271001,0.4214753613271001,0.2780539956708462,0.2780539956708462,0.3564636508056162,0.3564636508056162,0.3015405215056459,0.3015405215056459,0.45258116670402726,0.45258116670402726,0.39000711909738917,0.39000711909738917,0.43163043744136903,0.43163043744136903,0.430344948075651,0.430344948075651,0.37226274461729475,0.37226274461729475,0.5365156944915505,0.5365156944915505,0.2780539956708462,0.2780539956708462,left_arm__right_forearm_hand,left_arm__right_forearm_hand
11.285744188000002,0.0,0.0,0.0,0.0,1.5708,0.0,0.0,1.5708,1.0352878221716144e-57,4.627904839828867e-57,-1.8802696293181488e-57,-5.355226522037192e-57,1.5708,-3.843821866074284e-58,2.9592414199016604e-57,1.5708,7.975465410191292e-57,0.42127125432344587,0.42127125432344587,0.2780995645947801,0.2780995645947801,0.3562057464764637,0.3562057464764637,0.3015208949023406,0.3015208949023406,0.4523062167061823,0.4523062167061823,0.3900065235418012,0.3900065235418012,0.4307008896526516,0.4307008896526516,0.42939937518062815,0.42939937518062815,0.3721802352703036,0.3721802352703036,0.5355715481038676,0.5355715481038676,0.2780995645947801,0.2780995645947801,left_arm__right_forearm_hand,left_arm__right_forearm_hand
11.305744188000002,0.0,0.0,0.0,0.0,1.5708,0.0,0.0,1.5708,7.434585948460975e-58,3.3233807600320485e-57,-1.350255056233957e-57,-3.8456833934402736e-57,1.5708,-2.7603168338210993e-58,2.1250838855957914e-57,1.5708,5.727323532761098e-57,0.42135153035266687,0.42135153035266687,0.2778548690144745,0.2778548690144745,0.3563404641314144,0.3563404641314144,0.3013497928760769,0.3013497928760769,0.4524633680591382,0.4524633680591382,0.38973676435795734,0.38973676435795734,0.4304278540168765,0.4304278540168765,0.42912031728506855,0.42912031728506855,0.3721212946443058,0.3721212946443058,0.5352928059103376,0.5352928059103376,0.2778548690144745,0.2778548690144745,left_arm__right_forearm_hand,left_arm__right_forearm_hand
11.325744188000002,0.0,0.0,0.0,0.0,1.5708,0.0,0.0,1.5708,4.6559036231601474e-58,2.081264596177956e-57,-8.455961706665562e-58,-2.408356210980639e-57,1.5708,-1.7286462537053636e-58,1.3308321177607575e-57,1.5708,3.5867318734425065e-57,0.42143186088399814,0.42143186088399814,0.27761086666930956,0.27761086666930956,0.3564752193315644,0.3564752193315644,0.3011787226744616,0.3011787226744616,0.45262052099831573,0.45262052099831573,0.38946748686130483,0.38946748686130483,0.43015482424812174,0.43015482424812174,0.42884125987940597,0.42884125987940597,0.3720624794487278,0.3720624794487278,0.5350140643433516,0.5350140643433516,0.27761086666930956,0.27761086666930956,left_arm__right_forearm_hand,left_arm__right_forearm_hand
11.345744188000001,0.0,0.0,0.0,0.0,1.5708,0.0,0.0,1.5708,3.920671141065616e-58,1.7526037262811747e-57,-7.120646756596163e-58,-2.0280429875799302e-57,1.5708,-1.4556687656291482e-58,1.120675061174557e-57,1.5708,3.0203366059801593e-57,0.42167982092521156,0.42167982092521156,0.2771286567598069,0.2771286567598069,0.35686894749689596,0.35686894749689596,0.3008189446945289,0.3008189446945289,0.45306607667975274,0.45306607667975274,0.38904213769993434,0.38904213769993434,0.43013282885287757,0.43013282885287757,0.4288201735546296,0.4288201735546296,0.37199685852180114,0.37199685852180114,0.5349927428791381,0.5349927428791381,0.2771286567598069,0.2771286567598069,left_arm__right_forearm_hand,left_arm__right_forearm_hand
11.365744188,0.0,0.0,0.0,0.0,1.5708,0.0,0.0,1.5708,3.185438658971085e-58,1.4239428563843932e-57,-5.785331806526763e-58,-1.647729764179221e-57,1.5708,-1.1826912775529329e-58,9.105180045883564e-58,1.5708,2.4539413385178124e-57,0.42199877105273303,0.42199877105273303,0.27653517474607114,0.27653517474607114,0.35737069185579146,0.35737069185579146,0.3003792719792673,0.3003792719792673,0.45363295119948066,0.45363295119948066,0.3885172068640814,0.3885172068640814,0.43020071380592145,0.43020071380592145,0.42889264277402345,0.42889264277402345,0.3719240810650449,0.3719240810650449,0.5350647566656093,0.5350647566656093,0.27653517474607114,0.27653517474607114,left_arm__right_forearm_hand,left_arm__right_forearm_hand
11.385744188,0.0,0.0,0.0,0.0,1.5708,0.0,0.0,1.5708,2.450206176876554e-58,1.0952819864876117e-57,-4.450016856457363e-58,-1.267416540778512e-57,1.5708,-9.097137894767173e-59,7.003609480021559e-58,1.5708,1.8875460710554656e-57,0.4225854957690495,0.4225854957690495,0.27554156781393646,0.27554156781393646,0.35813844282948537,0.35813844282948537,0.29963973959759005,0.29963973959759005,0.454458446123323,0.454458446123323,0.3875609885212372,0.3875609885212372,0.4302748687946372,0.4302748687946372,0.42897502328866427,0.42897502328866427,0.37182254723284675,0.37182254723284675,0.5351464518398138,0.5351464518398138,0.27554156781393646,0.27554156781393646,left_arm__right_forearm_hand,left_arm__right_forearm_hand
11.405744188,0.0,0.0,0.0,0.0,1.5708,0.0,0.0,1.5708,1.8168597806637753e-58,8.121658530269573e-58,-3.2997454361492984e-58,-9.398058661430367e-58,1.5708,-6.745646189344142e-59,5.193267613073933e-58,1.5708,1.399639986632596e-57,0.4229809391441676,0.4229809391441676,0.27503935988433986,0.27503935988433986,0.35836401081657315,0.35836401081657315,0.29914956150631916,0.29914956150631916,0.45459110791110635,0.45459110791110635,0.38705870202391524,0.38705870202391524,0.4296007555781189,0.4296007555781189,0.42827555872115325,0.42827555872115325,0.37175699161416115,0.37175699161416115,0.534447921166811,0.534447921166811,0.27503935988433986,0.27503935988433986,left_arm__right_forearm_hand,left_arm__right_forearm_hand
11.425744188,0.0,0.0,0.0,0.0,1.5708,0.0,0.0,1.5708,1.5323614384338632e-58,6.849904698405366e-58,-2.7830450741531615e-58,-7.926435954046982e-58,1.5708,-5.689359304377821e-59,4.38006450163952e-58,1.5708,1.1804732352115301e-57,0.42326725612353194,0.42326725612353194,0.2747161197545883,0.2747161197545883,0.358574929516013,0.358574929516013,0.2988373286683445,0.2988373286683445,0.45475394142638126,0.45475394142638126,0.38676246775795164,0.38676246775795164,0.42933845687753874,0.42933845687753874,0.42800316371548625,0.42800316371548625,0.3717172751684292,0.3717172751684292,0.5341757972822097,0.5341757972822097,0.2747161197545883,0.2747161197545883,left_arm__right_forearm_hand,left_arm__right_forearm_hand
11.445744187999999,0.0,0.0,0.0,0.0,1.5708,0.0,0.0,1.5708,1.247863096203951e-58,5.578150866541159e-58,-2.2663447121570246e-58,-6.454813246663597e-58,1.5708,-4.6330724194115e-59,3.5668613902051066e-58,1.5708,9.61306483790464e-58,0.42348774393849736,0.42348774393849736,0.27450272066012427,0.27450272066012427,0.35877680095028364,0.35877680095028364,0.2986340642811027,0.2986340642811027,0.45493494059871686,0.45493494059871686,0.38659179021198997,0.38659179021198997,0.42932404822074915,0.42932404822074915,0.42798787029865076,0.42798787029865076,0.37169313310320545,0.37169313310320545,0.5341603756067141,0.5341603756067141,0.27450272066012427,0.27450272066012427,left_arm__right_forearm_hand,left_arm__right_forearm_hand
11.465744187999999,0.0,0.0,0.0,0.0,1.5708,0.0,0.0,1.5708,9.633647539740387e-59,4.3063970346769515e-58,-1.749644350160888e-58,-4.9831905392802125e-58,1.5708,-3.5767855344451786e-59,2.753658278770694e-58,1.5708,7.421397323693981e-58,0.4237082344100936,0.4237082344100936,0.274291948653645,0.274291948653645,0.3589786916426664,0.3589786916426664,0.29843214493025094,0.29843214493025094,0.45511594398636934,0.45511594398636934,0.38642319967406136,0.38642319967406136,0.42930963974616326,0.42930963974616326,0.4279725769861074,0.4279725769861074,0.3716690668943577,0.3716690668943577,0.5341449540117275,0.5341449540117275,0.274291948653645,0.274291948653645,left_arm__right_forearm_hand,left_arm__right_forearm_hand
11.485744187999998,0.0,0.0,0.0,0.0,1.5708,0.0,0.0,1.5708,7.176855663145915e-59,3.208171133372079e-58,-1.3034465825269145e-58,-3.712367417931518e-58,1.5708,-2.664626603043964e-59,2.051414890449341e-58,1.5708,5.5287778789179605e-58,0.4240069040414532,0.4240069040414532,0.27407104785838327,0.27407104785838327,0.3592706040128069,0.3592706040128069,0.29821982694047267,0.29821982694047267,0.45538657370778546,0.45538657370778546,0.38627462200214224,0.38627462200214224,0.4294291836226513,0.4294291836226513,0.42809285731320806,0.42809285731320806,0.3716424133292254,0.3716424133292254,0.5342648187834039,0.5342648187834039,0.27407104785838327,0.27407104785838327,left_arm__right_forearm_hand,left_arm__right_forearm_hand
11.505744187999998,0.0,0.0,0.0,0.0,1.5708,0.0,0.0,1.5708,5.832388352810694e-59,2.607172392805355e-58,-1.0592670416209144e-58,-3.016915694833235e-58,1.5708,-2.1654520995857415e-59,1.6671156388554926e-58,1.5708,4.493051166106881e-58,0.4246660718248873,0.4246660718248873,0.2738301667746691,0.2738301667746691,0.3599774723370097,0.3599774723370097,0.29797910953670365,0.29797910953670365,0.4560703986164061,0.4560703986164061,0.38623754942953803,0.38623754942953803,0.43016616016768233,0.43016616016768233,0.4288380319461164,0.4288380319461164,0.37160367553183377,0.37160367553183377,0.5350082540403435,0.5350082540403435,0.2738301667746691,0.2738301667746691,left_arm__right_forearm_hand,left_arm__right_forearm_hand
11.525744187999997,0.0,0.0,0.0,0.0,1.5708,0.0,0.0,1.5708,4.487921042475474e-59,2.006173652238631e-58,-8.150875007149143e-59,-2.3214639717349523e-58,1.5708,-1.6662775961275192e-59,1.2828163872616444e-58,1.5708,3.457324453295802e-58,0.42501148646528714,0.42501148646528714,0.27375814105308266,0.27375814105308266,0.3603841412945968,0.3603841412945968,0.29791550859105764,0.29791550859105764,0.4564826931168251,0.4564826931168251,0.38625910595800117,0.38625910595800117,0.4306673334845375,0.4306673334845375,0.4293470219377266,0.4293470219377266,0.3715843043022005,0.3715843043022005,0.5355160940997159,0.5355160940997159,0.27375814105308266,0.27375814105308266,left_arm__right_forearm_hand,left_arm__right_forearm_hand
11.545744187999997,0.0,0.0,0.0,0.0,1.5708,0.0,0.0,1.5708,3.1434537321402533e-59,1.405174911671907e-58,-5.709079598089144e-59,-1.6260122486366695e-58,1.5708,-1.1671030926692967e-59,8.985171356677961e-59,1.5708,2.4215977404847227e-58,0.4250435182304913,0.4250435182304913,0.27380671366494846,0.27380671366494846,0.3604910242272264,0.3604910242272264,0.29799638388985245,0.29799638388985245,0.4566237665832299,0.4566237665832299,0.38630361301279414,0.38630361301279414,0.4309330692112571,0.4309330692112571,0.4296202030479312,0.4296202030479312,0.37158406565838503,0.37158406565838503,0.535788713590478,0.535788713590478,0.27380671366494846,0.27380671366494846,left_arm__right_forearm_hand,left_arm__right_forearm_hand
11.565744187999996,0.0,0.0,0.0,0.0,1.5708,0.0,0.0,1.5708,2.6337754453501054e-59,1.1773404332131414e-58,-4.783411795521712e-59,-1.362371295785528e-58,1.5708,-9.778694803857265e-60,7.528319392622012e-59,1.5708,2.0289608853448814e-58,0.42507378497961584,0.42507378497961584,0.2738568711748292,0.2738568711748292,0.36059612712997924,0.36059612712997924,0.2980786888688201,0.2980786888688201,0.4567631475978594,0.4567631475978594,0.3863487704833143,0.3863487704833143,0.43119845840821264,0.43119845840821264,0.42989295358563967,0.42989295358563967,0.371584619809529,0.371584619809529,0.5360609036276367,0.5360609036276367,0.2738568711748292,0.2738568711748292,left_arm__right_forearm_hand,left_arm__right_forearm_hand
11.585744187999996,0.0,0.0,0.0,0.0,1.5708,0.0,0.0,1.5708,2.2161899584091047e-59,9.906729331547662e-59,-4.02500114688468e-59,-1.1463671250619234e-58,1.5708,-8.228281294411944e-60,6.334703237924531e-59,1.5708,1.7072688364700162e-58,0.425027418174255,0.425027418174255,0.2739723848661111,0.2739723848661111,0.360624370885835,0.360624370885835,0.29821944869085315,0.29821944869085315,0.4568324571136192,0.4568324571136192,0.38642003048368534,0.38642003048368534,0.43144916768755276,0.43144916768755276,0.4301478244372579,0.4301478244372579,0.3716177363519087,0.3716177363519087,0.5363152568976612,0.5363152568976612,0.2739723848661111,0.2739723848661111,left_arm__right_forearm_hand,left_arm__right_forearm_hand
11.605744187999996,0.0,0.0,0.0,0.0,1.5708,0.0,0.0,1.5708,1.7986044714681045e-59,8.04005433096391e-59,-3.2665904982476486e-59,-9.30362954338319e-59,1.5708,-6.677867784966626e-60,5.141087083227049e-59,1.5708,1.3855767875951513e-58,0.42497853481516806,0.42497853481516806,0.2740890956014444,0.2740890956014444,0.3606520803512121,0.3606520803512121,0.29835903048126244,0.29835903048126244,0.456901853317219,0.456901853317219,0.38649478240920365,0.38649478240920365,0.4316969542319136,0.4316969542319136,0.43039977625884557,0.43039977625884557,0.3716522609431308,0.3716522609431308,0.536566693685946,0.536566693685946,0.2740890956014444,0.2740890956014444,left_arm__right_forearm_hand,left_arm__right_forearm_hand
11.625744187999995,0.0,0.0,0.0,0.0,1.5708,0.0,0.0,1.5708,1.3810189845271042e-59,6.173379330380158e-59,-2.5081798496106177e-59,-7.143587836147149e-59,1.5708,-5.127454275521306e-60,3.947470928529567e-59,1.5708,1.0638847387202863e-58,0.42488355924518767,0.42488355924518767,0.2741683205816244,0.2741683205816244,0.36066849778673665,0.36066849778673665,0.2984373881199043,0.2984373881199043,0.45697240397732675,0.45697240397732675,0.38658777764991037,0.38658777764991037,0.43189298291475403,0.43189298291475403,0.4306000903021345,0.4306000903021345,0.3717175673223679,0.3717175673223679,0.5367665364554491,0.5367665364554491,0.2741683205816244,0.2741683205816244,left_arm__right_forearm_hand,left_arm__right_forearm_hand
11.645744187999995,0.0,0.0,0.0,0.0,1.5708,0.0,0.0,1.5708,1.10972182024861e-59,4.960636909666002e-59,-2.0154552105407006e-59,-5.740250775299503e-59,1.5708,-4.1201807908683e-60,3.1720017416605814e-59,1.5708,8.548876749812861e-59,0.4247887515314079,0.4247887515314079,0.2742478577246459,0.2742478577246459,0.36068512325063273,0.36068512325063273,0.2985159601526775,0.2985159601526775,0.4570429549940117,0.4570429549940117,0.3866809970734434,0.3866809970734434,0.4320890155140435,0.4320890155140435,0.43080040556347704,0.43080040556347704,0.37178240816620606,0.37178240816620606,0.5369663804643041,0.5369663804643041,0.2742478577246459,0.2742478577246459,left_arm__right_forearm_hand,left_arm__right_forearm_hand
11.665744187999994,0.0,0.0,0.0,0.0,1.5708,0.0,0.0,1.5708,9.461244167289005e-60,4.229329924962769e-59,-1.7183327845971785e-59,-4.8940115599792035e-59,1.5708,-3.512775523062689e-60,2.704378919952514e-59,1.5708,7.288584292946441e-59,0.4247318164872386,0.4247318164872386,0.27437033470197925,0.27437033470197925,0.3607317451296354,0.3607317451296354,0.29858737551432923,0.29858737551432923,0.4571313097320331,0.4571313097320331,0.38688306506690795,0.38688306506690795,0.4322981137432473,0.4322981137432473,0.4310221438189869,0.4310221438189869,0.37194151751786425,0.37194151751786425,0.537187205905903,0.537187205905903,0.27437033470197925,0.27437033470197925,left_arm__right_forearm_hand,left_arm__right_forearm_hand
11.685744187999994,0.0,0.0,0.0,0.0,1.5708,0.0,0.0,1.5708,7.825270132091909e-60,3.4980229402595365e-59,-1.4212103586536564e-59,-4.047772344658904e-59,1.5708,-2.9053702552570775e-60,2.2367560982444464e-59,1.5708,6.0282918360800195e-59,0.4245615589642015,0.4245615589642015,0.2746612992233719,0.2746612992233719,0.36044821600727217,0.36044821600727217,0.2988015980005747,0.2988015980005747,0.4568034728511303,0.4568034728511303,0.38716409077259184,0.38716409077259184,0.43233723619408765,0.43233723619408765,0.4310660395766755,0.4310660395766755,0.3719703013113301,0.3719703013113301,0.5372307467836662,0.5372307467836662,0.2746612992233719,0.2746612992233719,left_arm__right_forearm_hand,left_arm__right_forearm_hand
11.705744187999993,0.0,0.0,0.0,0.0,1.5708,0.0,0.0,1.5708,6.189296096894814e-60,2.7667159555563033e-59,-1.124087932710134e-59,-3.201533129338604e-59,1.5708,-2.2979649874514664e-60,1.7691332765363794e-59,1.5708,4.767999379213598e-59,0.42438627516198607,0.42438627516198607,0.2749599632754721,0.2749599632754721,0.3601496929968197,0.3601496929968197,0.29902137949068325,0.29902137949068325,0.45645656939230095,0.45645656939230095,0.3874485459514032,0.3874485459514032,0.43236855685021786,0.43236855685021786,0.4311017494388833,0.4311017494388833,0.37199282414254814,0.37199282414254814,0.5372661284399579,0.5372661284399579,0.2749599632754721,0.2749599632754721,left_arm__right_forearm_hand,left_arm__right_forearm_hand
11.725744187999993,0.0,0.0,0.0,0.0,1.5708,0.0,0.0,1.5708,4.646399413463681e-60,2.077016059963093e-59,-8.438700345660216e-60,-2.403439974669585e-59,1.5708,-1.725117525918881e-60,1.3281154576789048e-59,1.5708,3.5794101901326047e-59,0.4241616911014929,0.4241616911014929,0.2753408315521363,0.2753408315521363,0.35976118355545417,0.35976118355545417,0.29930645378878795,0.29930645378878795,0.4560011008614222,0.4560011008614222,0.38782811842324827,0.38782811842324827,0.4324109757751518,0.4324109757751518,0.4311505972698159,0.4311505972698159,0.37200784848938223,0.37200784848938223,0.5373143549978139,0.5373143549978139,0.2753408315521363,0.2753408315521363,left_arm__right_forearm_hand,left_arm__right_forearm_hand
11.745744187999993,0.0,0.0,0.0,0.0,1.5708,0.0,0.0,1.5708,3.590573933911851e-60,1.6050449093140731e-59,-6.521130622008533e-60,-1.8572938219138801e-59,1.5708,-1.3331101074845757e-60,1.026320881874517e-59,1.5708,2.7660422154469725e-59,0.4239698895420166,0.4239698895420166,0.2754554260748601,0.2754554260748601,0.3595372816811962,0.3595372816811962,0.2994002638448947,0.2994002638448947,0.4557689058673191,0.4557689058673191,0.3880105525590537,0.3880105525590537,0.4324355227916456,0.4324355227916456,0.43117721588707686,0.43117721588707686,0.3719627629262339,0.3719627629262339,0.5373401217803307,0.5373401217803307,0.2754554260748601,0.2754554260748601,left_arm__right_forearm_hand,left_arm__right_forearm_hand
11.765744187999992,0.0,0.0,0.0,0.0,1.5708,0.0,0.0,1.5708,2.534748454360021e-60,1.1330737586650531e-59,-4.603560898356851e-60,-1.3111476691581755e-59,1.5708,-9.4110268905027e-61,7.245263060701293e-60,1.5708,1.9526742407613406e-59,0.4238660038031264,0.4238660038031264,0.27540583131770846,0.27540583131770846,0.3594836280266168,0.3594836280266168,0.29936542136477956,0.29936542136477956,0.4557437721719889,0.4557437721719889,0.3880159505666304,0.3880159505666304,0.43243950070906795,0.43243950070906795,0.4311796857285736,0.4311796857285736,0.37192190550727006,0.37192190550727006,0.537342174592551,0.537342174592551,0.27540583131770846,0.27540583131770846,left_arm__right_forearm_hand,left_arm__right_forearm_hand
11.785744187999992,0.0,0.0,0.0,0.0,1.5708,0.0,0.0,1.5708,1.797134176180714e-60,8.033481872048844e-60,-3.2639201765112144e-60,-9.296024156601239e-60,1.5708,-6.672408865181976e-61,5.13688442709534e-60,1.5708,1.384444127772808e-59,0.4238865248080986,0.4238865248080986,0.2753136165904822,0.2753136165904822,0.35954440630263695,0.35954440630263695,0.299306337844325,0.299306337844325,0.4558205133872709,0.4558205133872709,0.3879525129447057,0.3879525129447057,0.43243044954553195,0.43243044954553195,0.43117489556733474,0.43117489556733474,0.3718894914731045,0.3718894914731045,0.5373371410465002,0.5373371410465002,0.2753136165904822,0.2753136165904822,left_arm__right_forearm_hand,left_arm__right_forearm_hand
11.805744187999991,0.0,0.0,0.0,0.0,1.5708,0.0,0.0,1.5708,1.492269433176594e-60,6.670686918388049e-60,-2.7102307531022444e-60,-7.719052301619751e-60,1.5708,-5.540505504340452e-61,4.2654664932177026e-60,1.5708,1.149587872290536e-59,0.42390707348684326,0.42390707348684326,0.27522280729342774,0.27522280729342774,0.3596052091707207,0.3596052091707207,0.2992482101078487,0.2992482101078487,0.4558972560777509,0.4558972560777509,0.3878901090272342,0.3878901090272342,0.43242139963011134,0.43242139963011134,0.4311701057712702,0.4311701057712702,0.37185718813956953,0.37185718813956953,0.5373321077970378,0.5373321077970378,0.27522280729342774,0.27522280729342774,left_arm__right_forearm_hand,left_arm__right_forearm_hand
11.825744187999991,0.0,0.0,0.0,0.0,1.5708,0.0,0.0,1.5708,1.1874046901724741e-60,5.307891964727254e-60,-2.156541329693275e-60,-6.142080446638264e-60,1.5708,-4.408602143498927e-61,3.3940485593400667e-60,1.5708,9.147316168082641e-60,0.4239276498362525,0.4239276498362525,0.27513340440794865,0.27513340440794865,0.3596660366216125,0.3596660366216125,0.29919103789826523,0.29919103789826523,0.4559740002428774,0.4559740002428774,0.38782873917403626,0.38782873917403626,0.43241235096285907,0.43241235096285907,0.4311653163403882,0.4311653163403882,0.37182499577683586,0.37182499577683586,0.5373270748441694,0.5373270748441694,0.27513340440794865,0.27513340440794865,left_arm__right_forearm_hand,left_arm__right_forearm_hand
11.84574418799999,0.0,0.0,0.0,0.0,1.5708,0.0,0.0,1.5708,8.825399471683541e-61,3.945097011066459e-60,-1.6028519062843053e-60,-4.5651085916567765e-60,1.5708,-3.276698782657403e-61,2.52263062546243e-60,1.5708,6.798753613259921e-60,0.42418532500339906,0.42418532500339906,0.27486721835871125,0.27486721835871125,0.3599951095627919,0.3599951095627919,0.2991607441742492,0.2991607441742492,0.4563359357187422,0.4563359357187422,0.3874555504921604,0.3874555504921604,0.43240181289088847,0.43240181289088847,0.4311425598964313,0.4311425598964313,0.37170867944344194,0.37170867944344194,0.5373032604383486,0.5373032604383486,0.27486721835871125,0.27486721835871125,left_arm__right_forearm_hand,left_arm__right_forearm_hand
11.86574418799999,0.0,0.0,0.0,0.0,1.5708,0.0,0.0,1.5708,6.508484178371836e-61,2.909398216029985e-60,-1.18205825195746e-60,-3.3666393387266797e-60,1.5708,-2.416473299893328e-61,1.860369218002827e-60,1.5708,5.013889792357405e-60,0.42430271299104266,0.42430271299104266,0.2748816262610958,0.2748816262610958,0.3601054407163064,0.3601054407163064,0.2993009918798166,0.2993009918798166,0.45644770558835457,0.45644770558835457,0.3873487694857123,0.3873487694857123,0.43240660581888274,0.43240660581888274,0.4311336522656159,0.4311336522656159,0.3716669617623704,0.3716669617623704,0.5372938088132947,0.5372938088132947,0.2748816262610958,0.2748816262610958,left_arm__right_forearm_hand,left_arm__right_forearm_hand
11.88574418799999,0.0,0.0,0.0,0.0,1.5708,0.0,0.0,1.5708,4.616577183385258e-61,2.063685038390279e-60,-8.384537790770527e-61,-2.3880138492924634e-60,1.5708,-1.7140451132414013e-61,1.3195911442858632e-60,1.5708,3.5564362731839523e-60,0.42435280210247056,0.42435280210247056,0.27485474795795356,0.27485474795795356,0.36015864201803754,0.36015864201803754,0.29929525635394016,0.29929525635394016,0.45649999407972475,0.45649999407972475,0.38731266811358056,0.38731266811358056,0.4324047887868448,0.4324047887868448,0.43113180299236403,0.43113180299236403,0.371660266775884,0.371660266775884,0.5372917888210204,0.5372917888210204,0.27485474795795356,0.27485474795795356,left_arm__right_forearm_hand,left_arm__right_forearm_hand
11.90574418799999,0.0,0.0,0.0,0.0,1.5708,0.0,0.0,1.5708,2.9958647564322096e-61,1.3392002406328985e-60,-5.441031367729479e-61,-1.549668996050723e-60,1.5708,-1.1123061830690166e-61,8.563306633957688e-61,1.5708,2.3079007814867886e-60,0.42440289180640195,0.42440289180640195,0.2748280325855466,0.2748280325855466,0.3602118433281439,0.3602118433281439,0.29928962975817835,0.29928962975817835,0.456552282572508,0.456552282572508,0.3872766895159552,0.3872766895159552,0.43240297193263894,0.43240297193263894,0.43112995389538994,0.43112995389538994,0.37165347831797774,0.37165347831797774,0.5372897689725804,0.5372897689725804,0.2748280325855466,0.2748280325855466,left_arm__right_forearm_hand,left_arm__right_forearm_hand
11.925744187999989,0.0,0.0,0.0,0.0,1.5708,0.0,0.0,1.5708,2.5393839545783348e-61,1.1351459026076298e-60,-4.6119798037960256e-61,-1.313545471313324e-60,1.5708,-9.428237599174972e-62,7.258513061284922e-61,1.5708,1.9562452546241852e-60,0.42445298210267485,0.42445298210267485,0.2748014801773748,0.2748014801773748,0.36026504464662273,0.36026504464662273,0.2992841122277952,0.2992841122277952,0.45660457106670405,0.45660457106670405,0.3872408337175025,0.3872408337175025,0.4324011552562668,0.4324011552562668,0.4311281049746945,0.4311281049746945,0.3716465963897984,0.3716465963897984,0.5372877492679757,0.5372877492679757,0.2748014801773748,0.2748014801773748,left_arm__right_forearm_hand,left_arm__right_forearm_hand
11.945744187999988,0.0,0.0,0.0,0.0,1.5708,0.0,0.0,1.5708,2.08290315272446e-61,9.310915645823609e-61,-3.782928239862572e-61,-1.0774219465759247e-60,1.5708,-7.7334133676597765e-62,5.953719488612155e-61,1.5708,1.604589727761582e-60,0.42480450098934713,0.42480450098934713,0.2747430831836742,0.2747430831836742,0.3605616426844069,0.3605616426844069,0.2992512182969757,0.2992512182969757,0.45685319579344863,0.45685319579344863,0.3872226635567383,0.3872226635567383,0.4324094683416026,0.4324094683416026,0.43112506700905767,0.43112506700905767,0.3714600804210723,0.3714600804210723,0.5372836468688496,0.5372836468688496,0.2747430831836742,0.2747430831836742,left_arm__right_forearm_hand,left_arm__right_forearm_hand
11.965744187999988,0.0,0.0,0.0,0.0,1.5708,0.0,0.0,1.5708,1.6264223508705853e-61,7.270372265570922e-61,-2.953876675929119e-61,-8.412984218385256e-61,1.5708,-6.038589136144582e-62,4.6489259159393885e-61,1.5708,1.2529342008989787e-60,0.4247668902121397,0.4247668902121397,0.27464127725632387,0.27464127725632387,0.36057810633503135,0.36057810633503135,0.299129906400751,0.299129906400751,0.45689764662400045,0.45689764662400045,0.38718562067869466,0.38718562067869466,0.4324107403427598,0.4324107403427598,0.4311253933740427,0.4311253933740427,0.3705401548668595,0.3705401548668595,0.5372834240482562,0.5372834240482562,0.27464127725632387,0.27464127725632387,left_arm__right_forearm_hand,left_arm__right_forearm_hand
11.985744187999988,0.0,0.0,0.0,0.0,1.5708,0.0,0.0,1.5708,1.201526003991631e-61,5.371016532764127e-61,-2.1821881855063142e-61,-6.215125673937213e-61,1.5708,-4.461031828919078e-62,3.434412577791886e-61,1.5708,9.256101423254389e-61,0.42475392164637454,0.42475392164637454,0.2745467891030702,0.2745467891030702,0.3606095350465109,0.3606095350465109,0.2990105880645199,0.2990105880645199,0.45695038608114336,0.45695038608114336,0.38715482488987585,0.38715482488987585,0.43241242675352537,0.43241242675352537,0.4311258183140881,0.4311258183140881,0.3697267062748522,0.3697267062748522,0.5372832551345227,0.5372832551345227,0.2745467891030702,0.2745467891030702,left_arm__right_forearm_hand,left_arm__right_forearm_hand
12.005744187999987,0.0,0.0,0.0,0.0,1.5708,0.0,0.0,1.5708,9.742560673850335e-62,4.3550829758880716e-61,-1.7694249419842532e-61,-5.039527964669835e-61,1.5708,-3.6172228580018617e-62,2.7847897429613383e-61,1.5708,7.50529987863637e-61,0.42483769512192965,0.42483769512192965,0.27445933759094027,0.27445933759094027,0.36069963116421383,0.36069963116421383,0.29888380847188095,0.29888380847188095,0.45703570987153463,0.45703570987153463,0.3871324891817137,0.3871324891817137,0.4324157381027515,0.4324157381027515,0.4311266265388842,0.4311266265388842,0.369327885967024,0.369327885967024,0.537283294655155,0.537283294655155,0.27445933759094027,0.27445933759094027,left_arm__right_forearm_hand,left_arm__right_forearm_hand
12.025744187999987,0.0,0.0,0.0,0.0,1.5708,0.0,0.0,1.5708,7.4698613077843585e-62,3.339149419012017e-61,-1.3566616984621924e-61,-3.863930255402458e-61,1.5708,-2.773413887084646e-62,2.1351669081307905e-61,1.5708,5.754498334018352e-61,0.42490956307621136,0.42490956307621136,0.2744173817424872,0.2744173817424872,0.3607813363556414,0.3607813363556414,0.2987836019180965,0.2987836019180965,0.45711312039108987,0.45711312039108987,0.38713509735132157,0.38713509735132157,0.4324131566600808,0.4324131566600808,0.431127457991939,0.431127457991939,0.36928661241581134,0.36928661241581134,0.5372834212901655,0.5372834212901655,0.2744173817424872,0.2744173817424872,left_arm__right_forearm_hand,left_arm__right_forearm_hand
12.045744187999986,0.0,0.0,0.0,0.0,1.5708,0.0,0.0,1.5708,5.197161941718382e-62,2.3232158621359617e-61,-9.438984549401314e-62,-2.68833254613508e-61,1.5708,-1.9296049161674292e-62,1.4855440733002426e-61,1.5708,4.003696789400334e-61,0.42497631662895735,0.42497631662895735,0.27439571007646424,0.27439571007646424,0.3608594474998321,0.3608594474998321,0.29869530991366494,0.29869530991366494,0.4571871367869048,0.4571871367869048,0.3871491781503418,0.3871491781503418,0.43240803149777346,0.43240803149777346,0.43112830082946113,0.43112830082946113,0.3693996704738051,0.3693996704738051,0.5372835866732408,0.5372835866732408,0.27439571007646424,0.27439571007646424,left_arm__right_forearm_hand,left_arm__right_forearm_hand
12.065744187999986,0.0,0.0,0.0,0.0,1.5708,0.0,0.0,1.5708,3.978398521737774e-62,1.7784088037371167e-61,-7.2254901038599785e-62,-2.057903591887514e-61,1.5708,-1.477101816742739e-62,1.137175714643961e-61,1.5708,3.064807594425285e-61,0.42505735455251065,0.42505735455251065,0.2743775740002162,0.2743775740002162,0.3609444459786546,0.3609444459786546,0.29861643444264185,0.29861643444264185,0.45726313376161354,0.45726313376161354,0.38715870463437774,0.38715870463437774,0.43240995836876855,0.43240995836876855,0.4311298823907766,0.4311298823907766,0.36965575425847524,0.36965575425847524,0.5372843971971738,0.5372843971971738,0.2743775740002162,0.2743775740002162,left_arm__right_forearm_hand,left_arm__right_forearm_hand
12.085744187999985,0.0,0.0,0.0,0.0,1.5708,0.0,0.0,1.5708,2.899215664102948e-62,1.295996525436342e-61,-5.265499163915193e-62,-1.4996753835027832e-61,1.5708,-1.0764222591518792e-62,8.287047229479498e-62,1.5708,2.2334459800015804e-61,0.4250998461742052,0.4250998461742052,0.2743732844714518,0.2743732844714518,0.3610003403498434,0.3610003403498434,0.2985757026165892,0.2985757026165892,0.4573179147203773,0.4573179147203773,0.38715991887282064,0.38715991887282064,0.43241101060751,0.43241101060751,0.4311316056688152,0.4311316056688152,0.36994833576617475,0.36994833576617475,0.5372853192826061,0.5372853192826061,0.2743732844714518,0.2743732844714518,left_arm__right_forearm_hand,left_arm__right_forearm_hand
12.105744187999985,0.0,0.0,0.0,0.0,1.5708,0.0,0.0,1.5708,1.9305535885584266e-62,8.62988833124468e-62,-3.5062339212330193e-62,-9.986161875232014e-62,1.5708,-7.167769134735325e-63,5.518247216139739e-62,1.5708,1.4872253916569405e-61,0.4249944927447406,0.4249944927447406,0.27441894162725794,0.27441894162725794,0.36094667141174247,0.36094667141174247,0.2986696625241198,0.2986696625241198,0.4572944266479234,0.4572944266479234,0.3871338210293559,0.3871338210293559,0.432405082462433,0.432405082462433,0.4311334385472118,0.4311334385472118,0.370297354254379,0.370297354254379,0.5372862931430967,0.5372862931430967,0.27441894162725794,0.27441894162725794,left_arm__right_forearm_hand,left_arm__right_forearm_hand
12.125744187999985,0.0,0.0,0.0,0.0,1.5708,0.0,0.0,1.5708,1.633401017934136e-62,7.301568041651062e-62,-2.9665511954701612e-62,-8.44908272369637e-62,1.5708,-6.064499566539347e-63,4.668873567392338e-62,1.5708,1.2583103017844156e-61,0.42493663322249225,0.42493663322249225,0.2744406212846071,0.2744406212846071,0.3609180747740059,0.3609180747740059,0.2987182910671077,0.2987182910671077,0.4572810548843754,0.4572810548843754,0.387123177419494,0.387123177419494,0.4324002540678294,0.4324002540678294,0.43113448612119426,0.43113448612119426,0.3705399583612356,0.3705399583612356,0.5372867164508626,0.5372867164508626,0.2744406212846071,0.2744406212846071,left_arm__right_forearm_hand,left_arm__right_forearm_hand
12.145744187999984,0.0,0.0,0.0,0.0,1.5708,0.0,0.0,1.5708,1.3362484473098452e-62,5.973247752057445e-62,-2.4268684697073036e-62,-6.912003572160724e-62,1.5708,-4.96122999834337e-63,3.8194999186449366e-62,1.5708,1.0293952119118908e-61,0.42490027225429944,0.42490027225429944,0.27444825374304777,0.27444825374304777,0.3609008221764715,0.3609008221764715,0.29874419631388144,0.29874419631388144,0.4572722640992618,0.4572722640992618,0.38711719811401324,0.38711719811401324,0.43239592376910146,0.43239592376910146,0.43113517820863784,0.43113517820863784,0.3707344833292035,0.3707344833292035,0.5372868905424873,0.5372868905424873,0.27444825374304777,0.27444825374304777,left_arm__right_forearm_hand,left_arm__right_forearm_hand
12.165744187999984,0.0,0.0,0.0,0.0,1.5708,0.0,0.0,1.5708,1.0390958766855544e-62,4.644927462463827e-62,-1.8871857439444454e-62,-5.374924420625079e-62,1.5708,-3.857960430147393e-63,2.9701262698975358e-62,1.5708,8.004801220393661e-62,0.4248903230806425,0.4248903230806425,0.27445351578372146,0.27445351578372146,0.360893702157691,0.360893702157691,0.29876225800048617,0.29876225800048617,0.4572646116780207,0.4572646116780207,0.38711203463612365,0.38711203463612365,0.43239263611517326,0.43239263611517326,0.43113560032577686,0.43113560032577686,0.37092796424683555,0.37092796424683555,0.5372867566654151,0.5372867566654151,0.27445351578372146,0.27445351578372146,left_arm__right_forearm_hand,left_arm__right_forearm_hand
12.185744187999983,0.0,0.0,0.0,0.0,1.5708,0.0,0.0,1.5708,7.562822069488271e-63,3.38070439046926e-62,-1.3735450514010406e-62,-3.912016007588871e-62,1.5708,-2.8079284057404236e-63,2.1617385851628635e-62,1.5708,5.826111785234211e-62,0.4250154627069816,0.4250154627069816,0.2744445855106218,0.2744445855106218,0.3609384277527665,0.3609384277527665,0.29873863622411423,0.29873863622411423,0.4572627798623794,0.4572627798623794,0.3871094436225503,0.3871094436225503,0.43239466999666415,0.43239466999666415,0.43113463622450027,0.43113463622450027,0.3711155553657473,0.3711155553657473,0.5372850432440505,0.5372850432440505,0.2744445855106218,0.2744445855106218,left_arm__right_forearm_hand,left_arm__right_forearm_hand
12.205744187999983,0.0,0.0,0.0,0.0,1.5708,0.0,0.0,1.5708,5.496390585272272e-63,2.456975929439152e-62,-9.982437798485494e-63,-2.843114350170187e-62,1.5708,-2.0407026783950943e-63,1.5710748577895513e-62,1.5708,4.234211207255325e-62,0.4250826670363615,0.4250826670363615,0.27445318232422755,0.27445318232422755,0.3609529313110087,0.3609529313110087,0.298728489797183,0.298728489797183,0.45724546672946065,0.45724546672946065,0.3871315906722751,0.3871315906722751,0.4323984382651827,0.4323984382651827,0.431135012694806,0.431135012694806,0.3713127919723804,0.3713127919723804,0.5372845605579698,0.5372845605579698,0.27445318232422755,0.27445318232422755,left_arm__right_forearm_hand,left_arm__right_forearm_hand
12.225744187999982,0.0,0.0,0.0,0.0,1.5708,0.0,0.0,1.5708,3.4299591010562736e-63,1.5332474684090443e-62,-6.229425082960578e-63,-1.774212692751503e-62,1.5708,-1.273476951049765e-63,9.80411130416239e-63,1.5708,2.642310629276439e-62,0.42508912534626603,0.42508912534626603,0.27448075355666174,0.27448075355666174,0.36093569357432487,0.36093569357432487,0.29873282780290655,0.29873282780290655,0.45721193697307894,0.45721193697307894,0.38718009680484156,0.38718009680484156,0.43240402541774053,0.43240402541774053,0.43113679514984643,0.43113679514984643,0.371518900687063,0.371518900687063,0.5372853685165954,0.5372853685165954,0.27448075355666174,0.27448075355666174,left_arm__right_forearm_hand,left_arm__right_forearm_hand
12.245744187999982,0.0,0.0,0.0,0.0,1.5708,0.0,0.0,1.5708,2.762880684258227e-63,1.235052573469643e-62,-5.017890222202714e-63,-1.4291534779698472e-62,1.5708,-1.0258037388317331e-63,7.897350653611654e-63,1.5708,2.128418673327586e-62,0.42502265998692074,0.42502265998692074,0.27454120516907143,0.27454120516907143,0.36088626380464905,0.36088626380464905,0.2988235097431303,0.2988235097431303,0.45717447910847797,0.45717447910847797,0.3871947774154826,0.3871947774154826,0.4323948475907626,0.4323948475907626,0.4311374753539647,0.4311374753539647,0.3716334889128223,0.3716334889128223,0.5372850533756455,0.5372850533756455,0.27454120516907143,0.27454120516907143,left_arm__right_forearm_hand,left_arm__right_forearm_hand
12.265744187999982,0.0,0.0,0.0,0.0,1.5708,0.0,0.0,1.5708,2.3096072514061926e-63,1.032431981520475e-62,-4.1946638195384496e-63,-1.194689026890688e-62,1.5708,-8.57512149266567e-64,6.601724946141094e-63,1.5708,1.7792339821093394e-62,0.42494049208012347,0.42494049208012347,0.27461572534672285,0.27461572534672285,0.3608297041437125,0.3608297041437125,0.29893754151707963,0.29893754151707963,0.45713587666847344,0.45713587666847344,0.38720735655869687,0.38720735655869687,0.4323826988751452,0.4323826988751452,0.4311379287122988,0.4311379287122988,0.37172889838456397,0.37172889838456397,0.5372845056940384,0.5372845056940384,0.27461572534672285,0.27461572534672285,left_arm__right_forearm_hand,left_arm__right_forearm_hand
12.285744187999981,0.0,0.0,0.0,0.0,1.5708,0.0,0.0,1.5708,1.8563338185541583e-63,8.298113895713069e-63,-3.3714374168741845e-63,-9.602245758115288e-63,1.5708,-6.892205597014006e-64,5.306099238670534e-63,1.5708,1.4300492908910925e-62,0.42480632842343885,0.42480632842343885,0.2747098300099644,0.2747098300099644,0.36072299418245835,0.36072299418245835,0.29909002469527074,0.29909002469527074,0.4570553050614904,0.4570553050614904,0.3871908734436301,0.3871908734436301,0.43238581087375666,0.43238581087375666,0.4311383669043482,0.4311383669043482,0.37184386510547446,0.37184386510547446,0.5372838804821369,0.5372838804821369,0.2747098300099644,0.2747098300099644,left_arm__right_forearm_hand,left_arm__right_forearm_hand
12.30574418799998,0.0,0.0,0.0,0.0,1.5708,0.0,0.0,1.5708,1.403060385702124e-63,6.271907976221389e-63,-2.54821101420992e-63,-7.257601247323697e-63,1.5708,-5.209289701362343e-64,4.010473531199973e-63,1.5708,1.0808645996728455e-62,0.4247162553352443,0.4247162553352443,0.2748104235525232,0.2748104235525232,0.36064478088099217,0.36064478088099217,0.29922935383596894,0.29922935383596894,0.4569930892752767,0.4569930892752767,0.38719622637953965,0.38719622637953965,0.4323883683994942,0.4323883683994942,0.4311386609892926,0.4311386609892926,0.37193317199317416,0.37193317199317416,0.537283302786645,0.537283302786645,0.2748104235525232,0.2748104235525232,left_arm__right_forearm_hand,left_arm__right_forearm_hand
12.32574418799998,0.0,0.0,0.0,0.0,1.5708,0.0,0.0,1.5708,1.1174940856262413e-63,4.995380199200816e-63,-2.0295710479219479e-63,-5.78045432140062e-63,1.5708,-4.1490376971002344e-64,3.1942177951477266e-63,1.5708,8.608751339613504e-63,0.42470606288592155,0.42470606288592155,0.2748921882836656,0.2748921882836656,0.3606181417737635,0.3606181417737635,0.2993236404050278,0.2993236404050278,0.4569640926382429,0.4569640926382429,0.387218511133806,0.387218511133806,0.4323899107460872,0.4323899107460872,0.431138684991851,0.431138684991851,0.37197607605415645,0.37197607605415645,0.5372828040507315,0.5372828040507315,0.2748921882836656,0.2748921882836656,left_arm__right_forearm_hand,left_arm__right_forearm_hand
12.34574418799998,0.0,0.0,0.0,0.0,1.5708,0.0,0.0,1.5708,9.073633917090555e-64,4.0560618429430315e-63,-1.647935763995525e-63,-4.693512660289439e-63,1.5708,-3.3688633931873354e-64,2.5935853529269037e-63,1.5708,6.989984031561266e-63,0.42469589588296014,0.42469589588296014,0.27497945912062777,0.27497945912062777,0.3605915302246852,0.3605915302246852,0.29942168183695234,0.29942168183695234,0.4569351144035878,0.4569351144035878,0.3872448534384477,0.3872448534384477,0.43239145491276026,0.43239145491276026,0.43113871058537073,0.43113871058537073,0.372018922375781,0.372018922375781,0.5372823066202992,0.5372823066202992,0.27497945912062777,0.27497945912062777,left_arm__right_forearm_hand,left_arm__right_forearm_hand
12.36574418799998,0.0,0.0,0.0,0.0,1.5708,0.0,0.0,1.5708,6.972326977918698e-64,3.1167434866852474e-63,-1.2663004800691027e-63,-3.606570999178258e-63,1.5708,-2.5886890892744362e-64,1.9929529107060805e-63,1.5708,5.371216723509028e-63,0.42468575432777206,0.42468575432777206,0.27507223236776784,0.27507223236776784,0.3605649462382885,0.3605649462382885,0.2995234744634876,0.2995234744634876,0.45690615457390504,0.45690615457390504,0.38727525269664653,0.38727525269664653,0.4323930008994999,0.4323930008994999,0.4311387377698516,0.4311387377698516,0.3720617111583711,0.3720617111583711,0.5372818104953506,0.5372818104953506,0.27507223236776784,0.27507223236776784,left_arm__right_forearm_hand,left_arm__right_forearm_hand
12.385744187999979,0.0,0.0,0.0,0.0,1.5708,0.0,0.0,1.5708,4.9627864141815336e-64,2.2184461918089198e-63,-9.013316269677359e-64,-2.5670972708520165e-63,1.5708,-1.842585851678763e-64,1.4185507450638974e-63,1.5708,3.823142756711673e-63,0.42463857700739877,0.42463857700739877,0.2751204086198051,0.2751204086198051,0.3605354116425369,0.3605354116425369,0.29955623095967593,0.29955623095967593,0.45689162710790665,0.45689162710790665,0.38730553021498204,0.38730553021498204,0.4323986538617948,0.4323986538617948,0.4311387998115513,0.4311387998115513,0.3721909290027427,0.3721909290027427,0.5372796093651425,0.5372796093651425,0.2751204086198051,0.2751204086198051,left_arm__right_forearm_hand,left_arm__right_forearm_hand
12.405744187999979,0.0,0.0,0.0,0.0,1.5708,0.0,0.0,1.5708,3.940517081001922e-64,1.7614751840067697e-63,-7.156690567146574e-64,-2.0383086839037528e-63,1.5708,-1.4630371762533498e-64,1.1263477761644045e-63,1.5708,3.035625166717089e-63,0.4245811111044843,0.4245811111044843,0.2749795084250788,0.2749795084250788,0.3605412435560809,0.3605412435560809,0.29940638131545827,0.29940638131545827,0.4569260540646385,0.4569260540646385,0.38723706798228497,0.38723706798228497,0.432390627308277,0.432390627308277,0.4311360570596618,0.4311360570596618,0.37215241460854703,0.37215241460854703,0.5372757799791625,0.5372757799791625,0.2749795084250788,0.2749795084250788,left_arm__right_forearm_hand,left_arm__right_forearm_hand
12.425744187999978,0.0,0.0,0.0,0.0,1.5708,0.0,0.0,1.5708,2.9182477478223097e-64,1.3045041762046194e-63,-5.300064864615789e-64,-1.509520096955489e-63,1.5708,-1.0834885008279367e-64,8.341448072649116e-64,1.5708,2.2481075767225042e-63,0.4244989162145765,0.4244989162145765,0.27484954100170544,0.27484954100170544,0.36051660208438935,0.36051660208438935,0.29927370624116606,0.29927370624116606,0.4569313023266315,0.4569313023266315,0.38713222330799657,0.38713222330799657,0.4323823778265698,0.4323823778265698,0.43113460116319297,0.43113460116319297,0.37210461114790166,0.37210461114790166,0.5372731513871387,0.5372731513871387,0.27484954100170544,0.27484954100170544,left_arm__right_forearm_hand,left_arm__right_forearm_hand
12.445744187999978,0.0,0.0,0.0,0.0,1.5708,0.0,0.0,1.5708,1.982611924233554e-64,8.862597553226066e-64,-3.600781259110008e-64,-1.0255443686463776e-63,1.5708,-7.361051586913461e-65,5.667049491103082e-64,1.5708,1.527329162472887e-63,0.4243953750473037,0.4243953750473037,0.27472848516023124,0.27472848516023124,0.3604636600102752,0.3604636600102752,0.29915709940407076,0.29915709940407076,0.4569088291746637,0.4569088291746637,0.3869904815858344,0.3869904815858344,0.4323739579135482,0.4323739579135482,0.43113440093300753,0.43113440093300753,0.37204919017453114,0.37204919017453114,0.5372717073283935,0.5372717073283935,0.27472848516023124,0.27472848516023124,left_arm__right_forearm_hand,left_arm__right_forearm_hand
12.465744187999977,0.0,0.0,0.0,0.0,1.5708,0.0,0.0,1.5708,1.675068285388535e-64,7.487827499731208e-64,-3.042226477119708e-64,-8.664614724550551e-64,1.5708,-6.219202008035116e-65,4.78797426679643e-64,1.5708,1.290409187060849e-63,0.4243825707865107,0.4243825707865107,0.274718668949491,0.274718668949491,0.36045815020416766,0.36045815020416766,0.2991377744597551,0.2991377744597551,0.45691133030994424,0.45691133030994424,0.3869299854897782,0.3869299854897782,0.43236696120671797,0.43236696120671797,0.43113410424407544,0.43113410424407544,0.37205181318108665,0.37205181318108665,0.5372705915073196,0.5372705915073196,0.274718668949491,0.274718668949491,left_arm__right_forearm_hand,left_arm__right_forearm_hand
12.485744187999977,0.0,0.0,0.0,0.0,1.5708,0.0,0.0,1.5708,1.3675246465435158e-64,6.11305744623635e-64,-2.4836716951294086e-64,-7.073785762637325e-64,1.5708,-5.077352429156771e-65,3.908899042489777e-64,1.5708,1.0534892116488108e-63,0.42436978409113285,0.42436978409113285,0.27471200174109023,0.27471200174109023,0.3604526605514145,0.3604526605514145,0.29912039818056657,0.29912039818056657,0.4569138468963656,0.4569138468963656,0.3868717800298829,0.3868717800298829,0.43235997034453627,0.43235997034453627,0.431133811430278,0.431133811430278,0.37205443340458594,0.37205443340458594,0.5372694788649187,0.5372694788649187,0.27471200174109023,0.27471200174109023,left_arm__right_forearm_hand,left_arm__right_forearm_hand
12.505744187999976,0.0,0.0,0.0,0.0,1.5708,0.0,0.0,1.5708,1.0599810076984966e-64,4.738287392741491e-64,-1.925116913139109e-64,-5.4829568007241e-64,1.5708,-3.935502850278427e-65,3.0298238181831246e-64,1.5708,8.165692362367728e-64,0.4243904503080174,0.4243904503080174,0.27485311422318004,0.27485311422318004,0.3604234451825485,0.3604234451825485,0.2992169474930941,0.2992169474930941,0.45687060804496527,0.45687060804496527,0.3869054975437213,0.3869054975437213,0.43236174137178135,0.43236174137178135,0.4311334511437049,0.4311334511437049,0.37210804059452235,0.37210804059452235,0.5372679757153476,0.5372679757153476,0.27485311422318004,0.27485311422318004,left_arm__right_forearm_hand,left_arm__right_forearm_hand
12.525744187999976,0.0,0.0,0.0,0.0,1.5708,0.0,0.0,1.5708,7.721371276685897e-65,3.4515784631306984e-64,-1.4023404503868848e-64,-3.994028651923054e-64,1.5708,-2.8667946356354726e-65,2.2070579032291804e-64,1.5708,5.948252091604812e-64,0.4243920457164883,0.4243920457164883,0.27493698459104493,0.27493698459104493,0.3603979146377019,0.3603979146377019,0.2992776632462732,0.2992776632462732,0.45683919356978264,0.45683919356978264,0.3869170968565342,0.3869170968565342,0.43236430231006223,0.43236430231006223,0.4311332480467685,0.4311332480467685,0.37190178611802277,0.37190178611802277,0.5372670631930472,0.5372670631930472,0.27493698459104493,0.27493698459104493,left_arm__right_forearm_hand,left_arm__right_forearm_hand
12.545744187999976,0.0,0.0,0.0,0.0,1.5708,0.0,0.0,1.5708,5.737196727382318e-65,2.5646201890030272e-64,-1.0419785235464942e-64,-2.9676759852324235e-64,1.5708,-2.130109304717234e-65,1.639906297186185e-64,1.5708,4.419719141940751e-64,0.4243751028375246,0.4243751028375246,0.2749551314843721,0.2749551314843721,0.3603769585385375,0.3603769585385375,0.2992955960581793,0.2992955960581793,0.45682076552120265,0.45682076552120265,0.38689859395305704,0.38689859395305704,0.43236698441509264,0.43236698441509264,0.43113317995002526,0.43113317995002526,0.37146908585588095,0.37146908585588095,0.5372666785344087,0.5372666785344087,0.2749551314843721,0.2749551314843721,left_arm__right_forearm_hand,left_arm__right_forearm_hand
12.565744187999975,0.0,0.0,0.0,0.0,1.5708,0.0,0.0,1.5708,3.753022178078739e-65,1.6776619148753566e-64,-6.816165967061037e-65,-1.941323318541793e-64,1.5708,-1.3934239737989952e-65,1.0727546911431892e-64,1.5708,2.89118619227669e-64,0.4243581729864982,0.4243581729864982,0.2749747917983797,0.2749747917983797,0.3603560168718859,0.3603560168718859,0.2993145470767771,0.2993145470767771,0.4568023488582863,0.4568023488582863,0.38688119303623936,0.38688119303623936,0.43236966761664236,0.43236966761664236,0.4311331124217728,0.4311331124217728,0.37103637286906005,0.37103637286906005,0.5372662943422216,0.5372662943422216,0.2749747917983797,0.2749747917983797,left_arm__right_forearm_hand,left_arm__right_forearm_hand
12.585744187999975,0.0,0.0,0.0,0.0,1.5708,0.0,0.0,1.5708,2.8875532997979864e-65,1.2907832590330377e-64,-5.244318204437987e-65,-1.4936427999740223e-64,1.5708,-1.0720922506300458e-65,8.253711812249506e-65,1.5708,2.224461736091499e-64,0.4243412561646133,0.4243412561646133,0.27499596530418574,0.27499596530418574,0.36033508963961497,0.36033508963961497,0.2993345171073936,0.2993345171073936,0.4567839435820533,0.4567839435820533,0.3868648942132348,0.3868648942132348,0.4323723519146982,0.4323723519146982,0.4311330454620111,0.4311330454620111,0.3706036500302205,0.3706036500302205,0.5372659106164869,0.5372659106164869,0.27499596530418574,0.27499596530418574,left_arm__right_forearm_hand,left_arm__right_forearm_hand
12.605744187999974,0.0,0.0,0.0,0.0,1.5708,0.0,0.0,1.5708,2.4206331717805593e-65,1.0820623725328224e-64,-4.396306939138878e-65,-1.2521193318444575e-64,1.5708,-8.987339091768532e-66,6.91907872469261e-65,1.5708,1.864764147597332e-64,0.42366046182680356,0.42366046182680356,0.27590433029766614,0.27590433029766614,0.35931336298769495,0.35931336298769495,0.3000541035496071,0.3000541035496071,0.455653337044171,0.455653337044171,0.3876052051220322,0.3876052051220322,0.4323736467873391,0.4323736467873391,0.43113510427455376,0.43113510427455376,0.36968288235782304,0.36968288235782304,0.5372665312589342,0.5372665312589342,0.27590433029766614,0.27590433029766614,left_arm__right_forearm_hand,left_arm__right_forearm_hand
12.625744187999974,0.0,0.0,0.0,0.0,1.5708,0.0,0.0,1.5708,1.9537130437631326e-65,8.73341486032607e-65,-3.5482956738397687e-65,-1.0105958637148928e-64,1.5708,-7.253755677236606e-66,5.584445637135715e-65,1.5708,1.5050665591031647e-64,0.4234097120586447,0.4234097120586447,0.2762617468159747,0.2762617468159747,0.35896078883259835,0.35896078883259835,0.30029791898681024,0.30029791898681024,0.4552772568096459,0.4552772568096459,0.3878515572422805,0.3878515572422805,0.43238219382658066,0.43238219382658066,0.43113386550986726,0.43113386550986726,0.3691999309650356,0.3691999309650356,0.5372643252849502,0.5372643252849502,0.2762617468159747,0.2762617468159747,left_arm__right_forearm_hand,left_arm__right_forearm_hand
12.645744187999973,0.0,0.0,0.0,0.0,1.5708,0.0,0.0,1.5708,1.4867929157457056e-65,6.646205995323918e-65,-2.70028440854066e-65,-7.69072395585328e-65,1.5708,-5.52017226270468e-66,4.24981254957882e-65,1.5708,1.1453689706089974e-64,0.42326378427183636,0.42326378427183636,0.2763306863757723,0.2763306863757723,0.35883923365871784,0.35883923365871784,0.3003474429340788,0.3003474429340788,0.45517796549852896,0.45517796549852896,0.3878753789287417,0.3878753789287417,0.4323803786581895,0.4323803786581895,0.4311341215153219,0.4311341215153219,0.3685635846024116,0.3685635846024116,0.5372641317167032,0.5372641317167032,0.2763306863757723,0.2763306863757723,left_arm__right_forearm_hand,left_arm__right_forearm_hand
12.665744187999973,0.0,0.0,0.0,0.0,1.5708,0.0,0.0,1.5708,1.1623186773243993e-65,5.195753409839114e-65,-2.1109806005233132e-65,-6.0123181926455675e-65,1.5708,-4.315462668028436e-66,3.322343313040065e-65,1.5708,8.954063022952656e-65,0.42325431916516504,0.42325431916516504,0.2763215450628397,0.2763215450628397,0.3588327642508987,0.3588327642508987,0.3003456047180485,0.3003456047180485,0.4551757970231848,0.4551757970231848,0.38784595295899926,0.38784595295899926,0.4323806691742628,0.4323806691742628,0.431133070556778,0.431133070556778,0.36853485331831365,0.36853485331831365,0.5372627590695741,0.5372627590695741,0.2763215450628397,0.2763215450628397,left_arm__right_forearm_hand,left_arm__right_forearm_hand
12.685744187999973,0.0,0.0,0.0,0.0,1.5708,0.0,0.0,1.5708,9.391559085761619e-66,4.198179560865181e-65,-1.705676715472588e-65,-4.857965603599361e-65,1.5708,-3.486902810723401e-66,2.6844603064820586e-65,1.5708,7.234901544494686e-65,0.42325189326592644,0.42325189326592644,0.2763086630420341,0.2763086630420341,0.358832232530727,0.358832232530727,0.3003413079792594,0.3003413079792594,0.4551786393932358,0.4551786393932358,0.38781399098875646,0.38781399098875646,0.4323810689227981,0.4323810689227981,0.43113195274710153,0.43113195274710153,0.3685375081535794,0.3685375081535794,0.5372613260696518,0.5372613260696518,0.2763086630420341,0.2763086630420341,left_arm__right_forearm_hand,left_arm__right_forearm_hand
12.705744187999972,0.0,0.0,0.0,0.0,1.5708,0.0,0.0,1.5708,7.159931398279245e-66,3.200605711891248e-65,-1.3003728304218627e-65,-3.7036130145531537e-65,1.5708,-2.658342953418366e-66,2.0465772999240526e-65,1.5708,5.515740066036716e-65,0.42324947333707447,0.42324947333707447,0.2762961228678532,0.2762961228678532,0.35883170758742317,0.35883170758742317,0.3003372382037426,0.3003372382037426,0.45518148707368533,0.45518148707368533,0.38778228013489746,0.38778228013489746,0.43238146942023653,0.43238146942023653,0.43113083549826187,0.43113083549826187,0.368540199734203,0.368540199734203,0.5372598935290407,0.5372598935290407,0.2762961228678532,0.2762961228678532,left_arm__right_forearm_hand,left_arm__right_forearm_hand
12.725744187999972,0.0,0.0,0.0,0.0,1.5708,0.0,0.0,1.5708,5.048996369312761e-66,2.2569834430011872e-65,-9.16988911532149e-66,-2.6116910377538596e-65,1.5708,-1.8745939274534403e-66,1.4431927880367452e-65,1.5708,3.889555642137197e-65,0.4231131400759222,0.4231131400759222,0.2762635887614924,0.2762635887614924,0.3587905334130469,0.3587905334130469,0.30033560368657725,0.30033560368657725,0.45519563310315214,0.45519563310315214,0.3877132573388007,0.3877132573388007,0.4323795843903924,0.4323795843903924,0.4311312311390079,0.4311312311390079,0.3690668603024739,0.3690668603024739,0.5372592669292791,0.5372592669292791,0.2762635887614924,0.2762635887614924,left_arm__right_forearm_hand,left_arm__right_forearm_hand
