vegewenqi/Human_Humanoid_Interaction/g1_real_ws/ecc_sim/data/realtime_self_collision.csv
t_sec,unsafe_waist_roll_joint,unsafe_waist_pitch_joint,unsafe_left_shoulder_pitch_joint,unsafe_left_shoulder_roll_joint,unsafe_left_elbow_joint,unsafe_right_shoulder_pitch_joint,unsafe_right_shoulder_roll_joint,unsafe_right_elbow_joint,safe_waist_roll_joint,safe_waist_pitch_joint,safe_left_shoulder_pitch_joint,safe_left_shoulder_roll_joint,safe_left_elbow_joint,safe_right_shoulder_pitch_joint,safe_right_shoulder_roll_joint,safe_right_elbow_joint,unsafe_pair__left_arm__right_arm,unsafe_pair__left_arm__torso,unsafe_pair__right_arm__torso,unsafe_pair__left_arm__left_thigh,unsafe_pair__right_arm__right_thigh,unsafe_global_min_h,unsafe_global_min_pair,safe_pair__left_arm__right_arm,safe_pair__left_arm__torso,safe_pair__right_arm__torso,safe_pair__left_arm__left_thigh,safe_pair__right_arm__right_thigh,safe_global_min_h,safe_global_min_pair
9.260556583000001,0.0,0.0,0.0,0.0,1.5708,0.0,0.0,1.5708,-2.3203088570113952e-05,0.029278734360580955,0.014271370123641238,0.01837356437072608,1.5644770969810853,0.01427256169232766,-0.018375900941554717,1.5644779104662256,0.1956149396262615,-0.0014546015146751634,-0.0014645788413552296,-0.08023503097215921,-0.08024572318710488,-0.08024572318710488,right_arm__right_thigh,0.20243985465492056,0.0016985061294116088,0.0016889225356531146,-0.06840038326696601,-0.06840254256418418,-0.06840254256418418,right_arm__right_thigh
9.277223387000001,0.0,0.0,0.0,0.0,1.5708,0.0,0.0,1.5708,-2.3203088570113952e-05,0.029278734360580955,0.014271370123641238,0.01837356437072608,1.5644770969810853,0.01427256169232766,-0.018375900941554717,1.5644779104662256,0.19561490013404256,-0.0014546210998367948,-0.0014645981898031013,-0.08023508143149088,-0.08024575904797283,-0.08024575904797283,right_arm__right_thigh,0.20243981518375867,0.0016984864872622296,0.0016889031308957303,-0.0684004503838665,-0.06840259288450973,-0.06840259288450973,right_arm__right_thigh
9.29326165,0.0,0.0,0.0,0.0,1.5708,0.0,0.0,1.5708,-2.3203088570113952e-05,0.029278734360580955,0.014271370123641238,0.01837356437072608,1.5644770969810853,0.01427256169232766,-0.018375900941554717,1.5644779104662256,0.19561489610154417,-0.0014546231885260164,-0.0014646000765738687,-0.08023510048294197,-0.08024576044978945,-0.08024576044978945,right_arm__right_thigh,0.20243981115341045,0.001698484392495564,0.001688901238633994,-0.06840048089004361,-0.06840260308746066,-0.06840260308746066,right_arm__right_thigh
9.314248611,0.0,0.0,0.0,0.0,1.5708,0.0,0.0,1.5708,-2.3203088570113952e-05,0.029278734360580955,0.014271370123641238,0.01837356437072608,1.5644770969810853,0.01427256169232766,-0.018375900941554717,1.5644779104662256,0.19561489610154417,-0.0014546231885260164,-0.0014646000765738687,-0.08023510048294197,-0.08024576044978945,-0.08024576044978945,right_arm__right_thigh,0.20243981115341045,0.001698484392495564,0.001688901238633994,-0.06840048089004361,-0.06840260308746066,-0.06840260308746066,right_arm__right_thigh
9.326335725,0.0,0.0,0.0,0.0,1.5708,0.0,0.0,1.5708,-2.3203088570113952e-05,0.029278734360580955,0.014271370123641238,0.01837356437072608,1.5644770969810853,0.01427256169232766,-0.018375900941554717,1.5644779104662256,0.19561495485394528,-0.0014545944072979766,-0.0014645709364435044,-0.08023507701556812,-0.08024570765984201,-0.08024570765984201,right_arm__right_thigh,0.20243986987448495,0.001698513257469475,0.0016889304635705482,-0.06840046896838303,-0.06840255744138109,-0.06840255744138109,right_arm__right_thigh
9.347220256,0.0,0.0,0.0,0.0,1.5708,0.0,0.0,1.5708,-2.2568782712512755e-05,0.037288363084127224,0.025164260384288383,0.038312908267205625,1.5720139740448733,0.0251665162801544,-0.03831877033314226,1.5720154819060674,0.19561526296571477,-0.0014544427891172995,-0.00146441880129769,-0.08023494210907636,-0.08024552819509348,-0.08024552819509348,right_arm__right_thigh,0.20979689839388124,0.005216119622888871,0.005207161979993852,-0.056906730244382656,-0.05690721672329635,-0.05690721672329635,right_arm__right_thigh
9.363814185,0.0,0.0,0.0,0.0,1.5708,0.0,0.0,1.5708,-2.2568782712512755e-05,0.037288363084127224,0.025164260384288383,0.038312908267205625,1.5720139740448733,0.0251665162801544,-0.03831877033314226,1.5720154819060674,0.1956155966186918,-0.0014542786952605191,-0.0014642539624012962,-0.08023478744903684,-0.080245340836398,-0.080245340836398,right_arm__right_thigh,0.2097972315793877,0.005216284458375936,0.005207327564018094,-0.05690659517585824,-0.056907042948763316,-0.056907042948763316,right_arm__right_thigh
9.378248397,0.0,0.0,0.0,0.0,1.5708,0.0,0.0,1.5708,-2.2568782712512755e-05,0.037288363084127224,0.025164260384288383,0.038312908267205625,1.5720139740448733,0.0251665162801544,-0.03831877033314226,1.5720154819060674,0.19561594771616977,-0.0014541059874023377,-0.0014640805403374757,-0.08023461582529731,-0.08024515279443387,-0.08024515279443387,right_arm__right_thigh,0.20979758218491532,0.005216457946875364,0.005207501770088913,-0.056906441265734665,-0.05690686969392642,-0.05690686969392642,right_arm__right_thigh
9.393467194000001,0.0,0.0,0.0,0.0,1.5708,0.0,0.0,1.5708,-2.2568782712512755e-05,0.037288363084127224,0.025164260384288383,0.038312908267205625,1.5720139740448733,0.0251665162801544,-0.03831877033314226,1.5720154819060674,0.19561594771616977,-0.0014541059874023377,-0.0014640805403374757,-0.08023461582529731,-0.08024515279443387,-0.08024515279443387,right_arm__right_thigh,0.20979758218491532,0.005216457946875364,0.005207501770088913,-0.056906441265734665,-0.05690686969392642,-0.05690686969392642,right_arm__right_thigh
9.410665148000001,0.0,0.0,0.0,0.0,1.5708,0.0,0.0,1.5708,-2.2568782712512755e-05,0.037288363084127224,0.025164260384288383,0.038312908267205625,1.5720139740448733,0.0251665162801544,-0.03831877033314226,1.5720154819060674,0.19561666274166487,-0.0014537541964338707,-0.0014637274241790232,-0.08023425918719809,-0.08024477972837454,-0.08024477972837454,right_arm__right_thigh,0.2097982962084081,0.005216811328194987,0.005207856482870199,-0.05690611677918074,-0.05690652601459651,-0.05690652601459651,right_arm__right_thigh
9.426994241000001,0.0,0.0,0.0,0.0,1.5708,0.0,0.0,1.5708,-2.2568782712512755e-05,0.037288363084127224,0.025164260384288383,0.038312908267205625,1.5720139740448733,0.0251665162801544,-0.03831877033314226,1.5720154819060674,0.19561701106332027,-0.0014535828074654644,-0.0014635554214489366,-0.08023408477214886,-0.08024460017024868,-0.08024460017024868,right_arm__right_thigh,0.20979864404188217,0.00521698349208885,0.005208029263438191,-0.05690595695925741,-0.05690636024009375,-0.05690636024009375,right_arm__right_thigh
9.443299891,0.0,0.0,0.0,0.0,1.5708,0.0,0.0,1.5708,-2.183476096482888e-05,0.04560055677530656,0.036190145486596645,0.05795869424206909,1.5795048332314834,0.03619245682307546,-0.05796720982469708,1.5795064744318494,0.19561730840084393,-0.0014534364928196764,-0.0014634086073595787,-0.0802339457667548,-0.08024447974754723,-0.08024447974754723,right_arm__right_thigh,0.21702114902190303,0.00870129138955919,0.008692817266906072,-0.045451325775995394,-0.045450882884712246,-0.045451325775995394,left_arm__left_thigh
9.461561814000001,0.0,0.0,0.0,0.0,1.5708,0.0,0.0,1.5708,-2.183476096482888e-05,0.04560055677530656,0.036190145486596645,0.05795869424206909,1.5795048332314834,0.03619245682307546,-0.05796720982469708,1.5795064744318494,0.19561760297940792,-0.0014532916357834214,-0.0014632630559613946,-0.080233796972175,-0.08024434232424812,-0.08024434232424812,right_arm__right_thigh,0.21702144282498417,0.008701437049595445,0.008692963625255984,-0.04545122316258095,-0.04545079437626047,-0.04545122316258095,left_arm__left_thigh
9.477843258,0.0,0.0,0.0,0.0,1.5708,0.0,0.0,1.5708,-2.183476096482888e-05,0.04560055677530656,0.036190145486596645,0.05795869424206909,1.5795048332314834,0.03619245682307546,-0.05796720982469708,1.5795064744318494,0.19561791130765413,-0.0014531399727321925,-0.0014631107559597567,-0.0802336343935694,-0.08024418805619896,-0.08024418805619896,right_arm__right_thigh,0.21702175034150792,0.008701589553462147,0.008693116769712128,-0.04545110506004829,-0.04545068663859178,-0.04545110506004829,left_arm__left_thigh
9.49343237,0.0,0.0,0.0,0.0,1.5708,0.0,0.0,1.5708,-2.183476096482888e-05,0.04560055677530656,0.036190145486596645,0.05795869424206909,1.5795048332314834,0.03619245682307546,-0.05796720982469708,1.5795064744318494,0.1956182232422655,-0.0014529865110491091,-0.00146295669971927,-0.08023346626679348,-0.08024402618855495,-0.08024402618855495,right_arm__right_thigh,0.2170220614548574,0.008701743866022738,0.008693271680236231,-0.04545097926854111,-0.045450568704028096,-0.04545097926854111,left_arm__left_thigh
9.509713316000001,0.0,0.0,0.0,0.0,1.5708,0.0,0.0,1.5708,-2.1224127003575868e-05,0.054082571631172006,0.04723775681353262,0.07754544308790401,1.5868803913631682,0.047239901553355695,-0.07755641360399126,1.5868820420016028,0.19561853003414634,-0.0014528355677504712,-0.0014628051954375665,-0.08023329916094649,-0.08024386364600239,-0.08024386364600239,right_arm__right_thigh,0.22419305980132873,0.012194220889125834,0.012186194325524619,-0.03403506954340453,-0.03403393122754997,-0.03403506954340453,left_arm__left_thigh
9.52859482,0.0,0.0,0.0,0.0,1.5708,0.0,0.0,1.5708,-2.1224127003575868e-05,0.054082571631172006,0.04723775681353262,0.07754544308790401,1.5868803913631682,0.047239901553355695,-0.07755641360399126,1.5868820420016028,0.19561877885309134,-0.0014527131820671613,-0.001462682285867739,-0.0802331575507675,-0.08024372912631902,-0.08024372912631902,right_arm__right_thigh,0.2241933075693929,0.01219434400532296,0.012186317968790189,-0.03403497600995174,-0.03403384672523806,-0.03403497600995174,left_arm__left_thigh
9.543241823,0.0,0.0,0.0,0.0,1.5708,0.0,0.0,1.5708,-2.1224127003575868e-05,0.054082571631172006,0.04723775681353262,0.07754544308790401,1.5868803913631682,0.047239901553355695,-0.07755641360399126,1.5868820420016028,0.19561903238355596,-0.0014525884585760152,-0.0014625570695967205,-0.0802330142293074,-0.08024359285363789,-0.08024359285363789,right_arm__right_thigh,0.2241935600290391,0.012194469473358421,0.012186443932603541,-0.0340348804111822,-0.034033760090034795,-0.0340348804111822,left_arm__left_thigh
9.565958041,0.0,0.0,0.0,0.0,1.5708,0.0,0.0,1.5708,-2.1224127003575868e-05,0.054082571631172006,0.04723775681353262,0.07754544308790401,1.5868803913631682,0.047239901553355695,-0.07755641360399126,1.5868820420016028,0.19561929856861002,-0.0014524574891655595,-0.0014624256241925204,-0.08023286669707347,-0.080243451057039,-0.080243451057039,right_arm__right_thigh,0.22419382508978422,0.01219460122468144,0.012186576162821539,-0.03403478212327003,-0.03403366914113928,-0.03403478212327003,left_arm__left_thigh
9.576570052000001,0.0,0.0,0.0,0.0,1.5708,0.0,0.0,1.5708,-2.1224127003575868e-05,0.054082571631172006,0.04723775681353262,0.07754544308790401,1.5868803913631682,0.047239901553355695,-0.07755641360399126,1.5868820420016028,0.19561929856861002,-0.0014524574891655595,-0.0014624256241925204,-0.08023286669707347,-0.080243451057039,-0.080243451057039,right_arm__right_thigh,0.22419382508978422,0.01219460122468144,0.012186576162821539,-0.03403478212327003,-0.03403366914113928,-0.03403478212327003,left_arm__left_thigh
9.595211804,0.0,0.0,0.0,0.0,1.5708,0.0,0.0,1.5708,-2.073190813291654e-05,0.06251712884106611,0.058086173494564936,0.09658579354300949,1.5940231043009685,0.05808803665896352,-0.09659909120274623,1.5940246924061838,0.19561982760033872,-0.0014521971687605495,-0.0014621644070126893,-0.08023257996931332,-0.08024317097504283,-0.08024317097504283,right_arm__right_thigh,0.23113362294560433,0.015604771423058383,0.015597168136132628,-0.022940796155070456,-0.022939035523300857,-0.022940796155070456,left_arm__left_thigh
9.611363284000001,0.0,0.0,0.0,0.0,1.5708,0.0,0.0,1.5708,-2.073190813291654e-05,0.06251712884106611,0.058086173494564936,0.09658579354300949,1.5940231043009685,0.05808803665896352,-0.09659909120274623,1.5940246924061838,0.19562006052142408,-0.0014520825774489154,-0.0014620493771473342,-0.08023245295551505,-0.08024304895506847,-0.08024304895506847,right_arm__right_thigh,0.23113385444174508,0.015604886682002966,0.015597283836192993,-0.022940725212503454,-0.022938971090563337,-0.022940725212503454,left_arm__left_thigh
9.628166256,0.0,0.0,0.0,0.0,1.5708,0.0,0.0,1.5708,-2.073190813291654e-05,0.06251712884106611,0.058086173494564936,0.09658579354300949,1.5940231043009685,0.05808803665896352,-0.09659909120274623,1.5940246924061838,0.19562030356348922,-0.0014519629894481634,-0.0014619293666413291,-0.0802323225942132,-0.08024292365907412,-0.08024292365907412,right_arm__right_thigh,0.23113409599690513,0.015605006966831758,0.015597404545996563,-0.022940653030125227,-0.022938905495888284,-0.022940653030125227,left_arm__left_thigh
9.645462437,0.0,0.0,0.0,0.0,1.5708,0.0,0.0,1.5708,-2.073190813291654e-05,0.06251712884106611,0.058086173494564936,0.09658579354300949,1.5940231043009685,0.05808803665896352,-0.09659909120274623,1.5940246924061838,0.19562055256219393,-0.001451840458050191,-0.001461806427566853,-0.08023219133359792,-0.08024279633491105,-0.08024279633491105,right_arm__right_thigh,0.23113434347221665,0.015605130212296953,0.01559752820152216,-0.022940581250571856,-0.022938838894517463,-0.022940581250571856,left_arm__left_thigh
9.662914379,0.0,0.0,0.0,0.0,1.5708,0.0,0.0,1.5708,-2.073190813291654e-05,0.06251712884106611,0.058086173494564936,0.09658579354300949,1.5940231043009685,0.05808803665896352,-0.09659909120274623,1.5940246924061838,0.19562079742213187,-0.0014517199582936569,-0.0014616855372457105,-0.08023206398238908,-0.08024267142195927,-0.08024267142195927,right_arm__right_thigh,0.23113458683403762,0.015605251414368249,0.015597649796442653,-0.02294051230580571,-0.022938773258725897,-0.02294051230580571,left_arm__left_thigh
9.676365023,0.0,0.0,0.0,0.0,1.5708,0.0,0.0,1.5708,-2.0242981818131215e-05,0.07073667363165861,0.06856718410248033,0.11460292232702783,1.6008478116789238,0.06856878382485307,-0.11461817322556606,1.600849342401446,0.1956210297526306,-0.0014516056255968468,-0.001461570832002268,-0.08023194433947912,-0.08024255275281444,-0.08024255275281444,right_arm__right_thigh,0.23766972699583358,0.01884336147878271,0.01883611084192552,-0.012411003347660418,-0.01240875504580019,-0.012411003347660418,left_arm__left_thigh
9.693925724000001,0.0,0.0,0.0,0.0,1.5708,0.0,0.0,1.5708,-2.0242981818131215e-05,0.07073667363165861,0.06856718410248033,0.11460292232702783,1.6008478116789238,0.06856878382485307,-0.11461817322556606,1.600849342401446,0.19562126238862812,-0.0014514911490721705,-0.0014614559696617402,-0.08023182434358786,-0.08024243602245815,-0.08024243602245815,right_arm__right_thigh,0.23766995771816055,0.018843476550708893,0.018836226301630288,-0.01241095164957845,-0.012408707740070829,-0.01241095164957845,left_arm__left_thigh
9.709869277000001,0.0,0.0,0.0,0.0,1.5708,0.0,0.0,1.5708,-2.0242981818131215e-05,0.07073667363165861,0.06856718410248033,0.11460292232702783,1.6008478116789238,0.06856878382485307,-0.11461817322556606,1.600849342401446,0.19562150151651672,-0.001451373466959588,-0.0014613379132818183,-0.08023170203320926,-0.08024231710927504,-0.08024231710927504,right_arm__right_thigh,0.2376701948789264,0.018843594844989375,0.0188363449720802,-0.01241089944811763,-0.012408660085427084,-0.01241089944811763,left_arm__left_thigh
9.727076148,0.0,0.0,0.0,0.0,1.5708,0.0,0.0,1.5708,-2.0242981818131215e-05,0.07073667363165861,0.06856718410248033,0.11460292232702783,1.6008478116789238,0.06856878382485307,-0.11461817322556606,1.600849342401446,0.19562173811569197,-0.0014512570236377142,-0.0014612211112367823,-0.08023158212433101,-0.08024219956941023,-0.08024219956941023,right_arm__right_thigh,0.23767042953173115,0.018843711894128895,0.018836462381765062,-0.012410848906680885,-0.012408612798690682,-0.012410848906680885,left_arm__left_thigh
9.743710557,0.0,0.0,0.0,0.0,1.5708,0.0,0.0,1.5708,-2.0242981818131215e-05,0.07073667363165861,0.06856718410248033,0.11460292232702783,1.6008478116789238,0.06856878382485307,-0.11461817322556606,1.600849342401446,0.19562173811569197,-0.0014512570236377142,-0.0014612211112367823,-0.08023158212433101,-0.08024219956941023,-0.08024219956941023,right_arm__right_thigh,0.23767042953173115,0.018843711894128895,0.018836462381765062,-0.012410848906680885,-0.012408612798690682,-0.012410848906680885,left_arm__left_thigh
9.760579161,0.0,0.0,0.0,0.0,1.5708,0.0,0.0,1.5708,-2.0242981818131215e-05,0.07073667363165861,0.06856718410248033,0.11460292232702783,1.6008478116789238,0.06856878382485307,-0.11461817322556606,1.600849342401446,0.1956219633798383,-0.0014511461589129249,-0.001461109905183805,-0.08023146884509821,-0.08024208726966844,-0.08024208726966844,right_arm__right_thigh,0.23767065294270798,0.0188438233357342,0.01883657416643303,-0.012410801662345275,-0.012408567065708587,-0.012410801662345275,left_arm__left_thigh
9.776408575000001,0.0,0.0,0.0,0.0,1.5708,0.0,0.0,1.5708,-1.9686877196086176e-05,0.07848847135330951,0.07841858951064176,0.13076086645122342,1.6072143903686367,0.07842063121129657,-0.13077762270158594,1.6072162420631422,0.1956223529486715,-0.0014509544505390826,-0.0014609175678346464,-0.08023127441291605,-0.08024189086038705,-0.08024189086038705,right_arm__right_thigh,0.2435022617793509,0.02175594779731574,0.0217489662655741,-0.0028320819392348984,-0.0028292894550612235,-0.0028320819392348984,left_arm__left_thigh
9.796522118,0.0,0.0,0.0,0.0,1.5708,0.0,0.0,1.5708,-1.9686877196086176e-05,0.07848847135330951,0.07841858951064176,0.13076086645122342,1.6072143903686367,0.07842063121129657,-0.13077762270158594,1.6072162420631422,0.19562253224260337,-0.001450866225083336,-0.0014608290415276948,-0.08023118420747055,-0.08024180138368228,-0.08024180138368228,right_arm__right_thigh,0.24350243921206607,0.021756036398763112,0.021749055169087844,-0.0028320529803181754,-0.0028292616952307614,-0.0028320529803181754,left_arm__left_thigh
9.810940735,0.0,0.0,0.0,0.0,1.5708,0.0,0.0,1.5708,-1.9686877196086176e-05,0.07848847135330951,0.07841858951064176,0.13076086645122342,1.6072143903686367,0.07842063121129657,-0.13077762270158594,1.6072162420631422,0.19562270657194084,-0.0014507804420546833,-0.0014607429671354144,-0.08023109645738338,-0.08024171472894726,-0.08024171472894726,right_arm__right_thigh,0.24350261173169244,0.021756122547431977,0.021749141610297423,-0.00283202464839194,-0.0028292350105407343,-0.00283202464839194,left_arm__left_thigh
9.827527678000001,0.0,0.0,0.0,0.0,1.5708,0.0,0.0,1.5708,-1.9686877196086176e-05,0.07848847135330951,0.07841858951064176,0.13076086645122342,1.6072143903686367,0.07842063121129657,-0.13077762270158594,1.6072162420631422,0.19562286960771383,-0.0014507002192262475,-0.0014606624660936374,-0.08023101470177006,-0.08024163322388189,-0.08024163322388189,right_arm__right_thigh,0.2435027730749648,0.02175620311225207,0.02174922245445643,-0.0028319984184364405,-0.00282920936222876,-0.0028319984184364405,left_arm__left_thigh
9.843146226,0.0,0.0,0.0,0.0,1.5708,0.0,0.0,1.5708,-1.9686877196086176e-05,0.07848847135330951,0.07841858951064176,0.13076086645122342,1.6072143903686367,0.07842063121129657,-0.13077762270158594,1.6072162420631422,0.19562301509739546,-0.001450628637742396,-0.001460590621090413,-0.08023094203362721,-0.08024155958550354,-0.08024155958550354,right_arm__right_thigh,0.243502917054272,0.021756274998931208,0.02174929460572464,-0.0028319752406506526,-0.00282918523026042,-0.0028319752406506526,left_arm__left_thigh
9.860962038,0.0,0.0,0.0,0.0,1.5708,0.0,0.0,1.5708,-1.8987321973723358e-05,0.08534241064237749,0.08718984136702476,0.14369838979800087,1.6128702757262359,0.087192289530936,-0.1437160178281961,1.6128724189751817,0.19562315690641305,-0.0014505588683651205,-0.0014605205925410092,-0.08023087041171739,-0.08024148871626552,-0.08024148871626552,right_arm__right_thigh,0.2481474138121947,0.024093898384869195,0.02408707213966063,0.00517658270977589,0.005179636253621445,0.00517658270977589,left_arm__left_thigh
9.877077174,0.0,0.0,0.0,0.0,1.5708,0.0,0.0,1.5708,-1.8987321973723358e-05,0.08534241064237749,0.08718984136702476,0.14369838979800087,1.6128702757262359,0.087192289530936,-0.1437160178281961,1.6128724189751817,0.19562329228674816,-0.0014504922633802042,-0.0014604537371969706,-0.08023080195349216,-0.08024142102985382,-0.08024142102985382,right_arm__right_thigh,0.24814754752839038,0.024093965209294743,0.02408713921519931,0.005176599548971039,0.005179651863074994,0.005176599548971039,left_arm__left_thigh
9.894797131,0.0,0.0,0.0,0.0,1.5708,0.0,0.0,1.5708,-1.8987321973723358e-05,0.08534241064237749,0.08718984136702476,0.14369838979800087,1.6128702757262359,0.087192289530936,-0.1437160178281961,1.6128724189751817,0.19562329228674816,-0.0014504922633802042,-0.0014604537371969706,-0.08023080195349216,-0.08024142102985382,-0.08024142102985382,right_arm__right_thigh,0.24814754752839038,0.024093965209294743,0.02408713921519931,0.005176599548971039,0.005179651863074994,0.005176599548971039,left_arm__left_thigh
9.910650273,0.0,0.0,0.0,0.0,1.5708,0.0,0.0,1.5708,-1.8987321973723358e-05,0.08534241064237749,0.08718984136702476,0.14369838979800087,1.6128702757262359,0.087192289530936,-0.1437160178281961,1.6128724189751817,0.195623415107723,-0.0014504318430053065,-0.0014603930785540287,-0.08023074003116157,-0.08024135888317162,-0.08024135888317162,right_arm__right_thigh,0.24814766883959175,0.02409402582876627,0.024087200073659942,0.005176614680007949,0.005179667021569037,0.005176614680007949,left_arm__left_thigh
9.92702367,0.0,0.0,0.0,0.0,1.5708,0.0,0.0,1.5708,-1.8987321973723358e-05,0.08534241064237749,0.08718984136702476,0.14369838979800087,1.6128702757262359,0.087192289530936,-0.1437160178281961,1.6128724189751817,0.19562360154878358,-0.0014503401627063983,-0.0014603009621965701,-0.08023064625481598,-0.08024126087704439,-0.08024126087704439,right_arm__right_thigh,0.2481478529887984,0.024094117811227833,0.024087292493520096,0.0051766377113861145,0.005179694874293511,0.0051766377113861145,left_arm__left_thigh
9.943180396,0.0,0.0,0.0,0.0,1.5708,0.0,0.0,1.5708,-1.8283577893082953e-05,0.09165993513099722,0.09528704572932747,0.15478300032699227,1.6180578026342813,0.09528975189551481,-0.15480122541432995,1.6180601483338755,0.19562367310542814,-0.001450304995571361,-0.001460265587659132,-0.08023060920179904,-0.08024122267333449,-0.08024122267333449,right_arm__right_thigh,0.2521073281204085,0.026103006223462955,0.026096286372862265,0.012254953005322242,0.012258119857517749,0.012254953005322242,left_arm__left_thigh
9.960371746,0.0,0.0,0.0,0.0,1.5708,0.0,0.0,1.5708,-1.8283577893082953e-05,0.09165993513099722,0.09528704572932747,0.15478300032699227,1.6180578026342813,0.09528975189551481,-0.15480122541432995,1.6180601483338755,0.1956237329670749,-0.00145027558928279,-0.0014602359814069321,-0.08023057767014145,-0.08024119008167306,-0.08024119008167306,right_arm__right_thigh,0.2521073871405327,0.026103035697188692,0.026096316046970575,0.012254960029131942,0.012258127979725517,0.012254960029131942,left_arm__left_thigh
9.977941062000001,0.0,0.0,0.0,0.0,1.5708,0.0,0.0,1.5708,-1.8283577893082953e-05,0.09165993513099722,0.09528704572932747,0.15478300032699227,1.6180578026342813,0.09528975189551481,-0.15480122541432995,1.6180601483338755,0.19562377699922076,-0.0014502539804094605,-0.0014602141827174953,-0.08023055405370415,-0.08024116458555378,-0.08024116458555378,right_arm__right_thigh,0.2521074305536811,0.026103057355622433,0.026096337895626598,0.012254965846082502,0.01225813593234841,0.012254965846082502,left_arm__left_thigh
9.993943301,0.0,0.0,0.0,0.0,1.5708,0.0,0.0,1.5708,-1.8283577893082953e-05,0.09165993513099722,0.09528704572932747,0.15478300032699227,1.6180578026342813,0.09528975189551481,-0.15480122541432995,1.6180601483338755,0.19562380137648402,-0.0014502420539889982,-0.0014602020776629254,-0.08023054027903154,-0.080241147847823,-0.080241147847823,right_arm__right_thigh,0.25210745458825135,0.026103069309398208,0.02609635002842997,0.012254970140535767,0.0122581437309605,0.012254970140535767,left_arm__left_thigh
10.010411457,0.0,0.0,0.0,0.0,1.5708,0.0,0.0,1.5708,-1.7576526968364387e-05,0.09728531349198281,0.10255987779568677,0.16370102552652568,1.6226930416074838,0.102562680841882,-0.16371961194647175,1.622695492012254,0.19562380326648857,-0.0014502412060798942,-0.0014602010623770978,-0.08023053765708879,-0.08024114121374981,-0.08024114121374981,right_arm__right_thigh,0.25527601696636903,0.02772540274281257,0.027718747151170064,0.018253290953907195,0.018256431400502496,0.018253290953907195,left_arm__left_thigh
10.028635182,0.0,0.0,0.0,0.0,1.5708,0.0,0.0,1.5708,-1.7576526968364387e-05,0.09728531349198281,0.10255987779568677,0.16370102552652568,1.6226930416074838,0.102562680841882,-0.16371961194647175,1.622695492012254,0.19562379273693778,-0.001450246478653383,-0.0014602061699939273,-0.08023054018500375,-0.08024114118577566,-0.08024114118577566,right_arm__right_thigh,0.25527600660072636,0.027725397462916385,0.027718742036467514,0.018253294193792194,0.01825643764543032,0.018253294193792194,left_arm__left_thigh
10.044359446000001,0.0,0.0,0.0,0.0,1.5708,0.0,0.0,1.5708,-1.7576526968364387e-05,0.09728531349198281,0.10255987779568677,0.16370102552652568,1.6226930416074838,0.102562680841882,-0.16371961194647175,1.622695492012254,0.19562379273693778,-0.001450246478653383,-0.0014602061699939273,-0.08023054018500375,-0.08024114118577566,-0.08024114118577566,right_arm__right_thigh,0.25527600660072636,0.027725397462916385,0.027718742036467514,0.018253294193792194,0.01825643764543032,0.018253294193792194,left_arm__left_thigh
10.072099727000001,0.0,0.0,0.0,0.0,1.5708,0.0,0.0,1.5708,-1.7576526968364387e-05,0.09728531349198281,0.10255987779568677,0.16370102552652568,1.6226930416074838,0.102562680841882,-0.16371961194647175,1.622695492012254,0.1956237691915029,-0.0014502581640691015,-0.0014602176960253899,-0.0802305488085188,-0.08024114737100116,-0.08024114737100116,right_arm__right_thigh,0.2552759834218108,0.027725385761272286,0.02771873049444723,0.018253297361412,0.018256443677361164,0.018253297361412,left_arm__left_thigh
10.084143714000001,0.0,0.0,0.0,0.0,1.5708,0.0,0.0,1.5708,-1.7576526968364387e-05,0.09728531349198281,0.10255987779568677,0.16370102552652568,1.6226930416074838,0.102562680841882,-0.16371961194647175,1.622695492012254,0.1956237691915029,-0.0014502581640691015,-0.0014602176960253899,-0.0802305488085188,-0.08024114737100116,-0.08024114737100116,right_arm__right_thigh,0.2552759834218108,0.027725385761272286,0.02771873049444723,0.018253297361412,0.018256443677361164,0.018253297361412,left_arm__left_thigh
10.093945779,0.0,0.0,0.0,0.0,1.5708,0.0,0.0,1.5708,-1.7576526968364387e-05,0.09728531349198281,0.10255987779568677,0.16370102552652568,1.6226930416074838,0.102562680841882,-0.16371961194647175,1.622695492012254,0.19562367254060078,-0.0014503059510570793,-0.0014602651889899232,-0.08023059063673713,-0.08024118196600656,-0.08024118196600656,right_arm__right_thigh,0.25527588827541514,0.02772533790793269,0.027718682935614053,0.01825330168794649,0.018256456716866473,0.01825330168794649,left_arm__left_thigh
10.110808796,0.0,0.0,0.0,0.0,1.5708,0.0,0.0,1.5708,-1.6883233783508324e-05,0.1022487337975815,0.1090561632674323,0.17072805605974742,1.6268075292824051,0.10905894533955156,-0.17074683664951312,1.626810011910536,0.19562359529607273,-0.001450344092339878,-0.001460303196586521,-0.08023062589382943,-0.08024121221317713,-0.08024121221317713,right_arm__right_thigh,0.2577585099335018,0.029009938156014103,0.029003317227965286,0.023295085618485686,0.023298108827527184,0.023295085618485686,left_arm__left_thigh
10.127064003000001,0.0,0.0,0.0,0.0,1.5708,0.0,0.0,1.5708,-1.6883233783508324e-05,0.1022487337975815,0.1090561632674323,0.17072805605974742,1.6268075292824051,0.10905894533955156,-0.17074683664951312,1.626810011910536,0.1956235062735935,-0.0014503880384658385,-0.0014603470102642069,-0.08023066608166501,-0.08024124864823676,-0.08024124864823676,right_arm__right_thigh,0.2577584224076984,0.029009894182559975,0.029003273387118916,0.023295089535876348,0.023298117291562462,0.023295089535876348,left_arm__left_thigh
10.143598628000001,0.0,0.0,0.0,0.0,1.5708,0.0,0.0,1.5708,-1.6883233783508324e-05,0.1022487337975815,0.1090561632674323,0.17072805605974742,1.6268075292824051,0.10905894533955156,-0.17074683664951312,1.626810011910536,0.19562340535553754,-0.0014504378460735434,-0.0014603966893559917,-0.0802307118300466,-0.08024129074867331,-0.08024129074867331,right_arm__right_thigh,0.2577583231862972,0.029009844344002583,0.029003223677244727,0.02329509371307016,0.02329812588869519,0.02329509371307016,left_arm__left_thigh
10.160411513000001,0.0,0.0,0.0,0.0,1.5708,0.0,0.0,1.5708,-1.6883233783508324e-05,0.1022487337975815,0.1090561632674323,0.17072805605974742,1.6268075292824051,0.10905894533955156,-0.17074683664951312,1.626810011910536,0.1956232908739007,-0.0014504943363193856,-0.0014604530570690444,-0.08023076427861846,-0.08024133894405486,-0.08024133894405486,right_arm__right_thigh,0.2577582106293316,0.029009787818684657,0.029003167274634867,0.023295097732472195,0.02329813509589658,0.023295097732472195,left_arm__left_thigh
10.177160619,0.0,0.0,0.0,0.0,1.5708,0.0,0.0,1.5708,-1.6883233783508324e-05,0.1022487337975815,0.1090561632674323,0.17072805605974742,1.6268075292824051,0.10905894533955156,-0.17074683664951312,1.626810011910536,0.19562316135430266,-0.0014505582355576196,-0.0014605168405408264,-0.08023082422566397,-0.08024139382330896,-0.08024139382330896,right_arm__right_thigh,0.2577580832872015,0.029009723879813182,0.029003103451713752,0.02329510148825982,0.023298145071320678,0.02329510148825982,left_arm__left_thigh
10.193537978,0.0,0.0,0.0,0.0,1.5708,0.0,0.0,1.5708,-1.6883233783508324e-05,0.1022487337975815,0.1090561632674323,0.17072805605974742,1.6268075292824051,0.10905894533955156,-0.17074683664951312,1.626810011910536,0.19562301587139794,-0.0014506299998868488,-0.0014605884959220106,-0.08023089209481685,-0.08024145583292348,-0.08024145583292348,right_arm__right_thigh,0.25775794025011,0.02900965207102138,0.02900303175206334,0.023295105011346087,0.023298155817238028,0.023295105011346087,left_arm__left_thigh
10.210415269,0.0,0.0,0.0,0.0,1.5708,0.0,0.0,1.5708,-1.6219869088648648e-05,0.10670453778776548,0.11494827357797184,0.17643967343074382,1.6305085792678846,0.11495096345479044,-0.1764585396837441,1.6305110498524553,0.19562285403888155,-0.0014507098198872082,-0.0014606682134907234,-0.08023096801761384,-0.08024152520374084,-0.08024152520374084,right_arm__right_thigh,0.25976458375249456,0.030059715385821778,0.03005310978595327,0.02764699873192282,0.027649864355125606,0.02764699873192282,left_arm__left_thigh
10.228625578,0.0,0.0,0.0,0.0,1.5708,0.0,0.0,1.5708,-1.6219869088648648e-05,0.10670453778776548,0.11494827357797184,0.17643967343074382,1.6305085792678846,0.11495096345479044,-0.1764585396837441,1.6305110498524553,0.19562268290590587,-0.0014507942245919891,-0.0014607525150532041,-0.08023104766768394,-0.0802415996166984,-0.0802415996166984,right_arm__right_thigh,0.25976441567616326,0.030059630984675678,0.030053025488106205,0.027647006915048192,0.02764987899396866,0.027647006915048192,left_arm__left_thigh
10.243469051,0.0,0.0,0.0,0.0,1.5708,0.0,0.0,1.5708,-1.6219869088648648e-05,0.10670453778776548,0.11494827357797184,0.17643967343074382,1.6305085792678846,0.11495096345479044,-0.1764585396837441,1.6305110498524553,0.19562250293961167,-0.0014508829825404246,-0.0014608411715745784,-0.08023113136234303,-0.08024167831300202,-0.08024167831300202,right_arm__right_thigh,0.25976423892424083,0.030059542230550074,0.03005293683557267,0.02764701559852474,0.027649893834946662,0.02764701559852474,left_arm__left_thigh
10.261367425000001,0.0,0.0,0.0,0.0,1.5708,0.0,0.0,1.5708,-1.6219869088648648e-05,0.10670453778776548,0.11494827357797184,0.17643967343074382,1.6305085792678846,0.11495096345479044,-0.1764585396837441,1.6305110498524553,0.1956223133649768,-0.0014509764747975828,-0.0014609345660450135,-0.08023121980330207,-0.08024176132043451,-0.08024176132043451,right_arm__right_thigh,0.25976405273554015,0.03005944874240904,0.030052843445392247,0.02764702438838766,0.027649909334771475,0.02764702438838766,left_arm__left_thigh
10.279425756,0.0,0.0,0.0,0.0,1.5708,0.0,0.0,1.5708,-1.6219869088648648e-05,0.10670453778776548,0.11494827357797184,0.17643967343074382,1.6305085792678846,0.11495096345479044,-0.1764585396837441,1.6305110498524553,0.1956223133649768,-0.0014509764747975828,-0.0014609345660450135,-0.08023121980330207,-0.08024176132043451,-0.08024176132043451,right_arm__right_thigh,0.25976405273554015,0.03005944874240904,0.030052843445392247,0.02764702438838766,0.027649909334771475,0.02764702438838766,left_arm__left_thigh
10.294784043,0.0,0.0,0.0,0.0,1.5708,0.0,0.0,1.5708,-1.6219869088648648e-05,0.10670453778776548,0.11494827357797184,0.17643967343074382,1.6305085792678846,0.11495096345479044,-0.1764585396837441,1.6305110498524553,0.1956219029844384,-0.0014511788471043008,-0.0014611367562018251,-0.08023141237047102,-0.08024194108708857,-0.08024194108708857,right_arm__right_thigh,0.2597636496845007,0.030059246379325943,0.030052641264836533,0.027647041987876056,0.02764994280510595,0.027647041987876056,left_arm__left_thigh
10.310010118000001,0.0,0.0,0.0,0.0,1.5708,0.0,0.0,1.5708,-1.556978097385509e-05,0.11046520396583014,0.12006078387533146,0.18042023403109833,1.6336897877250551,0.12006333742009372,-0.18043906811194263,1.6336922159915412,0.19562168183657444,-0.0014512878957699815,-0.0014612457204428442,-0.08023151661456046,-0.08024203804942712,-0.08024203804942712,right_arm__right_thigh,0.261149942054523,0.03079873842253561,0.030792127378185458,0.031111826325167027,0.031114488472773053,0.030792127378185458,right_arm__torso
10.326620751,0.0,0.0,0.0,0.0,1.5708,0.0,0.0,1.5708,-1.556978097385509e-05,0.11046520396583014,0.12006078387533146,0.18042023403109833,1.6336897877250551,0.12006333742009372,-0.18043906811194263,1.6336922159915412,0.19562145516882942,-0.0014513996661655315,-0.0014613574048154832,-0.0802316229063741,-0.08024213816550835,-0.08024213816550835,right_arm__right_thigh,0.2611497196067969,0.0307986267076667,0.030792015749521062,0.031111840367606267,0.031114510189942726,0.030792015749521062,right_arm__torso
10.343118511,0.0,0.0,0.0,0.0,1.5708,0.0,0.0,1.5708,-1.556978097385509e-05,0.11046520396583014,0.12006078387533146,0.18042023403109833,1.6336897877250551,0.12006333742009372,-0.18043906811194263,1.6336922159915412,0.1956212234329273,-0.0014515139346180095,-0.0014614715876878903,-0.08023173147525224,-0.0802422407798409,-0.0802422407798409,right_arm__right_thigh,0.2611494921851891,0.030798512496122227,0.03079190162374318,0.031111854846708767,0.031114532065327064,0.03079190162374318,right_arm__torso
10.36981545,0.0,0.0,0.0,0.0,1.5708,0.0,0.0,1.5708,-1.556978097385509e-05,0.11046520396583014,0.12006078387533146,0.18042023403109833,1.6336897877250551,0.12006333742009372,-0.18043906811194263,1.6336922159915412,0.19562098625950894,-0.0014516308823732116,-0.001461588451954654,-0.08023184277326308,-0.08024234578814597,-0.08024234578814597,right_arm__right_thigh,0.2611492594272111,0.03079839560675618,0.030791784818058388,0.031111869432293646,0.03111455447283927,0.030791784818058388,right_arm__torso
10.378879638,0.0,0.0,0.0,0.0,1.5708,0.0,0.0,1.5708,-1.556978097385509e-05,0.11046520396583014,0.12006078387533146,0.18042023403109833,1.6336897877250551,0.12006333742009372,-0.18043906811194263,1.6336922159915412,0.19562074334783083,-0.0014517506573248073,-0.0014617081462213188,-0.0802319570297775,-0.08024245324422366,-0.08024245324422366,right_arm__right_thigh,0.2611490210377121,0.030798275891759208,0.030791665183945993,0.03111188403093522,0.03111457754150028,0.030791665183945993,right_arm__torso
10.393020567,0.0,0.0,0.0,0.0,1.5708,0.0,0.0,1.5708,-1.4935422235062898e-05,0.11361063331391898,0.12448798867156011,0.1829873621989929,1.6364101105109863,0.12449039041179538,-0.18300607111404757,1.6364124834315033,0.19562049797291256,-0.0014518716473695958,-0.0014618290539972767,-0.08023207206129788,-0.08024256224473995,-0.08024256224473995,right_arm__right_thigh,0.26203103201027267,0.03128381728388949,0.03127718448238015,0.03383729229984718,0.03383971261596645,0.03127718448238015,right_arm__torso
10.41074137,0.0,0.0,0.0,0.0,1.5708,0.0,0.0,1.5708,-1.4935422235062898e-05,0.11361063331391898,0.12448798867156011,0.1829873621989929,1.6364101105109863,0.12449039041179538,-0.18300607111404757,1.6364124834315033,0.19562025019947885,-0.0014519938196804472,-0.0014619511443103583,-0.08023218819486552,-0.08024267240148095,-0.08024267240148095,right_arm__right_thigh,0.2620307889749809,0.031283695204365664,0.03127706248504308,0.033837311554472796,0.033839739318502496,0.03127706248504308,right_arm__torso
10.42726068,0.0,0.0,0.0,0.0,1.5708,0.0,0.0,1.5708,-1.4935422235062898e-05,0.11361063331391898,0.12448798867156011,0.1829873621989929,1.6364101105109863,0.12449039041179538,-0.18300607111404757,1.6364124834315033,0.19561999962474622,-0.0014521173720758451,-0.0014620746164270004,-0.08023230583660274,-0.0802427836877995,-0.0802427836877995,right_arm__right_thigh,0.26203054319185926,0.03128357174597521,0.031276939107124396,0.033837330775834576,0.033839766469124496,0.031276939107124396,right_arm__torso
10.451978919,0.0,0.0,0.0,0.0,1.5708,0.0,0.0,1.5708,-1.4935422235062898e-05,0.11361063331391898,0.12448798867156011,0.1829873621989929,1.6364101105109863,0.12449039041179538,-0.18300607111404757,1.6364124834315033,0.19561974596306855,-0.0014522424450388316,-0.0014621996114731195,-0.08023242518260419,-0.080242896176701,-0.080242896176701,right_arm__right_thigh,0.2620302943807207,0.031283446768347906,0.03127681420761194,0.03383734990694577,0.033839794167457624,0.03127681420761194,right_arm__torso
10.462448226000001,0.0,0.0,0.0,0.0,1.5708,0.0,0.0,1.5708,-1.4935422235062898e-05,0.11361063331391898,0.12448798867156011,0.1829873621989929,1.6364101105109863,0.12449039041179538,-0.18300607111404757,1.6364124834315033,0.19561974596306855,-0.0014522424450388316,-0.0014621996114731195,-0.08023242518260419,-0.080242896176701,-0.080242896176701,right_arm__right_thigh,0.2620302943807207,0.031283446768347906,0.03127681420761194,0.03383734990694577,0.033839794167457624,0.03127681420761194,right_arm__torso
10.477190778,0.0,0.0,0.0,0.0,1.5708,0.0,0.0,1.5708,-1.4323106828428228e-05,0.11629724164238231,0.1283917650560725,0.18461296403467076,1.63877444673566,0.12839400466480244,-0.18463148242768637,1.6387767557288044,0.19561948912858332,-0.0014523690808139478,-0.0014623261718610114,-0.08023254626336854,-0.08024300991851521,-0.08024300991851521,right_arm__right_thigh,0.26257744184986254,0.03159971890337446,0.03159305281940353,0.036044857887586226,0.03604701281459778,0.03159305281940353,right_arm__torso
10.493068666000001,0.0,0.0,0.0,0.0,1.5708,0.0,0.0,1.5708,-1.4323106828428228e-05,0.11629724164238231,0.1283917650560725,0.18461296403467076,1.63877444673566,0.12839400466480244,-0.18463148242768637,1.6387767557288044,0.195618968827766,-0.0014526256202169463,-0.0014625825635973255,-0.08023279156743315,-0.08024324050193354,-0.08024324050193354,right_arm__right_thigh,0.262576931671764,0.031599462592622446,0.03159279665671938,0.03604490327419867,0.03604707667214245,0.03159279665671938,right_arm__torso
10.511632131,0.0,0.0,0.0,0.0,1.5708,0.0,0.0,1.5708,-1.4323106828428228e-05,0.11629724164238231,0.1283917650560725,0.18461296403467076,1.63877444673566,0.12839400466480244,-0.18463148242768637,1.6387767557288044,0.1956187081932382,-0.0014527541293855029,-0.0014627109977199126,-0.08023291416727277,-0.08024335629812332,-0.08024335629812332,right_arm__right_thigh,0.26257667610784663,0.03159933419827671,0.03159266833761912,0.03604492636152322,0.036047108286707555,0.03159266833761912,right_arm__torso
10.52650606,0.0,0.0,0.0,0.0,1.5708,0.0,0.0,1.5708,-1.4323106828428228e-05,0.11629724164238231,0.1283917650560725,0.18461296403467076,1.63877444673566,0.12839400466480244,-0.18463148242768637,1.6387767557288044,0.1956184471949813,-0.0014528828175231212,-0.0014628396117587206,-0.0802330370525485,-0.08024347214900246,-0.08024347214900246,right_arm__right_thigh,0.2625764201871643,0.031599205625311655,0.031592539838953604,0.03604494933197412,0.03604714007852035,0.031592539838953604,right_arm__torso
10.544868296,0.0,0.0,0.0,0.0,1.5708,0.0,0.0,1.5708,-1.4323106828428228e-05,0.11629724164238231,0.1283917650560725,0.18461296403467076,1.63877444673566,0.12839400466480244,-0.18463148242768637,1.6387767557288044,0.1956181857853588,-0.0014530117078245808,-0.001462968429482292,-0.08023316030713717,-0.08024358801558876,-0.08024358801558876,right_arm__right_thigh,0.26257616386300675,0.03159907685055416,0.03159241113697625,0.03604497211136169,0.036047172130107094,0.03159241113697625,right_arm__torso
10.560299696000001,0.0,0.0,0.0,0.0,1.5708,0.0,0.0,1.5708,-1.3730998098619056e-05,0.11857461907908874,0.13182752062131162,0.185460102287066,1.6408207491623075,0.13182959105256403,-0.18547837497247224,1.6408229881061585,0.19561792402825842,-0.001453140768714889,-0.0014630974194837776,-0.08023328389848534,-0.08024370387023622,-0.08024370387023622,right_arm__right_thigh,0.2628473806761692,0.03177498502708498,0.031768276115370975,0.03781155598505816,0.037813454267302635,0.031768276115370975,right_arm__torso
10.57705344,0.0,0.0,0.0,0.0,1.5708,0.0,0.0,1.5708,-1.3730998098619056e-05,0.11857461907908874,0.13182752062131162,0.185460102287066,1.6408207491623075,0.13182959105256403,-0.18547837497247224,1.6408229881061585,0.19561766377779974,-0.0014532690879184573,-0.0014632256661695764,-0.0802334064729964,-0.08024381931924104,-0.08024381931924104,right_arm__right_thigh,0.2628471255375461,0.031774856824858644,0.03176814798586147,0.03781158168660635,0.037813488934706055,0.03176814798586147,right_arm__torso
10.595119416000001,0.0,0.0,0.0,0.0,1.5708,0.0,0.0,1.5708,-1.3730998098619056e-05,0.11857461907908874,0.13182752062131162,0.185460102287066,1.6408207491623075,0.13182959105256403,-0.18547837497247224,1.6408229881061585,0.1956174051366736,-0.0014533966141844212,-0.0014633531195481775,-0.0802335282296797,-0.08024393406685204,-0.08024393406685204,right_arm__right_thigh,0.26284687197653156,0.03177472941503845,0.0317680206491254,0.03781160730215806,0.03781352336729858,0.0317680206491254,right_arm__torso
10.610968185,0.0,0.0,0.0,0.0,1.5708,0.0,0.0,1.5708,-1.3730998098619056e-05,0.11857461907908874,0.13182752062131162,0.185460102287066,1.6408207491623075,0.13182959105256403,-0.18547837497247224,1.6408229881061585,0.195617148007227,-0.0014535233951257498,-0.0014634798282715522,-0.08023364936948837,-0.08024404800418958,-0.08024404800418958,right_arm__right_thigh,0.2628466198973928,0.03177460275005142,0.031767894056552004,0.0378116326433668,0.03781355777266786,0.031767894056552004,right_arm__torso
10.628829301000001,0.0,0.0,0.0,0.0,1.5708,0.0,0.0,1.5708,-1.3157128778658559e-05,0.12048740021875064,0.13484349647014957,0.1856644170390919,1.6425830047202608,0.1348453913680248,-0.1856823970190002,1.6425851683874626,0.1956168923535295,-0.0014536494482063345,-0.0014636058102925065,-0.08023376995652193,-0.08024416110106791,-0.08024416110106791,right_arm__right_thigh,0.2628906988236297,0.03183418346266037,0.03182742328552643,0.03920160585103828,0.03920321887358651,0.03182742328552643,right_arm__torso
10.645113112,0.0,0.0,0.0,0.0,1.5708,0.0,0.0,1.5708,-1.3157128778658559e-05,0.12048740021875064,0.13484349647014957,0.1856644170390919,1.6425830047202608,0.1348453913680248,-0.1856823970190002,1.6425851683874626,0.19561663940795296,-0.0014537741672517868,-0.0014637304568498044,-0.08023388902807349,-0.08024427315890245,-0.08024427315890245,right_arm__right_thigh,0.26289045086301077,0.03183405884755716,0.03182729874310447,0.03920163322672311,0.039203255100333415,0.03182729874310447,right_arm__torso
10.660573718,0.0,0.0,0.0,0.0,1.5708,0.0,0.0,1.5708,-1.3157128778658559e-05,0.12048740021875064,0.13484349647014957,0.1856644170390919,1.6425830047202608,0.1348453913680248,-0.1856823970190002,1.6425851683874626,0.1956163891593037,-0.0014538975572059853,-0.0014638537740252755,-0.08023400679651865,-0.08024438397593142,-0.08024438397593142,right_arm__right_thigh,0.26289020554606035,0.031833935560620585,0.031827175529136525,0.03920166035035984,0.039203290994977644,0.031827175529136525,right_arm__torso
10.677865344,0.0,0.0,0.0,0.0,1.5708,0.0,0.0,1.5708,-1.3157128778658559e-05,0.12048740021875064,0.13484349647014957,0.1856644170390919,1.6425830047202608,0.1348453913680248,-0.1856823970190002,1.6425851683874626,0.19561614149421389,-0.001454019673485768,-0.0014639758181568818,-0.08023412344173245,-0.08024449347918683,-0.08024449347918683,right_arm__right_thigh,0.2628899627616479,0.031833813546474216,0.03182705358732604,0.03920168707200196,0.039203326731866175,0.03182705358732604,right_arm__torso
10.69280314,0.0,0.0,0.0,0.0,1.5708,0.0,0.0,1.5708,-1.3157128778658559e-05,0.12048740021875064,0.13484349647014957,0.1856644170390919,1.6425830047202608,0.1348453913680248,-0.1856823970190002,1.6425851683874626,0.19561589636296914,-0.001454140540370047,-0.0014640966139678468,-0.08023423902336262,-0.08024460165594602,-0.08024460165594602,right_arm__right_thigh,0.26288972246104203,0.03183369278085399,0.03182693289296498,0.03920171335046292,0.03920336236289122,0.03182693289296498,right_arm__torso
10.716938460000001,0.0,0.0,0.0,0.0,1.5708,0.0,0.0,1.5708,-1.3157128778658559e-05,0.12048740021875064,0.13484349647014957,0.1856644170390919,1.6425830047202608,0.1348453913680248,-0.1856823970190002,1.6425851683874626,0.1956156537796717,-0.0014542601508252817,-0.0014642161545805887,-0.08023435352899536,-0.08024470850541154,-0.08024470850541154,right_arm__right_thigh,0.2628894846580704,0.03183357327078207,0.03182681345291977,0.039201739191538285,0.03920339787923276,0.03182681345291977,right_arm__torso
10.726506927,0.0,0.0,0.0,0.0,1.5708,0.0,0.0,1.5708,-1.3157128778658559e-05,0.12048740021875064,0.13484349647014957,0.1856644170390919,1.6425830047202608,0.1348453913680248,-0.1856823970190002,1.6425851683874626,0.19561541380432204,-0.0014543784752668598,-0.0014643344104196265,-0.08023446691062025,-0.08024481401913128,-0.08024481401913128,right_arm__right_thigh,0.26288924941155456,0.03183345504581292,0.03182669529673543,0.039201764614038,0.03920343324918209,0.03182669529673543,right_arm__torso
10.742983265000001,0.0,0.0,0.0,0.0,1.5708,0.0,0.0,1.5708,-1.2600279554445351e-05,0.12207495530023534,0.13748110481087308,0.1853300693973038,1.6440909316380639,0.13748281678318763,-0.1853477187799903,1.6440930147226043,0.19561517735271924,-0.0014544950635548282,-0.001464450928772426,-0.08023457838069697,-0.08024491812174066,-0.08024491812174066,right_arm__right_thigh,0.26274352133846113,0.03179515151023257,0.03178833353773983,0.040266229605081236,0.04026757846996783,0.03178833353773983,right_arm__torso
10.763222626000001,0.0,0.0,0.0,0.0,1.5708,0.0,0.0,1.5708,-1.2600279554445351e-05,0.12207495530023534,0.13748110481087308,0.1853300693973038,1.6440909316380639,0.13748281678318763,-0.1853477187799903,1.6440930147226043,0.19561494442293567,-0.0014546099161658887,-0.0014645657110511912,-0.08023468812258772,-0.08024502063177442,-0.08024502063177442,right_arm__right_thigh,0.2627432929904445,0.03179503673539588,0.03178821883341493,0.04026625646563929,0.04026761449283879,0.03178821883341493,right_arm__torso
10.776551325,0.0,0.0,0.0,0.0,1.5708,0.0,0.0,1.5708,-1.2600279554445351e-05,0.12207495530023534,0.13748110481087308,0.1853300693973038,1.6440909316380639,0.13748281678318763,-0.1853477187799903,1.6440930147226043,0.195614714952395,-0.0014547230635397201,-0.0014646787884964596,-0.08023479628154506,-0.08024512146303263,-0.08024512146303263,right_arm__right_thigh,0.26274306803353353,0.03179492366479861,0.03178810583292238,0.04026628286454291,0.04026765017742619,0.03178810583292238,right_arm__torso
10.80160466,0.0,0.0,0.0,0.0,1.5708,0.0,0.0,1.5708,-1.2600279554445351e-05,0.12207495530023534,0.13748110481087308,0.1853300693973038,1.6440909316380639,0.13748281678318763,-0.1853477187799903,1.6440930147226043,0.19561448892151231,-0.0014548345151271513,-0.0014647901709543554,-0.08023490290326157,-0.08024522058836628,-0.08024522058836628,right_arm__right_thigh,0.26274284644853263,0.031794812288989144,0.03178799452641565,0.04026630875708746,0.040267685572960246,0.03178799452641565,right_arm__torso
10.811838744000001,0.0,0.0,0.0,0.0,1.5708,0.0,0.0,1.5708,-1.2600279554445351e-05,0.12207495530023534,0.13748110481087308,0.1853300693973038,1.6440909316380639,0.13748281678318763,-0.1853477187799903,1.6440930147226043,0.19561448892151231,-0.0014548345151271513,-0.0014647901709543554,-0.08023490290326157,-0.08024522058836628,-0.08024522058836628,right_arm__right_thigh,0.26274284644853263,0.031794812288989144,0.03178799452641565,0.04026630875708746,0.040267685572960246,0.03178799452641565,right_arm__torso
10.82644948,0.0,0.0,0.0,0.0,1.5708,0.0,0.0,1.5708,-1.2055426044197115e-05,0.1233310724049061,0.13974140120851014,0.18443638222443948,1.645345941955484,0.13974292530284105,-0.18445366577451355,1.645347940898693,0.19561404726213014,-0.0014550522895771245,-0.001465007810002833,-0.08023511147788796,-0.08024541370010499,-0.08024541370010499,right_arm__right_thigh,0.2623999849685147,0.031654394614728465,0.031647512444977266,0.04100008297998088,0.0410011428981938,0.031647512444977266,right_arm__torso
10.84321863,0.0,0.0,0.0,0.0,1.5708,0.0,0.0,1.5708,-1.2055426044197115e-05,0.1233310724049061,0.13974140120851014,0.18443638222443948,1.645345941955484,0.13974292530284105,-0.18445366577451355,1.645347940898693,0.19561383223621245,-0.0014551583163084914,-0.001465113768642362,-0.08023521287276035,-0.08024550767691725,-0.08024550767691725,right_arm__right_thigh,0.26239977414187343,0.03165428863344741,0.031647406531960826,0.04100010900176042,0.04100117835691254,0.031647406531960826,right_arm__torso
10.859811789,0.0,0.0,0.0,0.0,1.5708,0.0,0.0,1.5708,-1.2055426044197115e-05,0.1233310724049061,0.13974140120851014,0.18443638222443948,1.645345941955484,0.13974292530284105,-0.18445366577451355,1.645347940898693,0.19561362122516426,-0.0014552623642019036,-0.0014652177482250284,-0.0802353123128642,-0.08024559982366998,-0.08024559982366998,right_arm__right_thigh,0.2623995672516143,0.03165418463029099,0.031647302597283766,0.041000134616015496,0.04100121324732185,0.031647302597283766,right_arm__torso
10.881167408000001,0.0,0.0,0.0,0.0,1.5708,0.0,0.0,1.5708,-1.2055426044197115e-05,0.1233310724049061,0.13974140120851014,0.18443638222443948,1.645345941955484,0.13974292530284105,-0.18445366577451355,1.645347940898693,0.19561341416704756,-0.0014553644634974494,-0.0014653197795617967,-0.08023540991005151,-0.08024569008696436,-0.08024569008696436,right_arm__right_thigh,0.26239936423701293,0.031654082575024334,0.031647200610140924,0.04100015972355146,0.04100124768362899,0.031647200610140924,right_arm__torso
10.894203644000001,0.0,0.0,0.0,0.0,1.5708,0.0,0.0,1.5708,-1.1525131082638202e-05,0.12433829968641501,0.14169859027914294,0.18319167189688793,1.6464026198264141,0.14169991549422095,-0.18320856431937704,1.6464045282255086,0.19561321103359117,-0.001455464627981684,-0.0014654198767263815,-0.0802355057041747,-0.0802457784536781,-0.0802457784536781,right_arm__right_thigh,0.2619337322410641,0.03144920555894004,0.03144225445579585,0.041499871395089497,0.04150062699684727,0.03144225445579585,right_arm__torso
10.911169887000002,0.0,0.0,0.0,0.0,1.5708,0.0,0.0,1.5708,-1.1525131082638202e-05,0.12433829968641501,0.14169859027914294,0.18319167189688793,1.6464026198264141,0.14169991549422095,-0.18320856431937704,1.6464045282255086,0.19561321103359117,-0.001455464627981684,-0.0014654198767263815,-0.0802355057041747,-0.0802457784536781,-0.0802457784536781,right_arm__right_thigh,0.2619337322410641,0.03144920555894004,0.03144225445579585,0.041499871395089497,0.04150062699684727,0.03144225445579585,right_arm__torso
10.926867356,0.0,0.0,0.0,0.0,1.5708,0.0,0.0,1.5708,-1.1525131082638202e-05,0.12433829968641501,0.14169859027914294,0.18319167189688793,1.6464026198264141,0.14169991549422095,-0.18320856431937704,1.6464045282255086,0.1956128174291806,-0.0014556587161991263,-0.001465613828851381,-0.0802356909918504,-0.08024594955188265,-0.08024594955188265,right_arm__right_thigh,0.2619333462425264,0.031449011495285756,0.031442060528570015,0.041499921478533056,0.04150069518634021,0.031442060528570015,right_arm__torso
10.94594401,0.0,0.0,0.0,0.0,1.5708,0.0,0.0,1.5708,-1.1525131082638202e-05,0.12433829968641501,0.14169859027914294,0.18319167189688793,1.6464026198264141,0.14169991549422095,-0.18320856431937704,1.6464045282255086,0.19561262680725164,-0.001455752713798858,-0.0014657077587637846,-0.08023578072372323,-0.08024603218748805,-0.08024603218748805,right_arm__right_thigh,0.26193315930400707,0.03144891750975129,0.03144196661088508,0.04149994573812228,0.041500728501402975,0.03144196661088508,right_arm__torso
10.960363223,0.0,0.0,0.0,0.0,1.5708,0.0,0.0,1.5708,-1.1011393485600904e-05,0.1251580595326387,0.1434077511388845,0.18174823384876979,1.6473022970299191,0.1434088617632129,-0.18176471749223427,1.647304106130019,0.195612440237819,-0.0014558447135386565,-0.0014657996914800853,-0.08023586858665345,-0.0802461128722923,-0.0802461128722923,right_arm__right_thigh,0.2613985487690821,0.031206858979695246,0.03119983550105518,0.041835948984325924,0.04183639517078312,0.03119983550105518,right_arm__torso
10.984375573000001,0.0,0.0,0.0,0.0,1.5708,0.0,0.0,1.5708,-1.1011393485600904e-05,0.1251580595326387,0.1434077511388845,0.18174823384876979,1.6473022970299191,0.1434088617632129,-0.18176471749223427,1.647304106130019,0.19561225769130305,-0.0014559347299384073,-0.0014658896416319678,-0.08023595459261569,-0.08024619162228029,-0.08024619162228029,right_arm__right_thigh,0.2613983697060346,0.03120676894504637,0.031199745532823203,0.04183597291855988,0.04183642840114431,0.031199745532823203,right_arm__torso
10.995925075,0.0,0.0,0.0,0.0,1.5708,0.0,0.0,1.5708,-1.1011393485600904e-05,0.1251580595326387,0.1434077511388845,0.18174823384876979,1.6473022970299191,0.1434088617632129,-0.18176471749223427,1.647304106130019,0.19561225769130305,-0.0014559347299384073,-0.0014658896416319678,-0.08023595459261569,-0.08024619162228029,-0.08024619162228029,right_arm__right_thigh,0.2613983697060346,0.03120676894504637,0.031199745532823203,0.04183597291855988,0.04183642840114431,0.031199745532823203,right_arm__torso
11.010705600000001,0.0,0.0,0.0,0.0,1.5708,0.0,0.0,1.5708,-1.1011393485600904e-05,0.1251580595326387,0.1434077511388845,0.18174823384876979,1.6473022970299191,0.1434088617632129,-0.18176471749223427,1.647304106130019,0.19561190524065872,-0.0014561085314021005,-0.001466063309987109,-0.08023612035343602,-0.08024634345785017,-0.08024634345785017,right_arm__right_thigh,0.2613980239809036,0.03120659510863738,0.031199571829849837,0.041836019520257686,0.041836492833972797,0.031199571829849837,right_arm__torso
11.027189733,0.0,0.0,0.0,0.0,1.5708,0.0,0.0,1.5708,-1.1011393485600904e-05,0.1251580595326387,0.1434077511388845,0.18174823384876979,1.6473022970299191,0.1434088617632129,-0.18176471749223427,1.647304106130019,0.1956117351624054,-0.0014561924018708372,-0.0014661471144298277,-0.0802362003205247,-0.08024641649543532,-0.08024641649543532,right_arm__right_thigh,0.261397857148026,0.031206511221441857,0.031199488008838178,0.04183604204114051,0.041836524228254304,0.031199488008838178,right_arm__torso
11.045416377,0.0,0.0,0.0,0.0,1.5708,0.0,0.0,1.5708,-1.0509839784589552e-05,0.125782959832092,0.14486896699489277,0.1800585342652597,1.6480442813314904,0.1448698497519244,-0.1800745924299508,1.6480459841704211,0.19561156909398067,-0.0014562742954744023,-0.0014662289426974062,-0.08023627841973067,-0.08024648762178727,-0.08024648762178727,right_arm__right_thigh,0.26077731985028474,0.03091855077799499,0.030911451750989444,0.04199375868931014,0.041993899729684744,0.030911451750989444,right_arm__torso
11.061405698000002,0.0,0.0,0.0,0.0,1.5708,0.0,0.0,1.5708,-1.0509839784589552e-05,0.125782959832092,0.14486896699489277,0.1800585342652597,1.6480442813314904,0.1448698497519244,-0.1800745924299508,1.6480459841704211,0.19561140698452537,-0.0014563542372321991,-0.0014663088199018126,-0.0802363546741445,-0.0802465568618175,-0.0802465568618175,right_arm__right_thigh,0.2607771607881547,0.030918470791010982,0.03091137182872572,0.04199378070145264,0.04199393075909695,0.03091137182872572,right_arm__torso
11.076633076,0.0,0.0,0.0,0.0,1.5708,0.0,0.0,1.5708,-1.0509839784589552e-05,0.125782959832092,0.14486896699489277,0.1800585342652597,1.6480442813314904,0.1448698497519244,-0.1800745924299508,1.6480459841704211,0.19561124894530343,-0.001456432172862565,-0.0014663866906241552,-0.08023642888327821,-0.0802466243112635,-0.0802466243112635,right_arm__right_thigh,0.26077700571969886,0.03091839281136799,0.030911293914154175,0.04199380233638973,0.04199396107958893,0.030911293914154175,right_arm__torso
11.093522397000001,0.0,0.0,0.0,0.0,1.5708,0.0,0.0,1.5708,-1.0509839784589552e-05,0.125782959832092,0.14486896699489277,0.1800585342652597,1.6480442813314904,0.1448698497519244,-0.1800745924299508,1.6480459841704211,0.19561109487763498,-0.0014565081507801336,-0.0014664626037267925,-0.08023650117063104,-0.08024668993967918,-0.08024668993967918,right_arm__right_thigh,0.26077685454809607,0.030918316790618017,0.03091121795837934,0.04199382350682017,0.04199399080469664,0.03091121795837934,right_arm__torso
11.110772545000001,0.0,0.0,0.0,0.0,1.5708,0.0,0.0,1.5708,-1.0509839784589552e-05,0.125782959832092,0.14486896699489277,0.1800585342652597,1.6480442813314904,0.1448698497519244,-0.1800745924299508,1.6480459841704211,0.19561094469457344,-0.00145658221364095,-0.0014665366022636739,-0.08023657162609305,-0.08024675373917131,-0.08024675373917131,right_arm__right_thigh,0.26077670718803747,0.030918242686075237,0.03091114391831723,0.0419938441604326,0.041994020009848074,0.03091114391831723,right_arm__torso
11.126673491,0.0,0.0,0.0,0.0,1.5708,0.0,0.0,1.5708,-1.0019660568673318e-05,0.12623810726820642,0.14610665419302882,0.1781758241955895,1.6486471881895475,0.1461072940318339,-0.17819144338873733,1.6486487771010592,0.1956107983266067,-0.0014566543955980005,-0.0014666087206041123,-0.08023664029786433,-0.08024681572710918,-0.08024681572710918,right_arm__right_thigh,0.2600890636552422,0.030593909354946852,0.030586732054752264,0.04199986258982487,0.041999692607696495,0.030586732054752264,right_arm__torso
11.145245498000001,0.0,0.0,0.0,0.0,1.5708,0.0,0.0,1.5708,-1.0019660568673318e-05,0.12623810726820642,0.14610665419302882,0.1781758241955895,1.6486471881895475,0.1461072940318339,-0.17819144338873733,1.6486487771010592,0.1956107983266067,-0.0014566543955980005,-0.0014666087206041123,-0.08023664029786433,-0.08024681572710918,-0.08024681572710918,right_arm__right_thigh,0.2600890636552422,0.030593909354946852,0.030586732054752264,0.04199986258982487,0.041999692607696495,0.030586732054752264,right_arm__torso
11.160004069000001,0.0,0.0,0.0,0.0,1.5708,0.0,0.0,1.5708,-1.0019660568673318e-05,0.12623810726820642,0.14610665419302882,0.1781758241955895,1.6486471881895475,0.1461072940318339,-0.17819144338873733,1.6486487771010592,0.19561065580003698,-0.0014567246838352033,-0.0014666789456258544,-0.08023670711366843,-0.08024687595106156,-0.08024687595106156,right_arm__right_thigh,0.2600889237626861,0.030593838999598028,0.03058666176278646,0.04199988268842807,0.04199972120609928,0.03058666176278646,right_arm__torso
11.176987226000001,0.0,0.0,0.0,0.0,1.5708,0.0,0.0,1.5708,-1.0019660568673318e-05,0.12623810726820642,0.14610665419302882,0.1781758241955895,1.6486471881895475,0.1461072940318339,-0.17819144338873733,1.6486487771010592,0.1956103819014847,-0.0014568597610151168,-0.0014668138982025791,-0.08023683543882786,-0.08024699119408465,-0.08024699119408465,right_arm__right_thigh,0.2600886549259076,0.030593703793624222,0.03058652668174025,0.04199992143519622,0.04199977682267102,0.03058652668174025,right_arm__torso
11.19534714,0.0,0.0,0.0,0.0,1.5708,0.0,0.0,1.5708,-1.0019660568673318e-05,0.12623810726820642,0.14610665419302882,0.1781758241955895,1.6486471881895475,0.1461072940318339,-0.17819144338873733,1.6486487771010592,0.19561025037703153,-0.0014569246249978296,-0.0014668787010208295,-0.0802368970387082,-0.08024704626642602,-0.08024704626642602,right_arm__right_thigh,0.2600885258320379,0.030593638867878165,0.030586461817315586,0.041999940079509565,0.04199980388594028,0.030586461817315586,right_arm__torso
11.210864472,0.0,0.0,0.0,0.0,1.5708,0.0,0.0,1.5708,-9.542413588239206e-06,0.12656538221249558,0.147157471120744,0.1762036415133866,1.6491394306690772,0.1471578509892258,-0.1762188119201217,1.649140896745973,0.19561012237900158,-0.0014569877502968454,-0.0014669417659817774,-0.0802369569720882,-0.0802470996823601,-0.0802470996823601,right_arm__right_thigh,0.25937046873204506,0.030251619780435446,0.030244362055957624,0.04190114928482612,0.0419006634965151,0.030244362055957624,right_arm__torso
11.226461122,0.0,0.0,0.0,0.0,1.5708,0.0,0.0,1.5708,-9.542413588239206e-06,0.12656538221249558,0.147157471120744,0.1762036415133866,1.6491394306690772,0.1471578509892258,-0.1762188119201217,1.649140896745973,0.19560999791331582,-0.001457049134370364,-0.0014670030897838693,-0.0802370151472303,-0.0802471515281151,-0.0802471515281151,right_arm__right_thigh,0.2593703465254683,0.03025155831340906,0.030244300649371086,0.041901167412782284,0.04190068981442639,0.030244300649371086,right_arm__torso
11.243990184000001,0.0,0.0,0.0,0.0,1.5708,0.0,0.0,1.5708,-9.542413588239206e-06,0.12656538221249558,0.147157471120744,0.1762036415133866,1.6491394306690772,0.1471578509892258,-0.1762188119201217,1.649140896745973,0.19560987688876305,-0.0014571088220368678,-0.0014670627175255857,-0.08023707165453331,-0.08024720179929123,-0.08024720179929123,right_arm__right_thigh,0.2593702276975385,0.030251498545129013,0.030244240941181222,0.041901185127652466,0.04190071559766044,0.030244240941181222,right_arm__torso
11.262317524,0.0,0.0,0.0,0.0,1.5708,0.0,0.0,1.5708,-9.542413588239206e-06,0.12656538221249558,0.147157471120744,0.1762036415133866,1.6491394306690772,0.1471578509892258,-0.1762188119201217,1.649140896745973,0.19560975922109727,-0.0014571668546916605,-0.0014671206908624668,-0.0802371265641929,-0.08024725050512836,-0.08024725050512836,right_arm__right_thigh,0.25937011216554096,0.030251440434140298,0.03024418288967262,0.04190120240087235,0.04190074089786598,0.03024418288967262,right_arm__torso
11.277589568000002,0.0,0.0,0.0,0.0,1.5708,0.0,0.0,1.5708,-9.542413588239206e-06,0.12656538221249558,0.147157471120744,0.1762036415133866,1.6491394306690772,0.1471578509892258,-0.1762188119201217,1.649140896745973,0.1956096448344368,-0.0014572232696631326,-0.0014671770472708678,-0.08023717992202581,-0.08024729767136417,-0.08024729767136417,right_arm__right_thigh,0.25936999985497333,0.030251383943060317,0.03024412645731442,0.04190121922957908,0.0419007657386984,0.03024412645731442,right_arm__torso
11.293143442,0.0,0.0,0.0,0.0,1.5708,0.0,0.0,1.5708,-9.073054748414982e-06,0.12675359278481105,0.1480208735276446,0.17404685942109954,1.6495168520234635,0.14802097890999716,-0.17406157310359743,1.6495181888887835,0.19560953365581255,-0.0014572781028803217,-0.0014672318227554049,-0.080237231762615,-0.08024734333222455,-0.08024734333222455,right_arm__right_thigh,0.25858745461140475,0.02987454090748215,0.0298672010227837,0.04166949785030359,0.04166869052302251,0.0298672010227837,right_arm__torso
11.314369972000001,0.0,0.0,0.0,0.0,1.5708,0.0,0.0,1.5708,-9.073054748414982e-06,0.12675359278481105,0.1480208735276446,0.17404685942109954,1.6495168520234635,0.14802097890999716,-0.17406157310359743,1.6495181888887835,0.19560953365581255,-0.0014572781028803217,-0.0014672318227554049,-0.080237231762615,-0.08024734333222455,-0.08024734333222455,right_arm__right_thigh,0.25858745461140475,0.02987454090748215,0.0298672010227837,0.04166949785030359,0.04166869052302251,0.0298672010227837,right_arm__torso
11.329277379,0.0,0.0,0.0,0.0,1.5708,0.0,0.0,1.5708,-9.073054748414982e-06,0.12675359278481105,0.1480208735276446,0.17404685942109954,1.6495168520234635,0.14802097890999716,-0.17406157310359743,1.6495181888887835,0.1956094256127879,-0.0014573313900295704,-0.0014672850530385861,-0.08023728211679401,-0.08024738752518171,-0.08024738752518171,right_arm__right_thigh,0.2585873484905953,0.029874487525861276,0.029867147698199148,0.04166951405040241,0.04166871472614252,0.029867147698199148,right_arm__torso
11.344451603000001,0.0,0.0,0.0,0.0,1.5708,0.0,0.0,1.5708,-9.073054748414982e-06,0.12675359278481105,0.1480208735276446,0.17404685942109954,1.6495168520234635,0.14802097890999716,-0.17406157310359743,1.6495181888887835,0.1956093207546765,-0.0014573831071238719,-0.0014673367134857562,-0.08023733093712568,-0.08024743025126352,-0.08024743025126352,right_arm__right_thigh,0.2585872454980145,0.029874435717114317,0.029867095946267158,0.04166952985163934,0.041668738442733236,0.029867095946267158,right_arm__torso
11.360677846000002,0.0,0.0,0.0,0.0,1.5708,0.0,0.0,1.5708,-9.073054748414982e-06,0.12675359278481105,0.1480208735276446,0.17404685942109954,1.6495168520234635,0.14802097890999716,-0.17406157310359743,1.6495181888887835,0.1956092190511136,-0.0014574332690600877,-0.0014673868191312778,-0.08023737823665605,-0.080247471526086,-0.080247471526086,right_arm__right_thigh,0.25858714560383955,0.02987438546631474,0.02986704575192342,0.04166954525979448,0.04166876167540999,0.02986704575192342,right_arm__torso
11.379496301000001,0.0,0.0,0.0,0.0,1.5708,0.0,0.0,1.5708,-9.073054748414982e-06,0.12675359278481105,0.1480208735276446,0.17404685942109954,1.6495168520234635,0.14802097890999716,-0.17406157310359743,1.6495181888887835,0.1956091204235437,-0.001457481914492298,-0.0014674354087632624,-0.08023742405477029,-0.08024751138433112,-0.08024751138433112,right_arm__right_thigh,0.25858704873091465,0.02987433673473716,0.02986699707630827,0.04166956028252876,0.04166878443822024,0.02986699707630827,right_arm__torso
11.39395773,0.0,0.0,0.0,0.0,1.5708,0.0,0.0,1.5708,-8.613554999834709e-06,0.12683839713865105,0.14872677518971147,0.17180265389220495,1.649803552633353,0.148726589610566,-0.17181690560736174,1.6498047525328925,0.19560893202875299,-0.0014575748368378383,-0.001467528221416936,-0.08023751142975886,-0.08024758701466192,-0.08024758701466192,right_arm__right_thigh,0.2577743958857053,0.029480177972653815,0.02947275465610255,0.0413468054096479,0.04134567975393923,0.02947275465610255,right_arm__torso
11.410163832,0.0,0.0,0.0,0.0,1.5708,0.0,0.0,1.5708,-8.613554999834709e-06,0.12683839713865105,0.14872677518971147,0.17180265389220495,1.649803552633353,0.148726589610566,-0.17181690560736174,1.6498047525328925,0.19560884217947752,-0.0014576191540203176,-0.0014675724850581884,-0.08023755301588312,-0.08024762283490591,-0.08024762283490591,right_arm__right_thigh,0.257774307601647,0.02948013355792578,0.02947271029508633,0.04134681950418022,0.04134570136323153,0.02947271029508633,right_arm__torso
11.42784784,0.0,0.0,0.0,0.0,1.5708,0.0,0.0,1.5708,-8.613554999834709e-06,0.12683839713865105,0.14872677518971147,0.17180265389220495,1.649803552633353,0.148726589610566,-0.17181690560736174,1.6498047525328925,0.19560875511971657,-0.001457662095680795,-0.001467615374122766,-0.08023759325604109,-0.0802476573732354,-0.0802476573732354,right_arm__right_thigh,0.257774222058494,0.029480090521771946,0.02947266731169526,0.04134683324995146,0.04134572254076617,0.02947266731169526,right_arm__torso
11.444507824,0.0,0.0,0.0,0.0,1.5708,0.0,0.0,1.5708,-8.613554999834709e-06,0.12683839713865105,0.14872677518971147,0.17180265389220495,1.649803552633353,0.148726589610566,-0.17181690560736174,1.6498047525328925,0.1956086707390469,-0.001457703716245734,-0.0014676569430454312,-0.08023763220716426,-0.08024769067680408,-0.08024769067680408,right_arm__right_thigh,0.2577741391477477,0.02948004880964364,0.029472625651372597,0.04134684665584447,0.04134574330833203,0.029472625651372597,right_arm__torso
11.459861802,0.0,0.0,0.0,0.0,1.5708,0.0,0.0,1.5708,-8.163734675567662e-06,0.12683820624245606,0.14929427394774838,0.16949586877603984,1.6500129787681084,0.14929378078072122,-0.1695096558875451,1.650014034047957,0.195608588935368,-0.0014577440660434038,-0.0014676972421541201,-0.0802376699190919,-0.08024772279201485,-0.08024772279201485,right_arm__right_thigh,0.256940248304949,0.02907322195267739,0.029065714225829736,0.04094883928514155,0.040947375378931325,0.029065714225829736,right_arm__torso
11.483699233000001,0.0,0.0,0.0,0.0,1.5708,0.0,0.0,1.5708,-8.163734675567662e-06,0.12683820624245606,0.14929427394774838,0.16949586877603984,1.6500129787681084,0.14929378078072122,-0.1695096558875451,1.650014034047957,0.19560850964860657,-0.0014577831747319414,-0.0014677363010130728,-0.08023770641896183,-0.08024775374837272,-0.08024775374837272,right_arm__right_thigh,0.2569401703695179,0.029073182740998682,0.02906567506415411,0.04094885217564413,0.04094739552159975,0.02906567506415411,right_arm__torso
11.493116745,0.0,0.0,0.0,0.0,1.5708,0.0,0.0,1.5708,-8.163734675567662e-06,0.12683820624245606,0.14929427394774838,0.16949586877603984,1.6500129787681084,0.14929378078072122,-0.1695096558875451,1.650014034047957,0.19560843279605686,-0.0014578210830937244,-0.001467774160375579,-0.08023774174386011,-0.08024778358675765,-0.08024778358675765,right_arm__right_thigh,0.25694009482679936,0.02907314473282696,0.02906563710515167,0.0409488647612815,0.040947415285277886,0.02906563710515167,right_arm__torso
11.509849115000002,0.0,0.0,0.0,0.0,1.5708,0.0,0.0,1.5708,-8.163734675567662e-06,0.12683820624245606,0.14929427394774838,0.16949586877603984,1.6500129787681084,0.14929378078072122,-0.1695096558875451,1.650014034047957,0.1956083582913787,-0.0014578578336905124,-0.0014678108627986797,-0.08023777593378861,-0.08024781234855657,-0.08024781234855657,right_arm__right_thigh,0.2569400215919261,0.02907310788548667,0.029065600306151546,0.04094887705499513,0.04094743468106703,0.029065600306151546,right_arm__torso
11.52749391,0.0,0.0,0.0,0.0,1.5708,0.0,0.0,1.5708,-8.163734675567662e-06,0.12683820624245606,0.14929427394774838,0.16949586877603984,1.6500129787681084,0.14929378078072122,-0.1695096558875451,1.650014034047957,0.19560828605144845,-0.0014578934674948363,-0.0014678464492580978,-0.0802378090278679,-0.0802478400730063,-0.0802478400730063,right_arm__right_thigh,0.25693995058319163,0.029073072157895702,0.02906556462606863,0.040948889068432484,0.04094745372046586,0.02906556462606863,right_arm__torso
11.543828483,0.0,0.0,0.0,0.0,1.5708,0.0,0.0,1.5708,-7.724793405676066e-06,0.12677137913015593,0.14973992646864714,0.1671899466986378,1.6501586367612948,0.14973910866863444,-0.16720326723444542,1.65015953894895,0.19560821602946152,-0.0014579280075924794,-0.0014678809428095296,-0.08023784105569765,-0.0802478667746424,-0.0802478667746424,right_arm__right_thigh,0.2561073076282291,0.028664996935098774,0.028657404069810016,0.04050072104355705,0.04049892219563821,0.028657404069810016,right_arm__torso
11.56031029,0.0,0.0,0.0,0.0,1.5708,0.0,0.0,1.5708,-7.724793405676066e-06,0.12677137913015593,0.14973992646864714,0.1671899466986378,1.6501586367612948,0.14973910866863444,-0.16720326723444542,1.65015953894895,0.19560814816105374,-0.0014579614857293532,-0.0014679143751608337,-0.08023787204146976,-0.08024789248995365,-0.08024789248995365,right_arm__right_thigh,0.2561072408912406,0.028664963354619266,0.02865737053528855,0.04050073261205743,0.04049894068429773,0.02865737053528855,right_arm__torso
11.579643096,0.0,0.0,0.0,0.0,1.5708,0.0,0.0,1.5708,-7.724793405676066e-06,0.12677137913015593,0.14973992646864714,0.1671899466986378,1.6501586367612948,0.14973910866863444,-0.16720326723444542,1.65015953894895,0.195608082373076,-0.0014579939379679718,-0.001467946782364199,-0.08023790201637056,-0.08024791725670999,-0.08024791725670999,right_arm__right_thigh,0.25610717619999146,0.028664930803188438,0.028657338029062118,0.040500743928398183,0.040498958839243634,0.028657338029062118,right_arm__torso
11.596080924,0.0,0.0,0.0,0.0,1.5708,0.0,0.0,1.5708,-7.724793405676066e-06,0.12677137913015593,0.14973992646864714,0.1671899466986378,1.6501586367612948,0.14973910866863444,-0.16720326723444542,1.65015953894895,0.19560801859264307,-0.0014580254002327375,-0.0014679782003498287,-0.08023793101400542,-0.08024794111001246,-0.08024794111001246,right_arm__right_thigh,0.2561071134828121,0.028664899244770642,0.028657306515089326,0.04050075500371915,0.04049897666963943,0.028657306515089326,right_arm__torso
11.612741503,0.0,0.0,0.0,0.0,1.5708,0.0,0.0,1.5708,-7.295932256124059e-06,0.1266440767110492,0.15007515065953067,0.16486073246439675,1.6502461924206369,0.15007398525241908,-0.16487358875057448,1.6502469303724048,0.19560795677816947,-0.0014580558930016585,-0.001468008649636643,-0.08023795907096487,-0.08024796405248412,-0.08024796405248412,right_arm__right_thigh,0.25526693029251624,0.028251332173153787,0.028243654079561475,0.04000055202596285,0.03999840577900314,0.028243654079561475,right_arm__torso
11.631482303,0.0,0.0,0.0,0.0,1.5708,0.0,0.0,1.5708,-7.295932256124059e-06,0.1266440767110492,0.15007515065953067,0.16486073246439675,1.6502461924206369,0.15007398525241908,-0.16487358875057448,1.6502469303724048,0.19560789687738142,-0.001458085442070045,-0.0014680381559636635,-0.08023798620098833,-0.0802479861196715,-0.0802479861196715,right_arm__right_thigh,0.2552668713680246,0.02825130252133387,0.02824362447065709,0.040000562696177314,0.03999842312024095,0.02824362447065709,right_arm__torso
11.643193570000001,0.0,0.0,0.0,0.0,1.5708,0.0,0.0,1.5708,-7.295932256124059e-06,0.1266440767110492,0.15007515065953067,0.16486073246439675,1.6502461924206369,0.15007398525241908,-0.16487358875057448,1.6502469303724048,0.19560789687738142,-0.001458085442070045,-0.0014680381559636635,-0.08023798620098833,-0.0802479861196715,-0.0802479861196715,right_arm__right_thigh,0.2552668713680246,0.02825130252133387,0.02824362447065709,0.040000562696177314,0.03999842312024095,0.02824362447065709,right_arm__torso
11.659781072000001,0.0,0.0,0.0,0.0,1.5708,0.0,0.0,1.5708,-7.295932256124059e-06,0.1266440767110492,0.15007515065953067,0.16486073246439675,1.6502461924206369,0.15007398525241908,-0.16487358875057448,1.6502469303724048,0.19560778255690828,-0.0014581418372823507,-0.0014680944678402696,-0.08023803778196054,-0.08024802777151505,-0.08024802777151505,right_arm__right_thigh,0.2552667589107911,0.028251245930049546,0.028243567963047084,0.040000583393627706,0.039998456901341364,0.028243567963047084,right_arm__torso
11.676286821000001,0.0,0.0,0.0,0.0,1.5708,0.0,0.0,1.5708,-6.877881093481481e-06,0.12646336724240367,0.15030640775148757,0.1625615757878712,1.6502820663247868,0.1503048720496753,-0.1625739692865651,1.6502826282642833,0.1956077280079859,-0.0014581687471252047,-0.0014681213371014468,-0.08023806229242095,-0.08024804741848765,-0.08024804741848765,right_arm__right_thigh,0.2544381303791622,0.02784178213684682,0.027834018607464983,0.0394652427041914,0.039462743552522286,0.027834018607464983,right_arm__torso
11.693084061,0.0,0.0,0.0,0.0,1.5708,0.0,0.0,1.5708,-6.877881093481481e-06,0.12646336724240367,0.15030640775148757,0.1625615757878712,1.6502820663247868,0.1503048720496753,-0.1625739692865651,1.6502826282642833,0.1956076751527678,-0.001458194821541664,-0.001468147371999906,-0.0802380860190875,-0.08024806625441809,-0.08024806625441809,right_arm__right_thigh,0.25443807836621024,0.02784175596114083,0.027833992471450242,0.039465252569744466,0.03946275988521385,0.027833992471450242,right_arm__torso
11.709846246000001,0.0,0.0,0.0,0.0,1.5708,0.0,0.0,1.5708,-6.877881093481481e-06,0.12646336724240367,0.15030640775148757,0.1625615757878712,1.6502820663247868,0.1503048720496753,-0.1625739692865651,1.6502826282642833,0.1956076239511607,-0.0014582200803849865,-0.0014681725922085775,-0.08023810895038197,-0.08024808432869221,-0.08024808432869221,right_arm__right_thigh,0.2544380279805133,0.027841730604184767,0.027833967153298195,0.039465262224441425,0.03946277596339344,0.027833967153298195,right_arm__torso
11.727024501,0.0,0.0,0.0,0.0,1.5708,0.0,0.0,1.5708,-6.877881093481481e-06,0.12646336724240367,0.15030640775148757,0.1625615757878712,1.6502820663247868,0.1503048720496753,-0.1625739692865651,1.6502826282642833,0.19560757434682477,-0.0014582445514931819,-0.0014681970254331322,-0.080238131094407,-0.08024810168632057,-0.08024810168632057,right_arm__right_thigh,0.2544379791666296,0.02784170603803174,0.027833942625194508,0.039465271700851276,0.03946279177011282,0.027833942625194508,right_arm__torso
11.743903679,0.0,0.0,0.0,0.0,1.5708,0.0,0.0,1.5708,-6.4683665761285555e-06,0.1262372845071519,0.1504463816936752,0.1602709679814074,1.6502726690763039,0.15044445805962017,-0.16028290136311857,1.6502730469902014,0.19560752628039849,-0.0014582682641555988,-0.001468220700906936,-0.08023815247353602,-0.08024811836088808,-0.08024811836088808,right_arm__right_thigh,0.2536130541285817,0.027432612548683954,0.027424763673824237,0.038894508630748434,0.03889165303418517,0.027424763673824237,right_arm__torso
11.766276093,0.0,0.0,0.0,0.0,1.5708,0.0,0.0,1.5708,-6.4683665761285555e-06,0.1262372845071519,0.1504463816936752,0.1602709679814074,1.6502726690763039,0.15044445805962017,-0.16028290136311857,1.6502730469902014,0.19560747972478296,-0.0014582912315595498,-0.0014682436321583614,-0.08023817315279602,-0.08024813431292262,-0.08024813431292262,right_arm__right_thigh,0.25361300829819466,0.027432589482907138,0.027424740644369977,0.03889451778457016,0.03889166846112811,0.027424740644369977,right_arm__torso
11.77983906,0.0,0.0,0.0,0.0,1.5708,0.0,0.0,1.5708,-6.4683665761285555e-06,0.1262372845071519,0.1504463816936752,0.1602709679814074,1.6502726690763039,0.15044445805962017,-0.16028290136311857,1.6502730469902014,0.19560743464394179,-0.0014583134715717982,-0.0014682658368473656,-0.08023819311681366,-0.08024814959178077,-0.08024814959178077,right_arm__right_thigh,0.2536129639196044,0.027432567147644277,0.027424718344596227,0.03889452675884432,0.03889168365345906,0.027424718344596227,right_arm__torso
11.793801943,0.0,0.0,0.0,0.0,1.5708,0.0,0.0,1.5708,-6.4683665761285555e-06,0.1262372845071519,0.1504463816936752,0.1602709679814074,1.6502726690763039,0.15044445805962017,-0.16028290136311857,1.6502730469902014,0.19560743464394179,-0.0014583134715717982,-0.0014682658368473656,-0.08023819311681366,-0.08024814959178077,-0.08024814959178077,right_arm__right_thigh,0.2536129639196044,0.027432567147644277,0.027424718344596227,0.03889452675884432,0.03889168365345906,0.027424718344596227,right_arm__torso
11.810196623000001,0.0,0.0,0.0,0.0,1.5708,0.0,0.0,1.5708,-6.4683665761285555e-06,0.1262372845071519,0.1504463816936752,0.1602709679814074,1.6502726690763039,0.15044445805962017,-0.16028290136311857,1.6502730469902014,0.1956073486910633,-0.001458355875911449,-0.001468308172522581,-0.08023823093860048,-0.08024817829365981,-0.08024817829365981,right_arm__right_thigh,0.253612879305654,0.02743252456171144,0.02742467582765007,0.03889454428211721,0.03889171328039927,0.02742467582765007,right_arm__torso
11.827912306,0.0,0.0,0.0,0.0,1.5708,0.0,0.0,1.5708,-6.068400678477338e-06,0.1259715294404707,0.1504997673449426,0.15805094800961658,1.65022350653205,0.1504974423981029,-0.1580624200493353,1.65022369314666,0.1956073077099346,-0.001458376094052305,-0.0014683283572458627,-0.0802382488440101,-0.08024819177187628,-0.08024819177187628,right_arm__right_thigh,0.2528139252627246,0.02703496811256567,0.02702703335185286,0.03830655581713509,0.03830334646960394,0.02702703335185286,right_arm__torso
11.845516011,0.0,0.0,0.0,0.0,1.5708,0.0,0.0,1.5708,-6.068400678477338e-06,0.1259715294404707,0.1504997673449426,0.15805094800961658,1.65022350653205,0.1504974423981029,-0.1580624200493353,1.65022369314666,0.19560726802347558,-0.0014583956736329562,-0.0014683479041353587,-0.08023826613084431,-0.08024820465004315,-0.08024820465004315,right_arm__right_thigh,0.2528138861808862,0.027034948441700485,0.027027013713842363,0.038306564279655356,0.03830336080081061,0.027027013713842363,right_arm__torso
11.860212151,0.0,0.0,0.0,0.0,1.5708,0.0,0.0,1.5708,-6.068400678477338e-06,0.1259715294404707,0.1504997673449426,0.15805094800961658,1.65022350653205,0.1504974423981029,-0.1580624200493353,1.65022369314666,0.19560722960444102,-0.0014584146281285681,-0.0014683668265758898,-0.08023828279606711,-0.08024821695689277,-0.08024821695689277,right_arm__right_thigh,0.25281384834716014,0.02703492939883953,0.02702699470319664,0.03830657259788421,0.03830337492114029,0.02702699470319664,right_arm__torso
11.877972686000001,0.0,0.0,0.0,0.0,1.5708,0.0,0.0,1.5708,-6.068400678477338e-06,0.1259715294404707,0.1504997673449426,0.15805094800961658,1.65022350653205,0.1504974423981029,-0.1580624200493353,1.65022369314666,0.19560719240723903,-0.0014584329800391427,-0.0014683851470155274,-0.08023829885161608,-0.08024822872346879,-0.08024822872346879,right_arm__right_thigh,0.25281381171664963,0.027034910961377473,0.02702697629736256,0.03830658079095685,0.03830338882396765,0.02702697629736256,right_arm__torso
11.893382164,0.0,0.0,0.0,0.0,1.5708,0.0,0.0,1.5708,-6.068400678477338e-06,0.1259715294404707,0.1504997673449426,0.15805094800961658,1.65022350653205,0.1504974423981029,-0.1580624200493353,1.65022369314666,0.19560715638258377,-0.0014584507536647418,-0.0014684028897439527,-0.08023831431843612,-0.08024823997528621,-0.08024823997528621,right_arm__right_thigh,0.2528137762408198,0.02703489310490051,0.027026958471936785,0.0383065888687147,0.03830340251297566,0.027026958471936785,right_arm__torso
11.912813352,0.0,0.0,0.0,0.0,1.5708,0.0,0.0,1.5708,-5.675674524088504e-06,0.1256869401366107,0.1504948822583203,0.15582630721048152,1.6501479800891752,0.15049214266587446,-0.15583732516326318,1.6501479709617015,0.19560712151610796,-0.0014584679557601843,-0.0014684200621703503,-0.08023832928566049,-0.080248250636764,-0.080248250636764,right_arm__right_thigh,0.25201345420621146,0.02663569261802068,0.026627672973488392,0.037695267400060115,0.03769170232117096,0.026627672973488392,right_arm__torso
11.927381254,0.0,0.0,0.0,0.0,1.5708,0.0,0.0,1.5708,-5.675674524088504e-06,0.1256869401366107,0.1504948822583203,0.15582630721048152,1.6501479800891752,0.15049214266587446,-0.15583732516326318,1.6501479709617015,0.19560708778187355,-0.001458484599269283,-0.0014684366769225077,-0.08023834371317601,-0.08024826077248207,-0.08024826077248207,right_arm__right_thigh,0.2520134209744693,0.026635675890694877,0.026627656275072215,0.03769527516685105,0.03769171582217716,0.026627656275072215,right_arm__torso
11.950199851,0.0,0.0,0.0,0.0,1.5708,0.0,0.0,1.5708,-5.675674524088504e-06,0.1256869401366107,0.1504948822583203,0.15582630721048152,1.6501479800891752,0.15049214266587446,-0.15583732516326318,1.6501479709617015,0.19560705513552215,-0.0014585007061808375,-0.00146845275574356,-0.08023835759008172,-0.08024827043516077,-0.08024827043516077,right_arm__right_thigh,0.2520133888144034,0.0266356597026724,0.026627640115289203,0.037695282833313734,0.037691729119361264,0.026627640115289203,right_arm__torso
11.961718584000002,0.0,0.0,0.0,0.0,1.5708,0.0,0.0,1.5708,-5.675674524088504e-06,0.1256869401366107,0.1504948822583203,0.15582630721048152,1.6501479800891752,0.15049214266587446,-0.15583732516326318,1.6501479709617015,0.19560702352967088,-0.0014585162999082024,-0.0014684683219340633,-0.08023837092908809,-0.08024827965675599,-0.08024827965675599,right_arm__right_thigh,0.25201335767933675,0.026635644030421707,0.026627624470721367,0.03769529041896476,0.037691742206122994,0.026627624470721367,right_arm__torso
11.978750394,0.0,0.0,0.0,0.0,1.5708,0.0,0.0,1.5708,-5.675674524088504e-06,0.1256869401366107,0.1504948822583203,0.15582630721048152,1.6501479800891752,0.15049214266587446,-0.15583732516326318,1.6501479709617015,0.19560699292080233,-0.0014585314019214535,-0.001468483396926873,-0.08023838375138288,-0.0802482884571029,-0.0802482884571029,right_arm__right_thigh,0.2520133275264005,0.026635628852364257,0.026627609319827522,0.03769529792885255,0.037691755089275594,0.026627609319827522,right_arm__torso
11.993818817000001,0.0,0.0,0.0,0.0,1.5708,0.0,0.0,1.5708,-5.675674524088504e-06,0.1256869401366107,0.1504948822583203,0.15582630721048152,1.6501479800891752,0.15049214266587446,-0.15583732516326318,1.6501479709617015,0.19560696327076113,-0.001458546031029545,-0.0014684979995296665,-0.08023839607900407,-0.08024829685013382,-0.08024829685013382,right_arm__right_thigh,0.2520132983180078,0.02663561414959628,0.026627594643705094,0.03769530536271519,0.03769176777948023,0.026627594643705094,right_arm__torso
12.009826265000001,0.0,0.0,0.0,0.0,1.5708,0.0,0.0,1.5708,-5.291553066332761e-06,0.12538205686579937,0.1504297792632117,0.15365485066915913,1.6500470980131303,0.15042661316184233,-0.1536654177599157,1.6500468875715337,0.19560693458245207,-0.0014585601858598252,-0.0014685121282509428,-0.08023840792480502,-0.08024830482027898,-0.08024830482027898,right_arm__right_thigh,0.25123243599030265,0.026245121102694752,0.026237016882150993,0.0370742737742981,0.03707035606372942,0.026237016882150993,right_arm__torso
12.027864119,0.0,0.0,0.0,0.0,1.5708,0.0,0.0,1.5708,-5.291553066332761e-06,0.12538205686579937,0.1504297792632117,0.15365485066915913,1.6500470980131303,0.15042661316184233,-0.1536654177599157,1.6500468875715337,0.19560690684032886,-0.0014585738740640897,-0.001468525790765396,-0.08023841929715572,-0.08024831237383712,-0.08024831237383712,right_arm__right_thigh,0.2512324086523342,0.026245107340648555,0.02623700314593841,0.037074281082457736,0.03707036848750013,0.02623700314593841,right_arm__torso
12.044882987000001,0.0,0.0,0.0,0.0,1.5708,0.0,0.0,1.5708,-5.291553066332761e-06,0.12538205686579937,0.1504297792632117,0.15365485066915913,1.6500470980131303,0.15042661316184233,-0.1536654177599157,1.6500468875715337,0.1956068800087664,-0.0014585871131819195,-0.001468539004655739,-0.08023843021325401,-0.08024831952719613,-0.08024831952719613,right_arm__right_thigh,0.2512323822116598,0.02624509403011388,0.026236989860772386,0.037074288301023786,0.03707038074665957,0.026236989860772386,right_arm__torso
12.060060892000001,0.0,0.0,0.0,0.0,1.5708,0.0,0.0,1.5708,-5.291553066332761e-06,0.12538205686579937,0.1504297792632117,0.15365485066915913,1.6500470980131303,0.15042661316184233,-0.1536654177599157,1.6500468875715337,0.19560685404829872,-0.0014585999226479074,-0.001468551789396061,-0.08023844069243659,-0.08024832629822351,-0.08024832629822351,right_arm__right_thigh,0.2512323566293886,0.02624508115155097,0.026236977007073337,0.037074295434311386,0.03707039284757076,0.026236977007073337,right_arm__torso
12.077265425,0.0,0.0,0.0,0.0,1.5708,0.0,0.0,1.5708,-4.915786644470399e-06,0.12508029334710302,0.15033230511046547,0.1514996787383678,1.6499358722688335,0.15032869942824056,-0.1515098063613266,1.6499354562813642,0.1956068289623776,-0.001458612300820672,-0.00146856414322441,-0.08023845073230591,-0.08024833268608537,-0.08024833268608537,right_arm__right_thigh,0.25045738035583365,0.02585698056434163,0.025848793491712485,0.0364479849688928,0.036443703098140004,0.025848793491712485,right_arm__torso
12.09491593,0.0,0.0,0.0,0.0,1.5708,0.0,0.0,1.5708,-4.915786644470399e-06,0.12508029334710302,0.15033230511046547,0.1514996787383678,1.6499358722688335,0.15032869942824056,-0.1515098063613266,1.6499354562813642,0.19560680393822075,-0.00145862465148755,-0.0014685764636686582,-0.0802384598414493,-0.08024833994807375,-0.08024833994807375,right_arm__right_thigh,0.25045735568820926,0.02585696814271285,0.025848781100483637,0.0364479932981462,0.03644371387788749,0.025848781100483637,right_arm__torso
12.109858149,0.0,0.0,0.0,0.0,1.5708,0.0,0.0,1.5708,-4.915786644470399e-06,0.12508029334710302,0.15033230511046547,0.1514996787383678,1.6499358722688335,0.15032869942824056,-0.1515098063613266,1.6499354562813642,0.195606779728252,-0.00145863660074802,-0.0014685883828206014,-0.08023846872084484,-0.08024834667421948,-0.08024834667421948,right_arm__right_thigh,0.25045733182317154,0.025856956124798658,0.025848769112854553,0.036448001306582364,0.03644372475182482,0.025848769112854553,right_arm__torso
12.128551058000001,0.0,0.0,0.0,0.0,1.5708,0.0,0.0,1.5708,-4.915786644470399e-06,0.12508029334710302,0.15033230511046547,0.1514996787383678,1.6499358722688335,0.15032869942824056,-0.1515098063613266,1.6499354562813642,0.1956067562891757,-0.0014586481696795273,-0.0014685999222874002,-0.08023847734023817,-0.08024835293559332,-0.08024835293559332,right_arm__right_thigh,0.25045730871804206,0.02585694448940054,0.025848757507093756,0.03644800906825503,0.03644373565752278,0.025848757507093756,right_arm__torso
12.145082949,0.0,0.0,0.0,0.0,1.5708,0.0,0.0,1.5708,-4.915786644470399e-06,0.12508029334710302,0.15033230511046547,0.1514996787383678,1.6499358722688335,0.15032869942824056,-0.1515098063613266,1.6499354562813642,0.19560673358962463,-0.0014586593735821385,-0.0014686110976935007,-0.08023848568050447,-0.08024835878089606,-0.08024835878089606,right_arm__right_thigh,0.25045728634190056,0.02585693322113025,0.025848746267486983,0.036448016633077826,0.03644374655348746,0.025848746267486983,right_arm__torso
12.159792323000001,0.0,0.0,0.0,0.0,1.5708,0.0,0.0,1.5708,-4.548944363509267e-06,0.12477042247059171,0.15019217533548138,0.1494077785421742,1.6498092363545862,0.1501881188132212,-0.14941747216265885,1.6498086094181474,0.19560671160699664,-0.0014586702235025173,-0.0014686219202751094,-0.0802384937295401,-0.08024836424354759,-0.08024836424354759,right_arm__right_thigh,0.24970524573185157,0.02547956020382719,0.025471291062612145,0.03582249977968398,0.03581784879037862,0.025471291062612145,right_arm__torso
12.177249254000001,0.0,0.0,0.0,0.0,1.5708,0.0,0.0,1.5708,-4.548944363509267e-06,0.12477042247059171,0.15019217533548138,0.1494077785421742,1.6498092363545862,0.1501881188132212,-0.14941747216265885,1.6498086094181474,0.19560669041241388,-0.001458680684358532,-0.001468632354995586,-0.08023850144246902,-0.08024836930143664,-0.08024836930143664,right_arm__right_thigh,0.24970522483271793,0.025479549679362473,0.025471280564444115,0.03582250709080924,0.03581785966253233,0.025471280564444115,right_arm__torso
12.194341108000001,0.0,0.0,0.0,0.0,1.5708,0.0,0.0,1.5708,-4.548944363509267e-06,0.12477042247059171,0.15019217533548138,0.1494077785421742,1.6498092363545862,0.1501881188132212,-0.14941747216265885,1.6498086094181474,0.19560666998259066,-0.0014586907676317484,-0.0014686424133301679,-0.08023850882020123,-0.0802483739756118,-0.0802483739756118,right_arm__right_thigh,0.24970520468768245,0.025479539534777884,0.025471270444951927,0.03582251426208487,0.035817870462650905,0.025471270444951927,right_arm__torso
12.210073398,0.0,0.0,0.0,0.0,1.5708,0.0,0.0,1.5708,-4.548944363509267e-06,0.12477042247059171,0.15019217533548138,0.1494077785421742,1.6498092363545862,0.1501881188132212,-0.14941747216265885,1.6498086094181474,0.19560665028034344,-0.0014587004916680746,-0.001468652113591734,-0.08023851587287961,-0.0802483782909825,-0.0802483782909825,right_arm__right_thigh,0.24970518526007981,0.02547952975161577,0.02547126068571115,0.035822521308519054,0.03581788118562727,0.02547126068571115,right_arm__torso
12.226368706,0.0,0.0,0.0,0.0,1.5708,0.0,0.0,1.5708,-4.191286604567006e-06,0.12446748644258931,0.15002773252663612,0.14736426715613302,1.6496772079954063,0.15002321289273488,-0.14737353752718826,1.6496763651846615,0.19560663135752746,-0.0014587098309836732,-0.0014686614301402945,-0.08023852257529368,-0.08024838222392246,-0.08024838222392246,right_arm__right_thigh,0.2489705425106332,0.025110424344099075,0.025102074783539874,0.035203086214688636,0.03519806648992764,0.025102074783539874,right_arm__torso
12.249486196000001,0.0,0.0,0.0,0.0,1.5708,0.0,0.0,1.5708,-4.191286604567006e-06,0.12446748644258931,0.15002773252663612,0.14736426715613302,1.6496772079954063,0.15002321289273488,-0.14737353752718826,1.6496763651846615,0.19560661317480973,-0.0014587188049938749,-0.0014686703823383884,-0.08023852894070967,-0.0802483857982421,-0.0802483857982421,right_arm__right_thigh,0.24897052457598143,0.02511041531262559,0.0251020657740193,0.035203093079503825,0.03519807711689733,0.0251020657740193,right_arm__torso
12.260458954,0.0,0.0,0.0,0.0,1.5708,0.0,0.0,1.5708,-4.191286604567006e-06,0.12446748644258931,0.15002773252663612,0.14736426715613302,1.6496772079954063,0.15002321289273488,-0.14737353752718826,1.6496763651846615,0.19560659568242258,-0.0014587274382450999,-0.0014686789947050416,-0.08023853498779793,-0.08024838904217851,-0.08024838904217851,right_arm__right_thigh,0.24897050732224132,0.025110406624094028,0.025102057106507175,0.03520309984001278,0.03519808765745523,0.025102057106507175,right_arm__torso
12.283378508,0.0,0.0,0.0,0.0,1.5708,0.0,0.0,1.5708,-4.191286604567006e-06,0.12446748644258931,0.15002773252663612,0.14736426715613302,1.6496772079954063,0.15002321289273488,-0.14737353752718826,1.6496763651846615,0.19560657883732338,-0.0014587357519657007,-0.0014686872884470958,-0.08023854073330913,-0.08024839197955183,-0.08024839197955183,right_arm__right_thigh,0.24897049070695773,0.025110398257139954,0.025102048759660794,0.035203106506730544,0.03519809811245238,0.025102048759660794,right_arm__torso
12.294051466,0.0,0.0,0.0,0.0,1.5708,0.0,0.0,1.5708,-3.842501485656158e-06,0.12416355555325916,0.14983336719349444,0.14538893267061995,1.6495362565443719,0.14982837359937604,-0.14539778654155736,1.6495351925123052,0.19560656260502554,-0.0014587437631658484,-0.001468695280554294,-0.08023854619105648,-0.08024839462905835,-0.08024839462905835,right_arm__right_thigh,0.24826046340942745,0.024753070458722493,0.024744641463215533,0.03459108402495599,0.03458569616987868,0.024744641463215533,right_arm__torso
12.309757869,0.0,0.0,0.0,0.0,1.5708,0.0,0.0,1.5708,-3.842501485656158e-06,0.12416355555325916,0.14983336719349444,0.14538893267061995,1.6495362565443719,0.14982837359937604,-0.14539778654155736,1.6495351925123052,0.19560654695816057,-0.0014587514853463823,-0.0014687029845081578,-0.08023855137230852,-0.08024839700523251,-0.08024839700523251,right_arm__right_thigh,0.24826044797159322,0.024753062684723243,0.02474463370756591,0.03459109059198552,0.03458570653288136,0.02474463370756591,right_arm__torso
12.326877884,0.0,0.0,0.0,0.0,1.5708,0.0,0.0,1.5708,-3.842501485656158e-06,0.12416355555325916,0.14983336719349444,0.14538893267061995,1.6495362565443719,0.14982837359937604,-0.14539778654155736,1.6495351925123052,0.19560653195620123,-0.0014587588892599201,-0.0014687103709221383,-0.08023855625280274,-0.08024839907632153,-0.08024839907632153,right_arm__right_thigh,0.24826043317004856,0.024753055231127558,0.024744626271587605,0.034591097066757934,0.03458571681069496,0.024744626271587605,right_arm__torso
12.343890132,0.0,0.0,0.0,0.0,1.5708,0.0,0.0,1.5708,-3.842501485656158e-06,0.12416355555325916,0.14983336719349444,0.14538893267061995,1.6495362565443719,0.14982837359937604,-0.14539778654155736,1.6495351925123052,0.19560651756950234,-0.0014587659895392013,-0.0014687174543903392,-0.08023856084473241,-0.08024840085807966,-0.08024840085807966,right_arm__right_thigh,0.24826041897554466,0.024753048083204304,0.024744619140588647,0.034591103455614156,0.034585727004737846,0.024744619140588647,right_arm__torso
12.361920479,0.0,0.0,0.0,0.0,1.5708,0.0,0.0,1.5708,-3.5022726979966154e-06,0.12386211696549582,0.14961541797498104,0.14348088330876893,1.6493894686617823,0.14960994056236945,-0.14348932732863837,1.6493881785420905,0.1956065037565031,-0.001458772806677916,-0.0014687242553934332,-0.08023856516552082,-0.08024840237225717,-0.08024840237225717,right_arm__right_thigh,0.24757464382621644,0.024407423273775236,0.024398915837114926,0.0339889616974577,0.03398320608108575,0.024398915837114926,right_arm__torso
12.379465959000001,0.0,0.0,0.0,0.0,1.5708,0.0,0.0,1.5708,-3.5022726979966154e-06,0.12386211696549582,0.14961541797498104,0.14348088330876893,1.6493894686617823,0.14960994056236945,-0.14348932732863837,1.6493881785420905,0.1956064905550102,-0.0014587793221085554,-0.0014687307552254114,-0.08023856919945535,-0.08024840359896392,-0.08024840359896392,right_arm__right_thigh,0.24757463079750944,0.024407416712720453,0.024398909291767995,0.03398896798933167,0.033983216184783574,0.024398909291767995,right_arm__torso
12.392989612000001,0.0,0.0,0.0,0.0,1.5708,0.0,0.0,1.5708,-3.5022726979966154e-06,0.12386211696549582,0.14961541797498104,0.14348088330876893,1.6493894686617823,0.14960994056236945,-0.14348932732863837,1.6493881785420905,0.19560647792407057,-0.0014587855560319885,-0.0014687369740608025,-0.0802385729638448,-0.08024840455949184,-0.08024840455949184,right_arm__right_thigh,0.24757461833188768,0.024407410435144716,0.02439890302938591,0.03398897420467316,0.03398322620816223,0.02439890302938591,right_arm__torso
12.410128184000001,0.0,0.0,0.0,0.0,1.5708,0.0,0.0,1.5708,-3.5022726979966154e-06,0.12386211696549582,0.14961541797498104,0.14348088330876893,1.6493894686617823,0.14960994056236945,-0.14348932732863837,1.6493881785420905,0.1956064658155686,-0.0014587915321655487,-0.0014687429356189385,-0.0802385764793869,-0.08024840527849152,-0.08024840527849152,right_arm__right_thigh,0.2475746063818655,0.024407404417164463,0.02439889702608311,0.0339889803524296,0.03398323615476233,0.02439889702608311,right_arm__torso
12.427056156,0.0,0.0,0.0,0.0,1.5708,0.0,0.0,1.5708,-3.5022726979966154e-06,0.12386211696549582,0.14961541797498104,0.14348088330876893,1.6493894686617823,0.14960994056236945,-0.14348932732863837,1.6493881785420905,0.19560645418901876,-0.0014587972704616647,-0.0014687486598616573,-0.08023857976386786,-0.08024840577633631,-0.08024840577633631,right_arm__right_thigh,0.24757459490748732,0.02440739863868746,0.024398891261757982,0.03398898643961741,0.03398324602807405,0.024398891261757982,right_arm__torso
12.447969339,0.0,0.0,0.0,0.0,1.5708,0.0,0.0,1.5708,-3.5022726979966154e-06,0.12386211696549582,0.14961541797498104,0.14348088330876893,1.6493894686617823,0.14960994056236945,-0.14348932732863837,1.6493881785420905,0.19560644302669003,-0.0014588027788015878,-0.001468754156388724,-0.08023858293152082,-0.08024840595550305,-0.08024840595550305,right_arm__right_thigh,0.24757458389125395,0.024407393091777307,0.02439888572674337,0.03398899232230575,0.033983255976627116,0.02439888572674337,right_arm__torso
12.460674007000001,0.0,0.0,0.0,0.0,1.5708,0.0,0.0,1.5708,-3.5022726979966154e-06,0.12386211696549582,0.14961541797498104,0.14348088330876893,1.6493894686617823,0.14960994056236945,-0.14348932732863837,1.6493881785420905,0.19560644302669003,-0.0014588027788015878,-0.001468754156388724,-0.08023858293152082,-0.08024840595550305,-0.08024840595550305,right_arm__right_thigh,0.24757458389125395,0.024407393091777307,0.02439888572674337,0.03398899232230575,0.033983255976627116,0.02439888572674337,right_arm__torso
12.477562616,0.0,0.0,0.0,0.0,1.5708,0.0,0.0,1.5708,-3.1712173434280643e-06,0.12357620793857384,0.14938994431681218,0.14162742042856036,1.6492455596347595,0.14938397126947278,-0.14163546660097212,1.6492440385343548,0.19560642203636533,-0.0014588131351460365,-0.001468764494269692,-0.08023858876486065,-0.08024840556432196,-0.08024840556432196,right_arm__right_thigh,0.24690832168431728,0.02407137229501846,0.02406278840010595,0.03340161125905998,0.0333955017160386,0.02406278840010595,right_arm__torso
12.493275953000001,0.0,0.0,0.0,0.0,1.5708,0.0,0.0,1.5708,-3.1712173434280643e-06,0.12357620793857384,0.14938994431681218,0.14162742042856036,1.6492455596347595,0.14938397126947278,-0.14163546660097212,1.6492440385343548,0.19560641227885092,-0.0014588179487200204,-0.001468769300566719,-0.08023859135643421,-0.08024840500171938,-0.08024840500171938,right_arm__right_thigh,0.24690831205197414,0.024071367446390823,0.02406278355880795,0.0334016168958612,0.03339551166208686,0.02406278355880795,right_arm__torso
