vegewenqi/Human_Humanoid_Interaction/g1_real_ws/ecc_sim/result/command_level_human_robot_metrics.csv
t_sec,unsafe_waist_roll_joint,unsafe_waist_pitch_joint,unsafe_left_shoulder_pitch_joint,unsafe_left_shoulder_roll_joint,unsafe_left_elbow_joint,unsafe_right_shoulder_pitch_joint,unsafe_right_shoulder_roll_joint,unsafe_right_elbow_joint,safe_waist_roll_joint,safe_waist_pitch_joint,safe_left_shoulder_pitch_joint,safe_left_shoulder_roll_joint,safe_left_elbow_joint,safe_right_shoulder_pitch_joint,safe_right_shoulder_roll_joint,safe_right_elbow_joint,unsafe_rep1_h,unsafe_rep2_h,unsafe_global_min_h,unsafe_global_min_pair,safe_rep1_h,safe_rep2_h,safe_global_min_h,safe_global_min_pair
0.0,0.5034338857459505,0.52,-0.14823434259295498,0.06538883559368933,1.438926854142974,-1.9521874933470897,-1.305768655122353,1.3764720813788738,0.058273021540538046,0.0693074054703849,-0.013109744195485943,0.023638079769021464,1.5632946535549002,-0.1989970906980048,-0.1965946478216039,1.6133062311446806,0.08203770301558112,0.2133685894122374,0.07026993276428124,left_arm__right_upper_arm,0.08999495402795109,0.19011473361469378,0.07999495238882336,left_arm__right_upper_arm
0.015645265579223633,0.5034338857459505,0.52,-0.148234342592955,0.06538883559368933,1.438926854142974,-1.9521874933470897,-1.305768655122353,1.3764720813788738,0.058273021540538046,0.0693074054703849,-0.013109744195485943,0.023638079769021464,1.5632946535549002,-0.1989970906980048,-0.1965946478216039,1.6133062311446806,0.08203770301558112,0.2133685894122374,0.07026993276428124,left_arm__right_upper_arm,0.08999495402795109,0.19011473361469378,0.07999495238882336,left_arm__right_upper_arm
0.03164505958557129,0.5034338857459505,0.52,-0.14823434259295498,0.06538883559368933,1.438926854142974,-1.9521874933470897,-1.305768655122353,1.3764720813788738,0.058273021540538046,0.0693074054703849,-0.013109744195485943,0.023638079769021464,1.5632946535549002,-0.1989970906980048,-0.1965946478216039,1.6133062311446806,0.08203770301558112,0.2133685894122374,0.07026993276428124,left_arm__right_upper_arm,0.08999495402795109,0.19011473361469378,0.07999495238882336,left_arm__right_upper_arm
0.04814553260803223,0.5034338857459505,0.52,-0.14823434259295498,0.06538883559368933,1.438926854142974,-1.9521874933470897,-1.305768655122353,1.3764720813788738,0.058273021540538046,0.0693074054703849,-0.013109744195485943,0.023638079769021464,1.5632946535549002,-0.1989970906980048,-0.1965946478216039,1.6133062311446806,0.08203770301558112,0.2133685894122374,0.07026993276428124,left_arm__right_upper_arm,0.08999495402795109,0.19011473361469378,0.07999495238882336,left_arm__right_upper_arm
0.0647740364074707,0.5040738752563396,0.52,-0.14764409506459975,0.06504191299121233,1.4385348533264395,-1.9532963349045938,-1.3068402333492775,1.3805390216420836,0.058273021540538046,0.0693074054703849,-0.013109744195485943,0.023638079769021464,1.5632946535549002,-0.1989970906980048,-0.1965946478216039,1.6133062311446806,0.0822252872945101,0.2135319545446151,0.07045867002535232,left_arm__right_upper_arm,0.08999495402795109,0.19011473361469378,0.07999495238882336,left_arm__right_upper_arm
0.08143734931945801,0.5052178457991235,0.52,-0.146589037482517,0.06442179464330637,1.4378341584250645,-1.955278370637692,-1.308755661502381,1.387808609322584,0.058273021540538046,0.0693074054703849,-0.013109744195485943,0.023638079769021464,1.5632946535549002,-0.1989970906980048,-0.1965946478216039,1.6133062311446806,0.08256051189895587,0.213823967605273,0.07079597233824282,left_arm__right_upper_arm,0.08999495402795109,0.19011473361469378,0.07999495238882336,left_arm__right_upper_arm
0.09861421585083008,0.5057747178455385,0.52,-0.14607544726944202,0.06411992797759888,1.43749306799568,-1.9562432034314383,-1.3096880704722689,1.3913473631775402,0.058273021540538046,0.0693074054703849,-0.013109744195485943,0.023638079769021464,1.5632946535549002,-0.1989970906980048,-0.1965946478216039,1.6133062311446806,0.08272365853098822,0.2139661164092969,0.07096013815759307,left_arm__right_upper_arm,0.08999495402795109,0.19011473361469378,0.07999495238882336,left_arm__right_upper_arm
0.11681485176086426,0.5057747178455385,0.52,-0.14607544726944202,0.06411992797759888,1.43749306799568,-1.9562432034314383,-1.3096880704722689,1.3913473631775402,0.058273021540538046,0.0693074054703849,-0.013109744195485943,0.023638079769021464,1.5632946535549002,-0.1989970906980048,-0.1965946478216039,1.6133062311446806,0.08272365853098822,0.2139661164092969,0.07096013815759307,left_arm__right_upper_arm,0.08999495402795109,0.19011473361469378,0.07999495238882336,left_arm__right_upper_arm
0.13140583038330078,0.5070747265617115,0.52,-0.14487647928777175,0.06341522516648045,1.4366967979475473,-1.958495589863106,-1.311864764015599,1.3996085263755327,0.058273021540538046,0.0693074054703849,-0.013109744195485943,0.023638079769021464,1.5632946535549002,-0.1989970906980048,-0.1965946478216039,1.6133062311446806,0.08445415118739615,0.21576186456378316,0.072435717865225,left_arm__right_upper_arm,0.0909018069160047,0.19169496347227916,0.08090180527687697,left_arm__right_upper_arm
0.14817261695861816,0.5070747265617115,0.52,-0.14487647928777175,0.06341522516648045,1.4366967979475473,-1.958495589863106,-1.311864764015599,1.3996085263755327,0.058273021540538046,0.0693074054703849,-0.013109744195485943,0.023638079769021464,1.5632946535549002,-0.1989970906980048,-0.1965946478216039,1.6133062311446806,0.08445415118739615,0.21576186456378316,0.072435717865225,left_arm__right_upper_arm,0.0909018069160047,0.19169496347227916,0.08090180527687697,left_arm__right_upper_arm
0.16955208778381348,0.5070747265617115,0.52,-0.14487647928777178,0.06341522516648045,1.4366967979475476,-1.9584955898631062,-1.3118647640155991,1.3996085263755327,0.058273021540538046,0.0693074054703849,-0.013109744195485943,0.023638079769021464,1.5632946535549002,-0.1989970906980048,-0.1965946478216039,1.6133062311446806,0.0844541511873962,0.21576186456378316,0.07243571786522505,left_arm__right_upper_arm,0.0909018069160047,0.19169496347227916,0.08090180527687697,left_arm__right_upper_arm
0.1951453685760498,0.5070747265617115,0.52,-0.14487647928777178,0.06341522516648045,1.4366967979475476,-1.9584955898631062,-1.3118647640155991,1.3996085263755327,0.058273021540538046,0.0693074054703849,-0.013109744195485943,0.023638079769021464,1.5632946535549002,-0.1989970906980048,-0.1965946478216039,1.6133062311446806,0.0844541511873962,0.21576186456378316,0.07243571786522505,left_arm__right_upper_arm,0.0909018069160047,0.19169496347227916,0.08090180527687697,left_arm__right_upper_arm
0.19907760620117188,0.5070747265617115,0.52,-0.14487647928777175,0.06341522516648045,1.4366967979475473,-1.958495589863106,-1.311864764015599,1.3996085263755327,0.058273021540538046,0.0693074054703849,-0.013109744195485943,0.023638079769021464,1.5632946535549002,-0.1989970906980048,-0.1965946478216039,1.6133062311446806,0.08445415118739615,0.21576186456378316,0.072435717865225,left_arm__right_upper_arm,0.0909018069160047,0.19169496347227916,0.08090180527687697,left_arm__right_upper_arm
0.21474742889404297,0.5091088970359254,0.52,-0.14242854910064978,0.06361406526466844,1.4303000090457874,-1.9603879734107095,-1.3136959989961128,1.4100295240160392,0.058273021540538046,0.0693074054703849,-0.013109744195485943,0.023638079769021464,1.5632946535549002,-0.1989970906980048,-0.1965946478216039,1.6133062311446806,0.08415640416970203,0.21638395678844113,0.07210584134885421,left_arm__right_upper_arm,0.0909018069160047,0.19169496347227916,0.08090180527687697,left_arm__right_upper_arm
0.23167896270751953,0.5104116205275364,0.52,-0.14086084560627085,0.06374140644391933,1.4262033773824947,-1.9615998937162353,-1.3148687585352057,1.4167033395120374,0.09591385499505753,0.12954323659525002,-0.01421658351539526,0.04894619978401363,1.5579257740280523,-0.35171607672297633,-0.3438462699151925,1.6011332906441702,0.0839641015167235,0.2167827716891822,0.07189227641011135,left_arm__right_upper_arm,0.09285729703421329,0.1935720113816513,0.08285729539508556,left_arm__right_upper_arm
0.24796032905578613,0.5109418029120747,0.52,-0.14022282166469685,0.06379323175489277,1.4245361302975947,-1.9620931210216392,-1.3153460481925505,1.4194194488294958,0.09591385499505753,0.12954323659525002,-0.01421658351539526,0.04894619978401363,1.5579257740280523,-0.35171607672297633,-0.3438462699151925,1.6011332906441702,0.08496581365899565,0.21823283781199215,0.07269672380275731,left_arm__right_upper_arm,0.09373086921754258,0.19492407363067454,0.08373086757841484,left_arm__right_upper_arm
0.26503968238830566,0.5109418029120747,0.52,-0.14022282166469685,0.06379323175489277,1.4245361302975947,-1.9620931210216392,-1.3153460481925505,1.4194194488294958,0.09591385499505753,0.12954323659525002,-0.01421658351539526,0.04894619978401363,1.5579257740280523,-0.35171607672297633,-0.3438462699151925,1.6011332906441702,0.08496581365899565,0.21823283781199215,0.07269672380275731,left_arm__right_upper_arm,0.09373086921754258,0.19492407363067454,0.08373086757841484,left_arm__right_upper_arm
0.2817821502685547,0.5109418029120747,0.52,-0.14022282166469685,0.06379323175489277,1.4245361302975947,-1.9620931210216392,-1.3153460481925505,1.4194194488294958,0.09591385499505753,0.12954323659525002,-0.01421658351539526,0.04894619978401363,1.5579257740280523,-0.35171607672297633,-0.3438462699151925,1.6011332906441702,0.08496581365899565,0.21823283781199215,0.07269672380275731,left_arm__right_upper_arm,0.09373086921754258,0.19492407363067454,0.08373086757841484,left_arm__right_upper_arm
0.2980616092681885,0.5109418029120747,0.52,-0.14022282166469685,0.06379323175489277,1.4245361302975947,-1.9620931210216395,-1.3153460481925505,1.4194194488294958,0.09591385499505753,0.12954323659525002,-0.01421658351539526,0.04894619978401363,1.5579257740280523,-0.35171607672297633,-0.3438462699151925,1.6011332906441702,0.08496581365899565,0.21823283781199215,0.07269672380275731,left_arm__right_upper_arm,0.09373086921754258,0.19492407363067454,0.08373086757841484,left_arm__right_upper_arm
0.3147149085998535,0.5109418029120747,0.52,-0.14022282166469685,0.06379323175489277,1.4245361302975947,-1.9620931210216395,-1.3153460481925505,1.4194194488294958,0.09591385499505753,0.12954323659525002,-0.01421658351539526,0.04894619978401363,1.5579257740280523,-0.35171607672297633,-0.3438462699151925,1.6011332906441702,0.08496581365899565,0.21823283781199215,0.07269672380275731,left_arm__right_upper_arm,0.09373086921754258,0.19492407363067454,0.08373086757841484,left_arm__right_upper_arm
0.33220696449279785,0.5117351070349988,0.52,-0.1397291578358537,0.0645197191258372,1.420353474467673,-1.9613993453090144,-1.3146293007701537,1.421495625191203,0.09591385499505753,0.12954323659525002,-0.01421658351539526,0.04894619978401363,1.5579257740280523,-0.35171607672297633,-0.3438462699151925,1.6011332906441702,0.0842878762557047,0.2184319323915293,0.07198451286068629,left_arm__right_upper_arm,0.09373086921754258,0.19492407363067454,0.08373086757841484,left_arm__right_upper_arm
0.3497786521911621,0.5117351070349988,0.52,-0.1397291578358537,0.0645197191258372,1.420353474467673,-1.9613993453090144,-1.3146293007701537,1.421495625191203,0.09591385499505753,0.12954323659525002,-0.01421658351539526,0.04894619978401363,1.5579257740280523,-0.35171607672297633,-0.3438462699151925,1.6011332906441702,0.0842878762557047,0.2184319323915293,0.07198451286068629,left_arm__right_upper_arm,0.09373086921754258,0.19492407363067454,0.08373086757841484,left_arm__right_upper_arm
0.3647007942199707,0.5137514711516219,0.52,-0.138474398152411,0.06636625316445123,1.4097222967340288,-1.9596359554418779,-1.312807523041487,1.4267727029153137,0.09591385499505753,0.12954323659525002,-0.01421658351539526,0.04894619978401363,1.5579257740280523,-0.35171607672297633,-0.3438462699151925,1.6011332906441702,0.08224590849453416,0.21955426209246187,0.06985354406423495,left_arm__right_upper_arm,0.09336736166971192,0.19534448917557462,0.08336736003058419,left_arm__right_upper_arm
0.3814973831176758,0.5137514711516219,0.52,-0.138474398152411,0.06636625316445123,1.4097222967340288,-1.959635955441878,-1.312807523041487,1.4267727029153137,0.09591385499505753,0.12954323659525002,-0.01421658351539526,0.04894619978401363,1.5579257740280523,-0.35171607672297633,-0.3438462699151925,1.6011332906441702,0.08224590849453416,0.21955426209246187,0.06985354406423495,left_arm__right_upper_arm,0.09336736166971192,0.19534448917557462,0.08336736003058419,left_arm__right_upper_arm
0.39960241317749023,0.5137514711516219,0.52,-0.138474398152411,0.06636625316445123,1.4097222967340286,-1.9596359554418779,-1.312807523041487,1.4267727029153137,0.09591385499505753,0.12954323659525002,-0.01421658351539526,0.04894619978401363,1.5579257740280523,-0.35171607672297633,-0.3438462699151925,1.6011332906441702,0.0822459084945341,0.21955426209246187,0.0698535440642349,left_arm__right_upper_arm,0.09336736166971192,0.19534448917557462,0.08336736003058419,left_arm__right_upper_arm
0.41860318183898926,0.5137514711516219,0.52,-0.138474398152411,0.06636625316445123,1.4097222967340286,-1.9596359554418779,-1.312807523041487,1.4267727029153137,0.09591385499505753,0.12954323659525002,-0.01421658351539526,0.04894619978401363,1.5579257740280523,-0.35171607672297633,-0.3438462699151925,1.6011332906441702,0.0822459084945341,0.21955426209246187,0.0698535440642349,left_arm__right_upper_arm,0.09336736166971192,0.19534448917557462,0.08336736003058419,left_arm__right_upper_arm
0.4324941635131836,0.5137514711516219,0.52,-0.138474398152411,0.06636625316445123,1.4097222967340288,-1.9596359554418776,-1.312807523041487,1.4267727029153137,0.09591385499505753,0.12954323659525002,-0.01421658351539526,0.04894619978401363,1.5579257740280523,-0.35171607672297633,-0.3438462699151925,1.6011332906441702,0.08224590849453416,0.21955426209246187,0.06985354406423495,left_arm__right_upper_arm,0.09336736166971192,0.19534448917557462,0.08336736003058419,left_arm__right_upper_arm
0.44800305366516113,0.5124384548669578,0.52,-0.14133842939893904,0.06779856882751731,1.4102818630690865,-1.948245812892938,-1.3023376288847461,1.425411319688172,0.09591385499505753,0.12954323659525002,-0.01421658351539526,0.04894619978401363,1.5579257740280523,-0.35171607672297633,-0.3438462699151925,1.6011332906441702,0.08113680532053304,0.2190251429111762,0.06871278390918749,left_arm__right_upper_arm,0.09336736166971192,0.19534448917557462,0.08336736003058419,left_arm__right_upper_arm
0.46529603004455566,0.5095282788713069,0.52,-0.1476862828732563,0.07097316057442479,1.4115220887504274,-1.9230006428062265,-1.2791321020319335,1.422393942954323,0.09591385499505753,0.12954323659525002,-0.01421658351539526,0.04894619978401363,1.5579257740280523,-0.35171607672297633,-0.3438462699151925,1.6011332906441702,0.0786786525834181,0.21785658119921247,0.06618261547676517,left_arm__right_upper_arm,0.09336736166971192,0.19534448917557462,0.08336736003058419,left_arm__right_upper_arm
0.48175787925720215,0.5065624154046173,0.52,-0.1541556052577141,0.0742084995016505,1.4127860466843243,-1.8972723955172526,-1.2554825274285775,1.419318827417141,0.09591385499505753,0.12954323659525002,-0.01421658351539526,0.04894619978401363,1.5579257740280523,-0.35171607672297633,-0.3438462699151925,1.6011332906441702,0.07617381043716089,0.21667169572833422,0.06360162914570068,left_arm__right_upper_arm,0.09336736166971192,0.19534448917557462,0.08336736003058419,left_arm__right_upper_arm
0.5005924701690674,0.5054477348727549,0.52,-0.15658701445685225,0.07542445881894855,1.4132610885457693,-1.8876027742774146,-1.246594147807174,1.4181630859404941,0.13113417603231384,0.18474407620702918,-0.013235877457584259,0.07464950818912683,1.553717534491182,-0.4901007987250078,-0.4793288687399797,1.593547184178382,0.06098911652573334,0.20997003914761553,0.050147238814515285,left_arm__right_upper_arm,0.08439674295793258,0.18871816139729775,0.07439674131880487,left_arm__right_upper_arm
0.5146911144256592,0.5054477348727549,0.52,-0.15658701445685225,0.07542445881894855,1.4132610885457693,-1.8876027742774146,-1.246594147807174,1.4181630859404941,0.13113417603231384,0.18474407620702918,-0.013235877457584259,0.07464950818912683,1.553717534491182,-0.4901007987250078,-0.4793288687399797,1.593547184178382,0.06098911652573334,0.20997003914761553,0.050147238814515285,left_arm__right_upper_arm,0.08439674295793258,0.18871816139729775,0.07439674131880487,left_arm__right_upper_arm
0.5313782691955566,0.5054477348727549,0.52,-0.15658701445685225,0.07542445881894855,1.4132610885457693,-1.8876027742774146,-1.246594147807174,1.4181630859404941,0.13113417603231384,0.18474407620702918,-0.013235877457584259,0.07464950818912683,1.553717534491182,-0.4901007987250078,-0.4793288687399797,1.593547184178382,0.06098911652573334,0.20997003914761553,0.050147238814515285,left_arm__right_upper_arm,0.08439674295793258,0.18871816139729775,0.07439674131880487,left_arm__right_upper_arm
0.5480101108551025,0.5054477348727549,0.52,-0.15658701445685225,0.07542445881894855,1.4132610885457693,-1.8876027742774146,-1.246594147807174,1.4181630859404941,0.13113417603231384,0.18474407620702918,-0.013235877457584259,0.07464950818912683,1.553717534491182,-0.4901007987250078,-0.4793288687399797,1.593547184178382,0.06098911652573334,0.20997003914761553,0.050147238814515285,left_arm__right_upper_arm,0.08439674295793258,0.18871816139729775,0.07439674131880487,left_arm__right_upper_arm
0.5665931701660156,0.5054477348727549,0.52,-0.15658701445685225,0.07542445881894855,1.4132610885457693,-1.8876027742774146,-1.246594147807174,1.4181630859404941,0.13113417603231384,0.18474407620702918,-0.013235877457584259,0.07464950818912683,1.553717534491182,-0.4901007987250078,-0.4793288687399797,1.593547184178382,0.06098911652573334,0.20997003914761553,0.050147238814515285,left_arm__right_upper_arm,0.08439674295793258,0.18871816139729775,0.07439674131880487,left_arm__right_upper_arm
0.5813796520233154,0.4844910096703269,0.52,-0.15657285087457334,0.07307435944070856,1.4238291196682138,-1.84061986095796,-1.1979639166872182,1.422144799713291,0.13113417603231384,0.18474407620702918,-0.013235877457584259,0.07464950818912683,1.553717534491182,-0.4901007987250078,-0.4793288687399797,1.593547184178382,0.06204999684613165,0.20667539107422117,0.051616417332761885,left_arm__right_upper_arm,0.08439674295793258,0.18871816139729775,0.07439674131880487,left_arm__right_upper_arm
0.600588321685791,0.46616797185054515,0.52,-0.15656046726734207,0.07101960330052935,1.4330690382178324,-1.7995414152885882,-1.155445176025751,1.4256261209284036,0.13113417603231384,0.18474407620702918,-0.013235877457584259,0.07464950818912683,1.553717534491182,-0.4901007987250078,-0.4793288687399797,1.593547184178382,0.06308201173605828,0.20379200072702325,0.05288623272509914,left_arm__right_upper_arm,0.08439674295793258,0.18871816139729775,0.07439674131880487,left_arm__right_upper_arm
0.615084171295166,0.44812290921586356,0.52,-0.1565482715293684,0.06899601945961734,1.442168779789463,-1.7590861625990533,-1.1135714787747617,1.4290546277074667,0.13113417603231384,0.18474407620702918,-0.013235877457584259,0.07464950818912683,1.553717534491182,-0.4901007987250078,-0.4793288687399797,1.593547184178382,0.06418188945163857,0.20095054420764424,0.05412449147827701,left_arm__right_upper_arm,0.08439674295793258,0.18871816139729775,0.07439674131880487,left_arm__right_upper_arm
0.6320228576660156,0.43057885306908883,0.52,-0.15653641439614074,0.06702861877825676,1.4510158744372252,-1.7197541170979715,-1.0728603706718465,1.432387944784232,0.13113417603231384,0.18474407620702918,-0.013235877457584259,0.07464950818912683,1.553717534491182,-0.4901007987250078,-0.4793288687399797,1.593547184178382,0.053351047476999855,0.19751520054194144,0.043351045837872124,left_arm__right_upper_arm,0.07809789953383171,0.18383782868316045,0.06809789789470398,left_arm__right_upper_arm
0.6479558944702148,0.43057885306908883,0.52,-0.15653641439614074,0.06702861877825676,1.4510158744372252,-1.7197541170979715,-1.0728603706718465,1.432387944784232,0.13113417603231384,0.18474407620702918,-0.013235877457584259,0.07464950818912683,1.553717534491182,-0.4901007987250078,-0.4793288687399797,1.593547184178382,0.053351047476999855,0.19751520054194144,0.043351045837872124,left_arm__right_upper_arm,0.07809789953383171,0.18383782868316045,0.06809789789470398,left_arm__right_upper_arm
0.6646623611450195,0.43057885306908883,0.52,-0.15653641439614074,0.06702861877825675,1.4510158744372252,-1.7197541170979713,-1.0728603706718465,1.432387944784232,0.13113417603231384,0.18474407620702918,-0.013235877457584259,0.07464950818912683,1.553717534491182,-0.4901007987250078,-0.4793288687399797,1.593547184178382,0.053351047476999855,0.19751520054194144,0.043351045837872124,left_arm__right_upper_arm,0.07809789953383171,0.18383782868316045,0.06809789789470398,left_arm__right_upper_arm
0.6819896697998047,0.43057885306908883,0.52,-0.15653641439614074,0.06702861877825676,1.4510158744372252,-1.7197541170979718,-1.0728603706718465,1.432387944784232,0.17839974529190228,0.22315516574333577,-0.014722508076473694,0.09567429050686632,1.5455246417676125,-0.5491083436026256,-0.5456728928373844,1.5768697360520751,0.053351047476999855,0.19751520054194144,0.043351045837872124,left_arm__right_upper_arm,0.07725045190276729,0.18922299056059078,0.06725045026363956,left_arm__right_upper_arm
0.6986653804779053,0.4232586499674002,0.52,-0.15575235195336168,0.06449809916251908,1.4571374311895233,-1.7019467342220262,-1.055052987795901,1.4370393993159574,0.17839974529190228,0.22315516574333577,-0.014722508076473694,0.09567429050686632,1.5455246417676125,-0.5491083436026256,-0.5456728928373844,1.5768697360520751,0.05511272588021908,0.19640909645720228,0.04511272424109135,left_arm__right_upper_arm,0.07725045190276729,0.18922299056059078,0.06725045026363956,left_arm__right_upper_arm
0.7145819664001465,0.38480057195448947,0.52,-0.1516331309191207,0.051203533500428236,1.4892981928336957,-1.608392264443598,-0.9614985180174727,1.4614766995888613,0.17839974529190228,0.22315516574333577,-0.014722508076473694,0.09567429050686632,1.5455246417676125,-0.5491083436026256,-0.5456728928373844,1.5768697360520751,0.06442614613324106,0.19068817661565945,0.05442614449411333,left_arm__right_upper_arm,0.07725045190276729,0.18922299056059078,0.06725045026363956,left_arm__right_upper_arm
0.7326540946960449,0.3564706188892893,0.52,-0.1485987271060634,0.04141015742212249,1.5129892589242742,-1.5394758267325714,-0.8925820803064463,1.4794783160383145,0.17839974529190228,0.22315516574333577,-0.014722508076473694,0.09567429050686632,1.5455246417676125,-0.5491083436026256,-0.5456728928373844,1.5768697360520751,0.07123219066913279,0.18657474002757168,0.06123218903000509,left_arm__right_upper_arm,0.07725045190276729,0.18922299056059078,0.06725045026363956,left_arm__right_upper_arm
0.7480716705322266,0.34448311608457116,0.52,-0.14731475306855063,0.03726619986115644,1.5230138685857857,-1.5103146068586522,-0.863420860432527,1.4870954987135077,0.17839974529190228,0.22315516574333577,-0.014722508076473694,0.09567429050686632,1.5455246417676125,-0.5491083436026256,-0.5456728928373844,1.5768697360520751,0.04483643010461945,0.16817498015735266,0.039776872428285245,left_arm__right_upper_arm,0.046510713873164425,0.16125763181253694,0.04220110170823459,left_arm__right_upper_arm
0.7671787738800049,0.34448311608457116,0.52,-0.14731475306855063,0.03726619986115644,1.5230138685857857,-1.5103146068586522,-0.863420860432527,1.4870954987135077,0.17839974529190228,0.22315516574333577,-0.014722508076473694,0.09567429050686632,1.5455246417676125,-0.5491083436026256,-0.5456728928373844,1.5768697360520751,0.04483643010461945,0.16817498015735266,0.039776872428285245,left_arm__right_upper_arm,0.046510713873164425,0.16125763181253694,0.04220110170823459,left_arm__right_upper_arm
0.7816064357757568,0.34448311608457116,0.52,-0.14731475306855063,0.03726619986115644,1.5230138685857857,-1.5103146068586522,-0.8634208604325271,1.4870954987135077,0.17839974529190228,0.22315516574333577,-0.014722508076473694,0.09567429050686632,1.5455246417676125,-0.5491083436026256,-0.5456728928373844,1.5768697360520751,0.04483643010461945,0.16817498015735266,0.039776872428285245,left_arm__right_upper_arm,0.046510713873164425,0.16125763181253694,0.04220110170823459,left_arm__right_upper_arm
0.7980132102966309,0.34448311608457116,0.52,-0.14731475306855063,0.03726619986115644,1.5230138685857857,-1.5103146068586522,-0.8634208604325271,1.4870954987135079,0.17839974529190228,0.22315516574333577,-0.014722508076473694,0.09567429050686632,1.5455246417676125,-0.5491083436026256,-0.5456728928373844,1.5768697360520751,0.04483643010461945,0.16817498015735266,0.039776872428285245,left_arm__right_upper_arm,0.046510713873164425,0.16125763181253694,0.04220110170823459,left_arm__right_upper_arm
0.8205609321594238,0.34448311608457116,0.52,-0.14731475306855063,0.03726619986115644,1.5230138685857857,-1.5103146068586522,-0.863420860432527,1.4870954987135077,0.17839974529190228,0.22315516574333577,-0.014722508076473694,0.09567429050686632,1.5455246417676125,-0.5491083436026256,-0.5456728928373844,1.5768697360520751,0.04483643010461945,0.16817498015735266,0.039776872428285245,left_arm__right_upper_arm,0.046510713873164425,0.16125763181253694,0.04220110170823459,left_arm__right_upper_arm
0.832693338394165,0.3265660287604807,0.52,-0.14607737922975808,0.02921348542312541,1.5547116545601753,-1.4492066158988897,-0.8023128694727644,1.533114981998199,0.17839974529190228,0.22315516574333577,-0.014722508076473694,0.09567429050686632,1.5455246417676125,-0.5491083436026256,-0.5456728928373844,1.5768697360520751,0.05322733359191721,0.16563739076446482,0.04774242380853862,left_arm__right_upper_arm,0.046510713873164425,0.16125763181253694,0.04220110170823459,left_arm__right_upper_arm
0.8483319282531738,0.29569977457535723,0.52,-0.14394572162607824,0.01534085499896707,1.6093182935352308,-1.3439342160055097,-0.6970404695793846,1.6123939988852491,0.21531281350518608,0.25676612325665515,-0.019970165849712763,0.11251577618455824,1.539292444543675,-0.6306447476178951,-0.6066501211562211,1.561745374539708,0.06673980806806225,0.16141902007939707,0.06045584700951882,left_arm__right_upper_arm,0.043486273845541726,0.16553686029673753,0.03653248828093349,left_arm__right_upper_arm
0.8646924495697021,0.28307468266800634,0.52,-0.14307381883541076,0.009666592321958302,1.631653813474799,-1.3008750966193325,-0.6539813501932075,1.6448211560168018,0.21531281350518608,0.25676612325665515,-0.019970165849712763,0.11251577618455824,1.539292444543675,-0.6306447476178951,-0.6066501211562211,1.561745374539708,0.0197953335215504,0.16266586835043245,0.0197953335215504,left_arm__right_forearm_hand,-0.028933599128404645,0.15250949370049915,-0.028933599128404645,left_arm__right_forearm_hand
0.8841569423675537,0.28307468266800634,0.52,-0.14307381883541076,0.009666592321958302,1.631653813474799,-1.3008750966193325,-0.6539813501932075,1.6448211560168018,0.21531281350518608,0.25676612325665515,-0.019970165849712763,0.11251577618455824,1.539292444543675,-0.6306447476178951,-0.6066501211562211,1.561745374539708,0.0197953335215504,0.16266586835043245,0.0197953335215504,left_arm__right_forearm_hand,-0.028933599128404645,0.15250949370049915,-0.028933599128404645,left_arm__right_forearm_hand
0.8980133533477783,0.28307468266800634,0.52,-0.14307381883541076,0.009666592321958302,1.631653813474799,-1.3008750966193325,-0.6539813501932075,1.6448211560168018,0.21531281350518608,0.25676612325665515,-0.019970165849712763,0.11251577618455824,1.539292444543675,-0.6306447476178951,-0.6066501211562211,1.561745374539708,0.0197953335215504,0.16266586835043245,0.0197953335215504,left_arm__right_forearm_hand,-0.028933599128404645,0.15250949370049915,-0.028933599128404645,left_arm__right_forearm_hand
0.9148087501525879,0.28307468266800634,0.52,-0.14307381883541076,0.009666592321958302,1.631653813474799,-1.3008750966193325,-0.6539813501932075,1.6448211560168018,0.21531281350518608,0.25676612325665515,-0.019970165849712763,0.11251577618455824,1.539292444543675,-0.6306447476178951,-0.6066501211562211,1.561745374539708,0.0197953335215504,0.16266586835043245,0.0197953335215504,left_arm__right_forearm_hand,-0.028933599128404645,0.15250949370049915,-0.028933599128404645,left_arm__right_forearm_hand
0.9313673973083496,0.28307468266800634,0.52,-0.14307381883541076,0.009666592321958302,1.631653813474799,-1.3008750966193325,-0.6539813501932075,1.6448211560168018,0.21531281350518608,0.25676612325665515,-0.019970165849712763,0.11251577618455824,1.539292444543675,-0.6306447476178951,-0.6066501211562211,1.561745374539708,0.0197953335215504,0.16266586835043245,0.0197953335215504,left_arm__right_forearm_hand,-0.028933599128404645,0.15250949370049915,-0.028933599128404645,left_arm__right_forearm_hand
0.9484176635742188,0.27579062633447676,0.52,-0.14255740774010933,0.005885836544107095,1.6453890565491065,-1.2750730317946255,-0.6281792730651136,1.6691786627231495,0.21531281350518608,0.25676612325665515,-0.019970165849712763,0.11251577618455824,1.539292444543675,-0.6306447476178951,-0.6066501211562211,1.561745374539708,0.024718231685943295,0.16198678569371494,0.024718231685943295,left_arm__right_forearm_hand,-0.028933599128404645,0.15250949370049915,-0.028933599128404645,left_arm__right_forearm_hand
0.964993953704834,0.25979805934230255,0.52,-0.14142359731100904,-0.002415031446165109,1.675545577169152,-1.2184231060731432,-0.5715293203308327,1.7226569775421186,0.21531281350518608,0.25676612325665515,-0.019970165849712763,0.11251577618455824,1.539292444543675,-0.6306447476178951,-0.6066501211562211,1.561745374539708,0.03555602602858747,0.1605506815636341,0.03555602602858747,left_arm__right_forearm_hand,-0.028933599128404645,0.15250949370049915,-0.028933599128404645,left_arm__right_forearm_hand
0.9815151691436768,0.24552877593460573,0.52,-0.14041196094573064,-0.009821437055785729,1.7024525733710785,-1.1678775091379938,-0.5209836992936572,1.7703727214055847,0.21531281350518608,0.25676612325665515,-0.019970165849712763,0.11251577618455824,1.539292444543675,-0.6306447476178951,-0.6066501211562211,1.561745374539708,0.04522219168686238,0.15933277072130791,0.04522219168686238,left_arm__right_forearm_hand,-0.028933599128404645,0.15250949370049915,-0.028933599128404645,left_arm__right_forearm_hand
0.9981210231781006,0.23050416043760152,0.52,-0.1393467744905442,-0.017619894295718447,1.7307838679822176,-1.1146563250519355,-0.4677624898297525,1.8206142566122796,0.21531281350518608,0.25676612325665515,-0.019970165849712763,0.11251577618455824,1.539292444543675,-0.6306447476178951,-0.6066501211562211,1.561745374539708,0.055134616077360324,0.15811474690646943,0.055134616077360324,left_arm__right_forearm_hand,-0.028933599128404645,0.15250949370049915,-0.028933599128404645,left_arm__right_forearm_hand
1.016953468322754,0.22394884462174836,0.52,-0.13888202824676124,-0.021022400675624043,1.7431449552716076,-1.09143565295904,-0.44454180666437426,1.8425348928121785,0.21531281350518608,0.25676612325665515,-0.019970165849712763,0.11251577618455824,1.539292444543675,-0.6306447476178951,-0.6066501211562211,1.561745374539708,0.08735334705067467,0.20648138868369237,0.08735334705067467,left_arm__right_forearm_hand,0.0391391656875882,0.1872221827906811,0.0391391656875882,left_arm__right_forearm_hand
1.0365118980407715,0.22394884462174838,0.52,-0.13888202824676124,-0.021022400675624043,1.7431449552716078,-1.09143565295904,-0.4445418066643743,1.8425348928121785,0.21531281350518608,0.25676612325665515,-0.019970165849712763,0.11251577618455824,1.539292444543675,-0.6306447476178951,-0.6066501211562211,1.561745374539708,0.08735334705067467,0.20648138868369237,0.08735334705067467,left_arm__right_forearm_hand,0.0391391656875882,0.1872221827906811,0.0391391656875882,left_arm__right_forearm_hand
1.048039436340332,0.22394884462174838,0.52,-0.13888202824676124,-0.021022400675624043,1.743144955271608,-1.09143565295904,-0.44454180666437426,1.8425348928121785,0.21531281350518608,0.25676612325665515,-0.019970165849712763,0.11251577618455824,1.539292444543675,-0.6306447476178951,-0.6066501211562211,1.561745374539708,0.08735334705067467,0.20648138868369237,0.08735334705067467,left_arm__right_forearm_hand,0.0391391656875882,0.1872221827906811,0.0391391656875882,left_arm__right_forearm_hand
1.069291591644287,0.22394884462174838,0.52,-0.13888202824676124,-0.021022400675624043,1.743144955271608,-1.09143565295904,-0.44454180666437426,1.8425348928121785,0.21531281350518608,0.25676612325665515,-0.019970165849712763,0.11251577618455824,1.539292444543675,-0.6306447476178951,-0.6066501211562211,1.561745374539708,0.08735334705067467,0.20648138868369237,0.08735334705067467,left_arm__right_forearm_hand,0.0391391656875882,0.1872221827906811,0.0391391656875882,left_arm__right_forearm_hand
1.0817031860351562,0.22394884462174838,0.52,-0.13888202824676124,-0.021022400675624043,1.7431449552716078,-1.09143565295904,-0.44454180666437426,1.8425348928121785,0.21531281350518608,0.25676612325665515,-0.019970165849712763,0.11251577618455824,1.539292444543675,-0.6306447476178951,-0.6066501211562211,1.561745374539708,0.08735334705067467,0.20648138868369237,0.08735334705067467,left_arm__right_forearm_hand,0.0391391656875882,0.1872221827906811,0.0391391656875882,left_arm__right_forearm_hand
1.098186731338501,0.188404956233849,0.52,-0.1316412418860651,-0.04272869973555246,1.8070323226136984,-0.9662978896291821,-0.31940404333451616,1.7877977625651873,0.21531281350518608,0.25676612325665515,-0.019970165849712763,0.11251577618455824,1.539292444543675,-0.6306447476178951,-0.6066501211562211,1.561745374539708,0.10665881030043077,0.2055811605999815,0.10665881030043077,left_arm__right_forearm_hand,0.0391391656875882,0.1872221827906811,0.0391391656875882,left_arm__right_forearm_hand
1.119096040725708,0.16446005100842626,0.52,-0.12676333035111248,-0.057351615160911945,1.850071422315264,-0.8819961427197207,-0.23510229642505473,1.750922916972266,0.23656910683968785,0.2870221174462183,-0.023697178545169863,0.12425962891673265,1.5427121304434155,-0.7144546790806926,-0.6323271950838517,1.554280386957088,0.19712892181609498,0.268230645241738,0.19712892181609498,left_arm__right_forearm_hand,0.11248853238343502,0.24396084507069377,0.11248853238343502,left_arm__right_forearm_hand
1.1332461833953857,0.16446005100842626,0.52,-0.12676333035111248,-0.05735161516091193,1.8500714223152641,-0.8819961427197207,-0.23510229642505473,1.750922916972266,0.23656910683968785,0.2870221174462183,-0.023697178545169863,0.12425962891673265,1.5427121304434155,-0.7144546790806926,-0.6323271950838517,1.554280386957088,0.19712892181609498,0.268230645241738,0.19712892181609498,left_arm__right_forearm_hand,0.11248853238343502,0.24396084507069377,0.11248853238343502,left_arm__right_forearm_hand
1.1488585472106934,0.16446005100842626,0.52,-0.12676333035111248,-0.05735161516091194,1.8500714223152643,-0.8819961427197207,-0.2351022964250547,1.750922916972266,0.23656910683968785,0.2870221174462183,-0.023697178545169863,0.12425962891673265,1.5427121304434155,-0.7144546790806926,-0.6323271950838517,1.554280386957088,0.19712892181609498,0.268230645241738,0.19712892181609498,left_arm__right_forearm_hand,0.11248853238343502,0.24396084507069377,0.11248853238343502,left_arm__right_forearm_hand
1.1648907661437988,0.16446005100842626,0.52,-0.12676333035111248,-0.05735161516091194,1.8500714223152641,-0.8819961427197207,-0.23510229642505473,1.750922916972266,0.23656910683968785,0.2870221174462183,-0.023697178545169863,0.12425962891673265,1.5427121304434155,-0.7144546790806926,-0.6323271950838517,1.554280386957088,0.19712892181609498,0.268230645241738,0.19712892181609498,left_arm__right_forearm_hand,0.11248853238343502,0.24396084507069377,0.11248853238343502,left_arm__right_forearm_hand
1.1825346946716309,0.16446005100842626,0.52,-0.12676333035111248,-0.05735161516091194,1.8500714223152641,-0.8819961427197207,-0.23510229642505473,1.7509229169722658,0.23656910683968785,0.2870221174462183,-0.023697178545169863,0.12425962891673265,1.5427121304434155,-0.7144546790806926,-0.6323271950838517,1.554280386957088,0.19712892181609498,0.268230645241738,0.19712892181609498,left_arm__right_forearm_hand,0.11248853238343502,0.24396084507069377,0.11248853238343502,left_arm__right_forearm_hand
1.1980259418487549,0.1536663532258556,0.4812074469776135,-0.12080633867423946,-0.06025275498017472,1.8593739967124225,-0.8407754858101765,-0.2069489346630292,1.735611476649876,0.23656910683968785,0.2870221174462183,-0.023697178545169863,0.12425962891673265,1.5427121304434155,-0.7144546790806926,-0.6323271950838517,1.554280386957088,0.19992359366379764,0.26726196599007046,0.19992359366379764,left_arm__right_forearm_hand,0.11248853238343502,0.24396084507069377,0.11248853238343502,left_arm__right_forearm_hand
1.2155530452728271,0.13534666202400375,0.4153664713808026,-0.1106957861823459,-0.06517673809447981,1.8751628666410747,-0.7708133911756829,-0.15916541281872051,1.7096240102401061,0.23656910683968785,0.2870221174462183,-0.023697178545169863,0.12425962891673265,1.5427121304434155,-0.7144546790806926,-0.6323271950838517,1.554280386957088,0.20498621385198712,0.2654559151160258,0.20498621385198712,left_arm__right_forearm_hand,0.11248853238343502,0.24396084507069377,0.11248853238343502,left_arm__right_forearm_hand
1.2386338710784912,0.11676944203713391,0.3485999372544828,-0.10044310475004563,-0.07016994002775429,1.8911736883725565,-0.6998678054424577,-0.11071017483089948,1.6832712254100382,0.23656910683968785,0.2870221174462183,-0.023697178545169863,0.12425962891673265,1.5427121304434155,-0.7144546790806926,-0.6323271950838517,1.554280386957088,0.21048351967002715,0.2634457188262928,0.21048351967002715,left_arm__right_forearm_hand,0.11248853238343502,0.24396084507069377,0.11248853238343502,left_arm__right_forearm_hand
1.2482831478118896,0.1096179658322096,0.32289752965920643,-0.09649623824625293,-0.07209212024833805,1.8973372053419904,-0.6725566324804011,-0.09205687354476695,1.6731264721165464,0.23656910683968785,0.2870221174462183,-0.023697178545169863,0.12425962891673265,1.5427121304434155,-0.7144546790806926,-0.6323271950838517,1.554280386957088,0.25479328234649257,0.3048696481571549,0.25479328234649257,left_arm__right_forearm_hand,0.1486558815682495,0.2859131135487681,0.1486558815682495,left_arm__right_forearm_hand
1.2649822235107422,0.10961796583220959,0.32289752965920643,-0.09649623824625293,-0.07209212024833805,1.8973372053419904,-0.6725566324804011,-0.09205687354476695,1.6731264721165464,0.23656910683968785,0.2870221174462183,-0.023697178545169863,0.12425962891673265,1.5427121304434155,-0.7144546790806926,-0.6323271950838517,1.554280386957088,0.2547932823464926,0.3048696481571549,0.2547932823464926,left_arm__right_forearm_hand,0.1486558815682495,0.2859131135487681,0.1486558815682495,left_arm__right_forearm_hand
1.3126146793365479,0.1096179658322096,0.32289752965920643,-0.09649623824625293,-0.07209212024833805,1.8973372053419904,-0.6725566324804011,-0.09205687354476695,1.6731264721165464,0.23656910683968785,0.2870221174462183,-0.023697178545169863,0.12425962891673265,1.5427121304434155,-0.7144546790806926,-0.6323271950838517,1.554280386957088,0.25479328234649257,0.3048696481571549,0.25479328234649257,left_arm__right_forearm_hand,0.1486558815682495,0.2859131135487681,0.1486558815682495,left_arm__right_forearm_hand
1.320634365081787,0.10961796583220962,0.32289752965920643,-0.09649623824625293,-0.07209212024833805,1.8973372053419904,-0.6725566324804011,-0.09205687354476695,1.6731264721165464,0.23656910683968785,0.2870221174462183,-0.023697178545169863,0.12425962891673265,1.5427121304434155,-0.7144546790806926,-0.6323271950838517,1.554280386957088,0.25479328234649257,0.3048696481571549,0.25479328234649257,left_arm__right_forearm_hand,0.1486558815682495,0.2859131135487681,0.1486558815682495,left_arm__right_forearm_hand
1.3341505527496338,0.09210573339266048,0.2570041668468292,-0.08106922580058439,-0.06944505112412541,1.893498228686658,-0.595825920027214,-0.07829108963348765,1.651303501290623,0.23656910683968785,0.2870221174462183,-0.023697178545169863,0.12425962891673265,1.5427121304434155,-0.7144546790806926,-0.6323271950838517,1.554280386957088,0.25696554847162234,0.3011144019195911,0.25696554847162234,left_arm__right_forearm_hand,0.1486558815682495,0.2859131135487681,0.1486558815682495,left_arm__right_forearm_hand
1.3483195304870605,0.07128525423625162,0.17866284790210937,-0.06272788684340391,-0.06629792252607322,1.8889340285648177,-0.5045999609838611,-0.06192480292585197,1.6253579394794437,0.23656910683968785,0.2870221174462183,-0.023697178545169863,0.12425962891673265,1.5427121304434155,-0.7144546790806926,-0.6323271950838517,1.554280386957088,0.25998283958686147,0.2964851757148672,0.25998283958686147,left_arm__right_forearm_hand,0.1486558815682495,0.2859131135487681,0.1486558815682495,left_arm__right_forearm_hand
1.364781379699707,0.06181762811805554,0.14303896471464433,-0.054387591769059405,-0.06486683937527699,1.8868585652693965,-0.463117088951568,-0.054482616685704796,1.6135598018472854,0.23656910683968785,0.2870221174462183,-0.023697178545169863,0.12425962891673265,1.5427121304434155,-0.7144546790806926,-0.6323271950838517,1.554280386957088,0.2713423530176921,0.30666945078814556,0.2713423530176921,left_arm__right_forearm_hand,0.15544379321158802,0.29963192799473737,0.15544379321158802,left_arm__right_forearm_hand
1.381544828414917,0.06181762811805554,0.14303896471464433,-0.0543875917690594,-0.06486683937527699,1.8868585652693965,-0.4631170889515679,-0.054482616685704796,1.6135598018472854,0.23656910683968785,0.2870221174462183,-0.023697178545169863,0.12425962891673265,1.5427121304434155,-0.7144546790806926,-0.6323271950838517,1.554280386957088,0.2713423530176921,0.30666945078814556,0.2713423530176921,left_arm__right_forearm_hand,0.15544379321158802,0.29963192799473737,0.15544379321158802,left_arm__right_forearm_hand
1.3984391689300537,0.06181762811805554,0.14303896471464433,-0.054387591769059405,-0.06486683937527699,1.8868585652693965,-0.46311708895156795,-0.054482616685704796,1.6135598018472854,0.22919832115870462,0.29588126768349093,-0.03931352850814199,0.14827821280968786,1.5504042263934548,-0.7521527764685274,-0.6135486562419039,1.583105837542597,0.2713423530176921,0.30666945078814556,0.2713423530176921,left_arm__right_forearm_hand,0.14692398198092566,0.29634903336551505,0.14692398198092566,left_arm__right_forearm_hand
1.4155564308166504,0.06181762811805554,0.14303896471464433,-0.0543875917690594,-0.06486683937527699,1.8868585652693965,-0.46311708895156795,-0.054482616685704796,1.6135598018472854,0.22919832115870462,0.29588126768349093,-0.03931352850814199,0.14827821280968786,1.5504042263934548,-0.7521527764685274,-0.6135486562419039,1.583105837542597,0.2713423530176921,0.30666945078814556,0.2713423530176921,left_arm__right_forearm_hand,0.14692398198092566,0.29634903336551505,0.14692398198092566,left_arm__right_forearm_hand
1.4336755275726318,0.06181762811805554,0.14303896471464433,-0.054387591769059405,-0.06486683937527699,1.8868585652693968,-0.46311708895156795,-0.054482616685704796,1.6135598018472854,0.22919832115870462,0.29588126768349093,-0.03931352850814199,0.14827821280968786,1.5504042263934548,-0.7521527764685274,-0.6135486562419039,1.583105837542597,0.2713423530176921,0.30666945078814556,0.2713423530176921,left_arm__right_forearm_hand,0.14692398198092566,0.29634903336551505,0.14692398198092566,left_arm__right_forearm_hand
1.4480822086334229,0.05205682292681887,0.12526022657448221,-0.04916457561720364,-0.056739544441761984,1.863168292040791,-0.4014217128474758,-0.04977472596021075,1.5972759814892081,0.22919832115870462,0.29588126768349093,-0.03931352850814199,0.14827821280968786,1.5504042263934548,-0.7521527764685274,-0.6135486562419039,1.583105837542597,0.2702213628290516,0.303833065715168,0.2702213628290516,left_arm__right_forearm_hand,0.14692398198092566,0.29634903336551505,0.14692398198092566,left_arm__right_forearm_hand
1.4649972915649414,0.035433473330720694,0.09498176350806029,-0.04026940541994194,-0.042898179687170454,1.822822061766698,-0.29635007322886503,-0.04175685121967408,1.56954347036242,0.22919832115870462,0.29588126768349093,-0.03931352850814199,0.14827821280968786,1.5504042263934548,-0.7521527764685274,-0.6135486562419039,1.583105837542597,0.2687007909783125,0.2989879628383505,0.2687007909783125,left_arm__right_forearm_hand,0.14692398198092566,0.29634903336551505,0.14692398198092566,left_arm__right_forearm_hand
1.4816620349884033,0.028682271987883215,0.08268484348412822,-0.03665683115304348,-0.03727681921600313,1.8064363434473996,-0.2536775787122484,-0.038500570865218964,1.5582805317304025,0.22919832115870462,0.29588126768349093,-0.03931352850814199,0.14827821280968786,1.5504042263934548,-0.7521527764685274,-0.6135486562419039,1.583105837542597,0.27128019173069395,0.2999960587585302,0.27128019173069395,left_arm__right_forearm_hand,0.1489715559702282,0.30006472613500074,0.1489715559702282,left_arm__right_forearm_hand
1.4994332790374756,0.02868227198788322,0.08268484348412822,-0.03665683115304348,-0.037276819216003135,1.8064363434473998,-0.2536775787122484,-0.038500570865218964,1.5582805317304027,0.22919832115870462,0.29588126768349093,-0.03931352850814199,0.14827821280968786,1.5504042263934548,-0.7521527764685274,-0.6135486562419039,1.583105837542597,0.27128019173069395,0.2999960587585302,0.27128019173069395,left_arm__right_forearm_hand,0.1489715559702282,0.30006472613500074,0.1489715559702282,left_arm__right_forearm_hand
1.515153408050537,0.02868227198788321,0.08268484348412822,-0.03665683115304348,-0.03727681921600313,1.8064363434473996,-0.2536775787122484,-0.038500570865218964,1.5582805317304025,0.22919832115870462,0.29588126768349093,-0.03931352850814199,0.14827821280968786,1.5504042263934548,-0.7521527764685274,-0.6135486562419039,1.583105837542597,0.27128019173069395,0.2999960587585302,0.27128019173069395,left_arm__right_forearm_hand,0.1489715559702282,0.30006472613500074,0.1489715559702282,left_arm__right_forearm_hand
1.5315005779266357,0.028682271987883215,0.08268484348412822,-0.03665683115304348,-0.03727681921600313,1.8064363434473996,-0.2536775787122484,-0.038500570865218964,1.5582805317304025,0.22919832115870462,0.29588126768349093,-0.03931352850814199,0.14827821280968786,1.5504042263934548,-0.7521527764685274,-0.6135486562419039,1.583105837542597,0.27128019173069395,0.2999960587585302,0.27128019173069395,left_arm__right_forearm_hand,0.1489715559702282,0.30006472613500074,0.1489715559702282,left_arm__right_forearm_hand
1.5509796142578125,0.028682271987883215,0.08268484348412822,-0.03665683115304348,-0.03727681921600313,1.8064363434473996,-0.2536775787122484,-0.038500570865218964,1.5582805317304027,0.22919832115870462,0.29588126768349093,-0.03931352850814199,0.14827821280968786,1.5504042263934548,-0.7521527764685274,-0.6135486562419039,1.583105837542597,0.27128019173069395,0.2999960587585302,0.27128019173069395,left_arm__right_forearm_hand,0.1489715559702282,0.30006472613500074,0.1489715559702282,left_arm__right_forearm_hand
1.5659644603729248,0.026412843648696123,0.08001095272320544,-0.03584227706327734,-0.03431423707577012,1.7950870626685993,-0.22274643987434595,-0.03569752270189084,1.5540418208106372,0.22919832115870462,0.29588126768349093,-0.03931352850814199,0.14827821280968786,1.5504042263934548,-0.7521527764685274,-0.6135486562419039,1.583105837542597,0.27078252988517854,0.29920721160115255,0.27078252988517854,left_arm__right_forearm_hand,0.1489715559702282,0.30006472613500074,0.1489715559702282,left_arm__right_forearm_hand
1.5820415019989014,0.023028510310326475,0.07602345618538085,-0.03462755593095539,-0.029896223370855998,1.7781622060238775,-0.1766197204026264,-0.03151741743731781,1.5477207528880381,0.22919832115870462,0.29588126768349093,-0.03931352850814199,0.14827821280968786,1.5504042263934548,-0.7521527764685274,-0.6135486562419039,1.583105837542597,0.2700807999490907,0.2980308734292522,0.2700807999490907,left_arm__right_forearm_hand,0.1489715559702282,0.30006472613500074,0.1489715559702282,left_arm__right_forearm_hand
1.5981793403625488,0.015317738213464643,0.06693845362620543,-0.031859968676359283,-0.01983034232622584,1.7396010776385815,-0.07152587004518848,-0.021993580446856918,1.5333190053984054,0.22919832115870462,0.29588126768349093,-0.03931352850814199,0.14827821280968786,1.5504042263934548,-0.7521527764685274,-0.6135486562419039,1.583105837542597,0.2686574665684143,0.29535109351781613,0.2686574665684143,left_arm__right_forearm_hand,0.1489715559702282,0.30006472613500074,0.1489715559702282,left_arm__right_forearm_hand
1.6148836612701416,0.013315623398368549,0.06457951758317106,-0.031141360037056726,-0.01721671955106289,1.7295886164405072,-0.044238076795307266,-0.019520700312982604,1.5295795676806183,0.22919832115870462,0.29588126768349093,-0.03931352850814199,0.14827821280968786,1.5504042263934548,-0.7521527764685274,-0.6135486562419039,1.583105837542597,0.27157406844415155,0.29700705591488197,0.27157406844415155,left_arm__right_forearm_hand,0.15215117208481682,0.3024350187210364,0.15215117208481682,left_arm__right_forearm_hand
1.6318943500518799,0.013315623398368549,0.06457951758317106,-0.031141360037056726,-0.01721671955106289,1.7295886164405072,-0.044238076795307266,-0.019520700312982604,1.5295795676806183,0.21630915210294335,0.29526397132870497,-0.03349398263802696,0.14834712782854406,1.59139920315227,-0.7572336627546628,-0.5805693658069033,1.5854368845657936,0.27157406844415155,0.29700705591488197,0.27157406844415155,left_arm__right_forearm_hand,0.153317552741842,0.30040754984336215,0.153317552741842,left_arm__right_forearm_hand
1.6481523513793945,0.013315623398368549,0.06457951758317106,-0.031141360037056726,-0.01721671955106289,1.7295886164405072,-0.044238076795307266,-0.019520700312982604,1.5295795676806183,0.21630915210294335,0.29526397132870497,-0.03349398263802696,0.14834712782854406,1.59139920315227,-0.7572336627546628,-0.5805693658069033,1.5854368845657936,0.27157406844415155,0.29700705591488197,0.27157406844415155,left_arm__right_forearm_hand,0.153317552741842,0.30040754984336215,0.153317552741842,left_arm__right_forearm_hand
1.664693832397461,0.013315623398368549,0.06457951758317106,-0.031141360037056726,-0.01721671955106289,1.7295886164405072,-0.044238076795307266,-0.019520700312982604,1.5295795676806183,0.21630915210294335,0.29526397132870497,-0.03349398263802696,0.14834712782854406,1.59139920315227,-0.7572336627546628,-0.5805693658069033,1.5854368845657936,0.27157406844415155,0.29700705591488197,0.27157406844415155,left_arm__right_forearm_hand,0.153317552741842,0.30040754984336215,0.153317552741842,left_arm__right_forearm_hand
1.6814048290252686,0.013315623398368549,0.06457951758317106,-0.031141360037056726,-0.01721671955106289,1.7295886164405072,-0.044238076795307266,-0.019520700312982604,1.5295795676806183,0.21630915210294335,0.29526397132870497,-0.03349398263802696,0.14834712782854406,1.59139920315227,-0.7572336627546628,-0.5805693658069033,1.5854368845657936,0.27157406844415155,0.29700705591488197,0.27157406844415155,left_arm__right_forearm_hand,0.153317552741842,0.30040754984336215,0.153317552741842,left_arm__right_forearm_hand
1.6981399059295654,0.012981175469025686,0.06671561823458606,-0.02887862531649593,-0.014783884271913093,1.7092503941387702,-0.02324402024450553,-0.016426899017494626,1.5269283340609514,0.21630915210294335,0.29526397132870497,-0.03349398263802696,0.14834712782854406,1.59139920315227,-0.7572336627546628,-0.5805693658069033,1.5854368845657936,0.2711489555777578,0.2965054719096972,0.2711489555777578,left_arm__right_forearm_hand,0.153317552741842,0.30040754984336215,0.153317552741842,left_arm__right_forearm_hand
1.7147154808044434,0.012331923451058038,0.07086235540003412,-0.024486057880554347,-0.010061106596253989,1.6697685175512178,0.017511004335005343,-0.010421011230318968,1.521781587357946,0.21630915210294335,0.29526397132870497,-0.03349398263802696,0.14834712782854406,1.59139920315227,-0.7572336627546628,-0.5805693658069033,1.5854368845657936,0.2703850100901784,0.29553406595104836,0.2703850100901784,left_arm__right_forearm_hand,0.153317552741842,0.30040754984336215,0.153317552741842,left_arm__right_forearm_hand
1.732717514038086,0.012074913862852178,0.07250386159762112,-0.0227472385675059,-0.008191571944042143,1.6541394235129345,0.033644080235620905,-0.008043551162001478,1.5197442224917117,0.21630915210294335,0.29526397132870497,-0.03349398263802696,0.14834712782854406,1.59139920315227,-0.7572336627546628,-0.5805693658069033,1.5854368845657936,0.2723285610730883,0.29682405673636597,0.2723285610730883,left_arm__right_forearm_hand,0.15582902823096656,0.30193018836555197,0.15582902823096656,left_arm__right_forearm_hand
1.7517099380493164,0.012074913862852176,0.07250386159762111,-0.022747238567505896,-0.008191571944042143,1.6541394235129345,0.033644080235620905,-0.008043551162001478,1.5197442224917115,0.21630915210294335,0.29526397132870497,-0.03349398263802696,0.14834712782854406,1.59139920315227,-0.7572336627546628,-0.5805693658069033,1.5854368845657936,0.2723285610730883,0.29682405673636597,0.2723285610730883,left_arm__right_forearm_hand,0.15582902823096656,0.30193018836555197,0.15582902823096656,left_arm__right_forearm_hand
1.764641523361206,0.012074913862852176,0.07250386159762111,-0.022747238567505896,-0.008191571944042143,1.6541394235129345,0.033644080235620905,-0.008043551162001478,1.5197442224917115,0.21630915210294335,0.29526397132870497,-0.03349398263802696,0.14834712782854406,1.59139920315227,-0.7572336627546628,-0.5805693658069033,1.5854368845657936,0.2723285610730883,0.29682405673636597,0.2723285610730883,left_arm__right_forearm_hand,0.15582902823096656,0.30193018836555197,0.15582902823096656,left_arm__right_forearm_hand
1.7825579643249512,0.012074913862852176,0.07250386159762111,-0.022747238567505896,-0.008191571944042143,1.6541394235129343,0.033644080235620905,-0.008043551162001478,1.5197442224917115,0.21630915210294335,0.29526397132870497,-0.03349398263802696,0.14834712782854406,1.59139920315227,-0.7572336627546628,-0.5805693658069033,1.5854368845657936,0.27232856107308834,0.29682405673636597,0.27232856107308834,left_arm__right_forearm_hand,0.15582902823096656,0.30193018836555197,0.15582902823096656,left_arm__right_forearm_hand
1.7981774806976318,0.012074913862852176,0.07250386159762111,-0.022747238567505896,-0.008191571944042143,1.6541394235129345,0.033644080235620905,-0.008043551162001478,1.5197442224917115,0.21630915210294335,0.29526397132870497,-0.03349398263802696,0.14834712782854406,1.59139920315227,-0.7572336627546628,-0.5805693658069033,1.5854368845657936,0.2723285610730883,0.29682405673636597,0.2723285610730883,left_arm__right_forearm_hand,0.15582902823096656,0.30193018836555197,0.15582902823096656,left_arm__right_forearm_hand
1.814749002456665,0.01317650293219257,0.07598229551033896,-0.018410425155587818,-0.00639367189488294,1.6356566954725125,0.033778649458117024,-0.005409897852389022,1.5192510657722023,0.21630915210294335,0.29526397132870497,-0.03349398263802696,0.14834712782854406,1.59139920315227,-0.7572336627546628,-0.5805693658069033,1.5854368845657936,0.271755509546564,0.2964971307927207,0.271755509546564,left_arm__right_forearm_hand,0.15582902823096656,0.30193018836555197,0.15582902823096656,left_arm__right_forearm_hand
1.831408977508545,0.014762658272221271,0.0809908206302351,-0.01216593713053791,-0.0038049127621154924,1.609043797255242,0.03397241290113444,-0.0016177548681386533,1.5185409796013318,0.21630915210294335,0.29526397132870497,-0.03349398263802696,0.14834712782854406,1.59139920315227,-0.7572336627546628,-0.5805693658069033,1.5854368845657936,0.27092822105525893,0.2960319407032149,0.27092822105525893,left_arm__right_forearm_hand,0.15582902823096656,0.30193018836555197,0.15582902823096656,left_arm__right_forearm_hand
1.8483588695526123,0.01666341385187094,0.0869927435360243,-0.0046829087309018524,-0.0007026955695120685,1.577152460069938,0.03420460765290497,0.002926526990164588,1.51769005395915,0.21630915210294335,0.29526397132870497,-0.03349398263802696,0.14834712782854406,1.59139920315227,-0.7572336627546628,-0.5805693658069033,1.5854368845657936,0.2699351726079432,0.29548329577172866,0.2699351726079432,left_arm__right_forearm_hand,0.15582902823096656,0.30193018836555197,0.15582902823096656,left_arm__right_forearm_hand
1.8699400424957275,0.017152460386791725,0.08853698185438762,-0.0027575958980807424,9.547573923348399e-05,1.5689471189353679,0.03426434917885177,0.004095727975446551,1.5174711187939771,0.19514214395634535,0.26953701813938447,-0.0213339919410585,0.15300461417566902,1.6198221648192228,-0.7242830342199837,-0.5480990981182269,1.5751348842045043,0.2729133687111409,0.2977848518780265,0.2729133687111409,left_arm__right_forearm_hand,0.160634037372067,0.2998970362729291,0.160634037372067,left_arm__right_forearm_hand
1.8814713954925537,0.017152460386791725,0.0885369818543876,-0.0027575958980807424,9.547573923348399e-05,1.5689471189353679,0.03426434917885177,0.004095727975446551,1.517471118793977,0.19514214395634535,0.26953701813938447,-0.0213339919410585,0.15300461417566902,1.6198221648192228,-0.7242830342199837,-0.5480990981182269,1.5751348842045043,0.2729133687111409,0.2977848518780265,0.2729133687111409,left_arm__right_forearm_hand,0.160634037372067,0.2998970362729291,0.160634037372067,left_arm__right_forearm_hand
1.8981645107269287,0.017152460386791725,0.08853698185438762,-0.0027575958980807424,9.547573923348399e-05,1.5689471189353679,0.03426434917885177,0.004095727975446551,1.5174711187939771,0.19514214395634535,0.26953701813938447,-0.0213339919410585,0.15300461417566902,1.6198221648192228,-0.7242830342199837,-0.5480990981182269,1.5751348842045043,0.2729133687111409,0.2977848518780265,0.2729133687111409,left_arm__right_forearm_hand,0.160634037372067,0.2998970362729291,0.160634037372067,left_arm__right_forearm_hand
1.9161701202392578,0.017152460386791725,0.08853698185438762,-0.0027575958980807424,9.547573923348399e-05,1.5689471189353679,0.03426434917885177,0.004095727975446551,1.5174711187939771,0.19514214395634535,0.26953701813938447,-0.0213339919410585,0.15300461417566902,1.6198221648192228,-0.7242830342199837,-0.5480990981182269,1.5751348842045043,0.2729133687111409,0.2977848518780265,0.2729133687111409,left_arm__right_forearm_hand,0.160634037372067,0.2998970362729291,0.160634037372067,left_arm__right_forearm_hand
1.933159351348877,0.017152460386791725,0.08853698185438762,-0.0027575958980807424,9.547573923348399e-05,1.5689471189353679,0.03426434917885177,0.004095727975446551,1.5174711187939771,0.19514214395634535,0.26953701813938447,-0.0213339919410585,0.15300461417566902,1.6198221648192228,-0.7242830342199837,-0.5480990981182269,1.5751348842045043,0.2729133687111409,0.2977848518780265,0.2729133687111409,left_arm__right_forearm_hand,0.160634037372067,0.2998970362729291,0.160634037372067,left_arm__right_forearm_hand
1.9484810829162598,0.0195310419484067,0.09436297623805553,0.007343142674125573,0.004080839813757044,1.5442400741518552,0.03523455626869766,0.008287136429494921,1.5183952600258395,0.19514214395634535,0.26953701813938447,-0.0213339919410585,0.15300461417566902,1.6198221648192228,-0.7242830342199837,-0.5480990981182269,1.5751348842045043,0.2710146922455244,0.2970384944685344,0.2710146922455244,left_arm__right_forearm_hand,0.160634037372067,0.2998970362729291,0.160634037372067,left_arm__right_forearm_hand
1.965214729309082,0.021911940172197143,0.10019464495345164,0.017453719041836627,0.008070085505104643,1.5195089654989167,0.03620570830914087,0.012482627180986495,1.5193203013416305,0.19514214395634535,0.26953701813938447,-0.0213339919410585,0.15300461417566902,1.6198221648192228,-0.7242830342199837,-0.5480990981182269,1.5751348842045043,0.271807364576305,0.2983258788162669,0.271807364576305,left_arm__right_forearm_hand,0.16291640757427062,0.30178005082989223,0.16291640757427062,left_arm__right_forearm_hand
1.986358404159546,0.021911940172197143,0.10019464495345164,0.017453719041836627,0.008070085505104643,1.5195089654989167,0.03620570830914087,0.012482627180986495,1.5193203013416305,0.19514214395634535,0.26953701813938447,-0.0213339919410585,0.15300461417566902,1.6198221648192228,-0.7242830342199837,-0.5480990981182269,1.5751348842045043,0.271807364576305,0.2983258788162669,0.271807364576305,left_arm__right_forearm_hand,0.16291640757427062,0.30178005082989223,0.16291640757427062,left_arm__right_forearm_hand
1.9982025623321533,0.021911940172197143,0.10019464495345164,0.017453719041836627,0.008070085505104643,1.5195089654989167,0.03620570830914087,0.012482627180986495,1.5193203013416305,0.19514214395634535,0.26953701813938447,-0.0213339919410585,0.15300461417566902,1.6198221648192228,-0.7242830342199837,-0.5480990981182269,1.5751348842045043,0.271807364576305,0.2983258788162669,0.271807364576305,left_arm__right_forearm_hand,0.16291640757427062,0.30178005082989223,0.16291640757427062,left_arm__right_forearm_hand
2.014831066131592,0.021911940172197143,0.10019464495345162,0.017453719041836627,0.008070085505104643,1.5195089654989165,0.03620570830914087,0.012482627180986493,1.5193203013416303,0.19514214395634535,0.26953701813938447,-0.0213339919410585,0.15300461417566902,1.6198221648192228,-0.7242830342199837,-0.5480990981182269,1.5751348842045043,0.27180736457630505,0.2983258788162669,0.27180736457630505,left_arm__right_forearm_hand,0.16291640757427062,0.30178005082989223,0.16291640757427062,left_arm__right_forearm_hand
2.0313119888305664,0.021911940172197143,0.10019464495345164,0.017453719041836627,0.008070085505104643,1.5195089654989167,0.03620570830914087,0.012482627180986495,1.5193203013416305,0.19514214395634535,0.26953701813938447,-0.0213339919410585,0.15300461417566902,1.6198221648192228,-0.7242830342199837,-0.5480990981182269,1.5751348842045043,0.271807364576305,0.2983258788162669,0.271807364576305,left_arm__right_forearm_hand,0.16291640757427062,0.30178005082989223,0.16291640757427062,left_arm__right_forearm_hand
2.048017978668213,0.022846889520387298,0.10199582512947797,0.020327264322781587,0.008947630630383617,1.509897831249842,0.036503811725763224,0.014017891170461347,1.519894663362534,0.17051129125148726,0.24154078707257892,-0.008640609128727621,0.16025499394855802,1.6303310195233733,-0.6723767980164657,-0.5207196421858055,1.5599107285193927,0.2714238401374837,0.29819036855912656,0.2714238401374837,left_arm__right_forearm_hand,0.16454916193988062,0.2966440692680811,0.16454916193988062,left_arm__right_forearm_hand
2.0649683475494385,0.02478163661384704,0.10572311593631159,0.026273664939023805,0.010763587702068679,1.4900089312904545,0.03712069511091877,0.017194905569241102,1.521083225344729,0.17051129125148726,0.24154078707257892,-0.008640609128727621,0.16025499394855802,1.6303310195233733,-0.6723767980164657,-0.5207196421858055,1.5599107285193927,0.2706263711184127,0.2979149737383836,0.2706263711184127,left_arm__right_forearm_hand,0.16454916193988062,0.2966440692680811,0.16454916193988062,left_arm__right_forearm_hand
2.0833287239074707,0.025567742543738378,0.10723754922611271,0.02868974340309765,0.011501428129536133,1.4819278842895611,0.037371340628754926,0.018485756382080384,1.5215661492500836,0.17051129125148726,0.24154078707257892,-0.008640609128727621,0.16025499394855802,1.6303310195233733,-0.6723767980164657,-0.5207196421858055,1.5599107285193927,0.27215505905078435,0.29935737489283176,0.27215505905078435,left_arm__right_forearm_hand,0.16603210805190344,0.2981615176442131,0.16603210805190344,left_arm__right_forearm_hand
2.098010301589966,0.025567742543738378,0.10723754922611271,0.02868974340309765,0.011501428129536133,1.4819278842895611,0.037371340628754926,0.018485756382080384,1.5215661492500836,0.17051129125148726,0.24154078707257892,-0.008640609128727621,0.16025499394855802,1.6303310195233733,-0.6723767980164657,-0.5207196421858055,1.5599107285193927,0.27215505905078435,0.29935737489283176,0.27215505905078435,left_arm__right_forearm_hand,0.16603210805190344,0.2981615176442131,0.16603210805190344,left_arm__right_forearm_hand
2.11464786529541,0.025567742543738378,0.10723754922611271,0.02868974340309765,0.011501428129536133,1.4819278842895611,0.037371340628754926,0.018485756382080384,1.5215661492500836,0.17051129125148726,0.24154078707257892,-0.008640609128727621,0.16025499394855802,1.6303310195233733,-0.6723767980164657,-0.5207196421858055,1.5599107285193927,0.27215505905078435,0.29935737489283176,0.27215505905078435,left_arm__right_forearm_hand,0.16603210805190344,0.2981615176442131,0.16603210805190344,left_arm__right_forearm_hand
2.1313843727111816,0.025567742543738378,0.10723754922611271,0.02868974340309765,0.011501428129536133,1.4819278842895611,0.037371340628754926,0.018485756382080384,1.5215661492500836,0.17051129125148726,0.24154078707257892,-0.008640609128727621,0.16025499394855802,1.6303310195233733,-0.6723767980164657,-0.5207196421858055,1.5599107285193927,0.27215505905078435,0.29935737489283176,0.27215505905078435,left_arm__right_forearm_hand,0.16603210805190344,0.2981615176442131,0.16603210805190344,left_arm__right_forearm_hand
2.1484615802764893,0.025567742543738378,0.10723754922611273,0.02868974340309765,0.011501428129536133,1.4819278842895611,0.037371340628754926,0.018485756382080384,1.5215661492500836,0.17051129125148726,0.24154078707257892,-0.008640609128727621,0.16025499394855802,1.6303310195233733,-0.6723767980164657,-0.5207196421858055,1.5599107285193927,0.27215505905078435,0.29935737489283176,0.27215505905078435,left_arm__right_forearm_hand,0.16603210805190344,0.2981615176442131,0.16603210805190344,left_arm__right_forearm_hand
2.164720296859741,0.02616809041777326,0.10805452786854575,0.02999499634188917,0.011227558227967165,1.4772842367743317,0.036967854990954264,0.01960627190505191,1.522308493838942,0.17051129125148726,0.24154078707257892,-0.008640609128727621,0.16025499394855802,1.6303310195233733,-0.6723767980164657,-0.5207196421858055,1.5599107285193927,0.27223362694799924,0.2994232014546063,0.27223362694799924,left_arm__right_forearm_hand,0.16603210805190344,0.2981615176442131,0.16603210805190344,left_arm__right_forearm_hand
2.181457757949829,0.027068340554721175,0.10927962612664524,0.03195228508683183,0.010816877309358548,1.470320866881095,0.03636280912272244,0.021286538125081474,1.5234216747906641,0.17051129125148726,0.24154078707257892,-0.008640609128727621,0.16025499394855802,1.6303310195233733,-0.6723767980164657,-0.5207196421858055,1.5599107285193927,0.2723511074082982,0.2995226099047579,0.2723511074082982,left_arm__right_forearm_hand,0.16603210805190344,0.2981615176442131,0.16603210805190344,left_arm__right_forearm_hand
2.198166608810425,0.027637692823380872,0.11005442464535997,0.0331901485890061,0.010557147148696995,1.4659169681383832,0.035980155209567974,0.02234920209486373,1.5241256925678126,0.17051129125148726,0.24154078707257892,-0.008640609128727621,0.16025499394855802,1.6303310195233733,-0.6723767980164657,-0.5207196421858055,1.5599107285193927,0.2727596033076819,0.30032541394838,0.2727596033076819,left_arm__right_forearm_hand,0.16623798897816,0.2989567950758445,0.16623798897816,left_arm__right_forearm_hand
2.2146594524383545,0.027637692823380872,0.11005442464535997,0.0331901485890061,0.010557147148696995,1.4659169681383832,0.035980155209567974,0.02234920209486373,1.5241256925678126,0.1487756283655342,0.21844522823280665,0.0057594593666147765,0.16526536898650232,1.6257190493461557,-0.6255910283292092,-0.49203431601388714,1.5465440181314443,0.2727596033076819,0.30032541394838,0.2727596033076819,left_arm__right_forearm_hand,0.16857041256140654,0.2944758529980781,0.16857041256140654,left_arm__right_forearm_hand
2.231813669204712,0.027637692823380872,0.11005442464535997,0.0331901485890061,0.010557147148696995,1.4659169681383832,0.035980155209567974,0.02234920209486373,1.5241256925678126,0.1487756283655342,0.21844522823280665,0.0057594593666147765,0.16526536898650232,1.6257190493461557,-0.6255910283292092,-0.49203431601388714,1.5465440181314443,0.2727596033076819,0.30032541394838,0.2727596033076819,left_arm__right_forearm_hand,0.16857041256140654,0.2944758529980781,0.16857041256140654,left_arm__right_forearm_hand
2.2485949993133545,0.027637692823380872,0.11005442464535997,0.0331901485890061,0.010557147148696995,1.4659169681383832,0.035980155209567974,0.02234920209486373,1.5241256925678126,0.1487756283655342,0.21844522823280665,0.0057594593666147765,0.16526536898650232,1.6257190493461557,-0.6255910283292092,-0.49203431601388714,1.5465440181314443,0.2727596033076819,0.30032541394838,0.2727596033076819,left_arm__right_forearm_hand,0.16857041256140654,0.2944758529980781,0.16857041256140654,left_arm__right_forearm_hand
2.2646803855895996,0.027637692823380872,0.11005442464535997,0.0331901485890061,0.010557147148696995,1.4659169681383832,0.035980155209567974,0.02234920209486373,1.5241256925678126,0.1487756283655342,0.21844522823280665,0.0057594593666147765,0.16526536898650232,1.6257190493461557,-0.6255910283292092,-0.49203431601388714,1.5465440181314443,0.2727596033076819,0.30032541394838,0.2727596033076819,left_arm__right_forearm_hand,0.16857041256140654,0.2944758529980781,0.16857041256140654,left_arm__right_forearm_hand
2.2819530963897705,0.02787847169216906,0.11022933715668623,0.03247357006432774,0.010522406321403244,1.4652656627142657,0.03611370419714072,0.02226506109835326,1.5242136967537845,0.1487756283655342,0.21844522823280665,0.0057594593666147765,0.16526536898650232,1.6257190493461557,-0.6255910283292092,-0.49203431601388714,1.5465440181314443,0.2728276348115404,0.3003882672914025,0.2728276348115404,left_arm__right_forearm_hand,0.16857041256140654,0.2944758529980781,0.16857041256140654,left_arm__right_forearm_hand
2.301084280014038,0.02829501464250498,0.1105319325376065,0.03123390258719768,0.010462305338410506,1.464138916483182,0.03634474145376501,0.02211949874436817,1.5243659423534552,0.1487756283655342,0.21844522823280665,0.0057594593666147765,0.16526536898650232,1.6257190493461557,-0.6255910283292092,-0.49203431601388714,1.5465440181314443,0.2729466175027901,0.3004971763332275,0.2729466175027901,left_arm__right_forearm_hand,0.16857041256140654,0.2944758529980781,0.16857041256140654,left_arm__right_forearm_hand
2.314739227294922,0.02871415064314725,0.11083641162594411,0.02998651797038549,0.010401830216635113,1.4630051560662687,0.036577216956381914,0.021973030240113843,1.52451913570773,0.1487756283655342,0.21844522823280665,0.0057594593666147765,0.16526536898650232,1.6257190493461557,-0.6255910283292092,-0.49203431601388714,1.5465440181314443,0.27306798990773157,0.30060698583921064,0.27306798990773157,left_arm__right_forearm_hand,0.16857041256140654,0.2944758529980781,0.16857041256140654,left_arm__right_forearm_hand
2.3333306312561035,0.028886603022519546,0.1109616887273443,0.029473284927096395,0.010376947890547605,1.4625386733942118,0.0366728683762328,0.021912766168253987,1.5245821667010306,0.1487756283655342,0.21844522823280665,0.0057594593666147765,0.16526536898650232,1.6257190493461557,-0.6255910283292092,-0.49203431601388714,1.5465440181314443,0.27319864676183514,0.30075217450144126,0.27319864676183514,left_arm__right_forearm_hand,0.16853480652522213,0.29460624613561315,0.16853480652522213,left_arm__right_forearm_hand
2.347959041595459,0.028886603022519546,0.1109616887273443,0.029473284927096395,0.010376947890547605,1.4625386733942118,0.0366728683762328,0.021912766168253987,1.5245821667010306,0.12965320035171757,0.19842258091493492,0.019194952455598404,0.1678909236989802,1.617430577783759,-0.5828141597193622,-0.463993165329247,1.535126165005539,0.27319864676183514,0.30075217450144126,0.27319864676183514,left_arm__right_forearm_hand,0.1716487976356873,0.29087918318725675,0.1716487976356873,left_arm__right_forearm_hand
2.364650011062622,0.028886603022519546,0.1109616887273443,0.02947328492709639,0.010376947890547605,1.4625386733942118,0.0366728683762328,0.021912766168253987,1.5245821667010306,0.12965320035171757,0.19842258091493492,0.019194952455598404,0.1678909236989802,1.617430577783759,-0.5828141597193622,-0.463993165329247,1.535126165005539,0.27319864676183514,0.30075217450144126,0.27319864676183514,left_arm__right_forearm_hand,0.1716487976356873,0.29087918318725675,0.1716487976356873,left_arm__right_forearm_hand
2.3824827671051025,0.028886603022519546,0.1109616887273443,0.02947328492709639,0.010376947890547605,1.4625386733942118,0.0366728683762328,0.021912766168253987,1.5245821667010306,0.12965320035171757,0.19842258091493492,0.019194952455598404,0.1678909236989802,1.617430577783759,-0.5828141597193622,-0.463993165329247,1.535126165005539,0.27319864676183514,0.30075217450144126,0.27319864676183514,left_arm__right_forearm_hand,0.1716487976356873,0.29087918318725675,0.1716487976356873,left_arm__right_forearm_hand
2.398432493209839,0.028886603022519546,0.1109616887273443,0.02947328492709639,0.010376947890547605,1.4625386733942118,0.0366728683762328,0.021912766168253987,1.5245821667010306,0.12965320035171757,0.19842258091493492,0.019194952455598404,0.1678909236989802,1.617430577783759,-0.5828141597193622,-0.463993165329247,1.535126165005539,0.27319864676183514,0.30075217450144126,0.27319864676183514,left_arm__right_forearm_hand,0.1716487976356873,0.29087918318725675,0.1716487976356873,left_arm__right_forearm_hand
2.414785861968994,0.028246366912033673,0.1073469846344077,0.02909704603713632,0.00947663954429541,1.4673380185012805,0.036622446349796826,0.021147152766824197,1.5260575364108389,0.12965320035171757,0.19842258091493492,0.019194952455598404,0.1678909236989802,1.617430577783759,-0.5828141597193622,-0.463993165329247,1.535126165005539,0.27359504286555886,0.3007850345031207,0.27359504286555886,left_arm__right_forearm_hand,0.1716487976356873,0.29087918318725675,0.1716487976356873,left_arm__right_forearm_hand
2.431375026702881,0.027075572534672267,0.10073680573552657,0.028409021151167835,0.007830253262078864,1.4761145404348983,0.03653024001516568,0.019747081994580057,1.5287555325602005,0.12965320035171757,0.19842258091493492,0.019194952455598404,0.1678909236989802,1.617430577783759,-0.5828141597193622,-0.463993165329247,1.535126165005539,0.2743188135438244,0.3008456556365717,0.2743188135438244,left_arm__right_forearm_hand,0.1716487976356873,0.29087918318725675,0.1716487976356873,left_arm__right_forearm_hand
2.448035717010498,0.026608751407904335,0.09810118395481078,0.0281346906976547,0.00717380332157633,1.4796139301974185,0.03649347534849154,0.01918884339342891,1.529831282176712,0.12965320035171757,0.19842258091493492,0.019194952455598404,0.1678909236989802,1.617430577783759,-0.5828141597193622,-0.463993165329247,1.535126165005539,0.27540949479418647,0.3022171224651191,0.27540949479418647,left_arm__right_forearm_hand,0.1720651847409188,0.29237188943940395,0.1720651847409188,left_arm__right_forearm_hand
2.464914083480835,0.026608751407904335,0.09810118395481078,0.028134690697654695,0.00717380332157633,1.4796139301974185,0.03649347534849154,0.01918884339342891,1.529831282176712,0.12965320035171757,0.19842258091493492,0.019194952455598404,0.1678909236989802,1.617430577783759,-0.5828141597193622,-0.463993165329247,1.535126165005539,0.27540949479418647,0.3022171224651191,0.27540949479418647,left_arm__right_forearm_hand,0.1720651847409188,0.29237188943940395,0.1720651847409188,left_arm__right_forearm_hand
2.4813907146453857,0.026608751407904335,0.09810118395481078,0.028134690697654695,0.00717380332157633,1.4796139301974185,0.03649347534849154,0.01918884339342891,1.529831282176712,0.12965320035171757,0.19842258091493492,0.019194952455598404,0.1678909236989802,1.617430577783759,-0.5828141597193622,-0.463993165329247,1.535126165005539,0.27540949479418647,0.3022171224651191,0.27540949479418647,left_arm__right_forearm_hand,0.1720651847409188,0.29237188943940395,0.1720651847409188,left_arm__right_forearm_hand
2.499629259109497,0.026608751407904332,0.09810118395481078,0.028134690697654695,0.007173803321576329,1.4796139301974185,0.03649347534849154,0.01918884339342891,1.5298312821767117,0.11285517632680206,0.18091524617473095,0.03116990217199639,0.16841670281659735,1.608033953559789,-0.5437390484495351,-0.43713212198038454,1.525425950153008,0.27540949479418647,0.3022171224651191,0.27540949479418647,left_arm__right_forearm_hand,0.17581886804127533,0.2893337416173851,0.17581886804127533,left_arm__right_forearm_hand
2.5166373252868652,0.026608751407904335,0.09810118395481078,0.028134690697654702,0.00717380332157633,1.4796139301974185,0.03649347534849154,0.01918884339342891,1.529831282176712,0.11285517632680206,0.18091524617473095,0.03116990217199639,0.16841670281659735,1.608033953559789,-0.5437390484495351,-0.43713212198038454,1.525425950153008,0.27540949479418647,0.3022171224651191,0.27540949479418647,left_arm__right_forearm_hand,0.17581886804127533,0.2893337416173851,0.17581886804127533,left_arm__right_forearm_hand
2.533247947692871,0.02574964296720486,0.09298801551262076,0.02863173023906436,0.0055101684717710825,1.4858720709846223,0.036180385274534745,0.01704829155323738,1.5298671869296376,0.11285517632680206,0.18091524617473095,0.03116990217199639,0.16841670281659735,1.608033953559789,-0.5437390484495351,-0.43713212198038454,1.525425950153008,0.27604162165476726,0.30228567456387156,0.27604162165476726,left_arm__right_forearm_hand,0.17581886804127533,0.2893337416173851,0.17581886804127533,left_arm__right_forearm_hand
2.5480194091796875,0.024276940853807372,0.08422291251253894,0.029483766080407217,0.0026583299340946134,1.4965999101334848,0.03564367955526077,0.013378911682728468,1.5299287356271125,0.11285517632680206,0.18091524617473095,0.03116990217199639,0.16841670281659735,1.608033953559789,-0.5437390484495351,-0.43713212198038454,1.525425950153008,0.2771271354511956,0.30240431570053317,0.2771271354511956,left_arm__right_forearm_hand,0.17581886804127533,0.2893337416173851,0.17581886804127533,left_arm__right_forearm_hand
2.564849376678467,0.023650728450882886,0.08049587487089441,0.029846062981274832,0.0014456904958913843,1.5011615291265468,0.035415465189930294,0.011818642864580895,1.5299549069467513,0.11285517632680206,0.18091524617473095,0.03116990217199639,0.16841670281659735,1.608033953559789,-0.5437390484495351,-0.43713212198038454,1.525425950153008,0.27797528452471937,0.3036388244066366,0.27797528452471937,left_arm__right_forearm_hand,0.17585536592902962,0.2907004913842341,0.17585536592902962,left_arm__right_forearm_hand
2.5814998149871826,0.023650728450882886,0.08049587487089441,0.029846062981274835,0.0014456904958913843,1.5011615291265468,0.035415465189930294,0.011818642864580895,1.5299549069467513,0.11285517632680206,0.18091524617473095,0.03116990217199639,0.16841670281659735,1.608033953559789,-0.5437390484495351,-0.43713212198038454,1.525425950153008,0.27797528452471937,0.3036388244066366,0.27797528452471937,left_arm__right_forearm_hand,0.17585536592902962,0.2907004913842341,0.17585536592902962,left_arm__right_forearm_hand
2.5980584621429443,0.023650728450882886,0.08049587487089441,0.029846062981274832,0.0014456904958913843,1.5011615291265468,0.035415465189930294,0.011818642864580895,1.5299549069467513,0.11285517632680206,0.18091524617473095,0.03116990217199639,0.16841670281659735,1.608033953559789,-0.5437390484495351,-0.43713212198038454,1.525425950153008,0.27797528452471937,0.3036388244066366,0.27797528452471937,left_arm__right_forearm_hand,0.17585536592902962,0.2907004913842341,0.17585536592902962,left_arm__right_forearm_hand
2.6147656440734863,0.023650728450882886,0.08049587487089441,0.02984606298127484,0.0014456904958913843,1.5011615291265468,0.035415465189930294,0.011818642864580895,1.5299549069467513,0.11285517632680206,0.18091524617473095,0.03116990217199639,0.16841670281659735,1.608033953559789,-0.5437390484495351,-0.43713212198038454,1.525425950153008,0.27797528452471937,0.3036388244066366,0.27797528452471937,left_arm__right_forearm_hand,0.17585536592902962,0.2907004913842341,0.17585536592902962,left_arm__right_forearm_hand
2.6314048767089844,0.023650728450882886,0.08049587487089441,0.029846062981274832,0.0014456904958913843,1.5011615291265468,0.035415465189930294,0.011818642864580895,1.5299549069467513,0.11285517632680206,0.18091524617473095,0.03116990217199639,0.16841670281659735,1.608033953559789,-0.5437390484495351,-0.43713212198038454,1.525425950153008,0.27797528452471937,0.3036388244066366,0.27797528452471937,left_arm__right_forearm_hand,0.17585536592902962,0.2907004913842341,0.17585536592902962,left_arm__right_forearm_hand
2.64928936958313,0.022975624538825002,0.075991440758935,0.029921467256607905,-0.0001771517007320639,1.5068504184592528,0.034354488339949016,0.010453765592152263,1.5331256422142472,0.09801334896859558,0.1653764682864512,0.04103380026512687,0.16728592859627073,1.599051946360893,-0.5078756140720089,-0.41218086091653255,1.5169522600007679,0.2786121208369989,0.30374665266302037,0.2786121208369989,left_arm__right_forearm_hand,0.18008170861142847,0.2882644713115513,0.18008170861142847,left_arm__right_forearm_hand
2.668217658996582,0.021620756821038794,0.06695148075250343,0.030072796284046684,-0.0034340377356004903,1.5182674645898948,0.03222521126469651,0.007714590004327958,1.5394889986973723,0.09801334896859558,0.1653764682864512,0.04103380026512687,0.16728592859627073,1.599051946360893,-0.5078756140720089,-0.41218086091653255,1.5169522600007679,0.27988921504002395,0.3039642539768554,0.27988921504002395,left_arm__right_forearm_hand,0.18008170861142847,0.2882644713115513,0.18008170861142847,left_arm__right_forearm_hand
2.6823506355285645,0.02133232812807662,0.06502702435365604,0.030105011704798408,-0.004127374339485909,1.520697962895907,0.03177192376237643,0.007131465302027875,1.540843650940677,0.09801334896859558,0.1653764682864512,0.04103380026512687,0.16728592859627073,1.599051946360893,-0.5078756140720089,-0.41218086091653255,1.5169522600007679,0.28082346789286244,0.3050900575122165,0.28082346789286244,left_arm__right_forearm_hand,0.18017405942293108,0.2894264423603302,0.18017405942293108,left_arm__right_forearm_hand
2.6979868412017822,0.021332328128076616,0.06502702435365604,0.030105011704798408,-0.004127374339485909,1.520697962895907,0.03177192376237643,0.007131465302027875,1.5408436509406769,0.09801334896859558,0.1653764682864512,0.04103380026512687,0.16728592859627073,1.599051946360893,-0.5078756140720089,-0.41218086091653255,1.5169522600007679,0.28082346789286244,0.3050900575122165,0.28082346789286244,left_arm__right_forearm_hand,0.18017405942293108,0.2894264423603302,0.18017405942293108,left_arm__right_forearm_hand
2.715973377227783,0.021332328128076616,0.06502702435365604,0.030105011704798408,-0.004127374339485909,1.520697962895907,0.03177192376237643,0.007131465302027875,1.5408436509406769,0.09801334896859558,0.1653764682864512,0.04103380026512687,0.16728592859627073,1.599051946360893,-0.5078756140720089,-0.41218086091653255,1.5169522600007679,0.28082346789286244,0.3050900575122165,0.28082346789286244,left_arm__right_forearm_hand,0.18017405942293108,0.2894264423603302,0.18017405942293108,left_arm__right_forearm_hand
2.731478691101074,0.021332328128076616,0.06502702435365604,0.030105011704798408,-0.004127374339485909,1.520697962895907,0.03177192376237643,0.007131465302027875,1.5408436509406769,0.09801334896859558,0.1653764682864512,0.04103380026512687,0.16728592859627073,1.599051946360893,-0.5078756140720089,-0.41218086091653255,1.5169522600007679,0.28082346789286244,0.3050900575122165,0.28082346789286244,left_arm__right_forearm_hand,0.18017405942293108,0.2894264423603302,0.18017405942293108,left_arm__right_forearm_hand
2.7494983673095703,0.021332328128076616,0.06502702435365604,0.030105011704798408,-0.004127374339485909,1.520697962895907,0.03177192376237643,0.007131465302027875,1.5408436509406769,0.09801334896859558,0.1653764682864512,0.04103380026512687,0.16728592859627073,1.599051946360893,-0.5078756140720089,-0.41218086091653255,1.5169522600007679,0.28082346789286244,0.3050900575122165,0.28082346789286244,left_arm__right_forearm_hand,0.18017405942293108,0.2894264423603302,0.18017405942293108,left_arm__right_forearm_hand
2.764681816101074,0.020729939606262945,0.06168442131984488,0.03014385292128407,-0.00503448803808989,1.525295496821868,0.02801558130693095,0.006390024631476462,1.5458875206076117,0.09801334896859558,0.1653764682864512,0.04103380026512687,0.16728592859627073,1.599051946360893,-0.5078756140720089,-0.41218086091653255,1.5169522600007679,0.2811797748915567,0.3051122824040033,0.2811797748915567,left_arm__right_forearm_hand,0.18017405942293108,0.2894264423603302,0.18017405942293108,left_arm__right_forearm_hand
2.7813260555267334,0.019650265163785277,0.055693399020667486,0.0302134689037202,-0.006660328241444637,1.5335357598722639,0.021283004573683116,0.00506112390774143,1.5549277612054595,0.09801334896859558,0.1653764682864512,0.04103380026512687,0.16728592859627073,1.599051946360893,-0.5078756140720089,-0.41218086091653255,1.5169522600007679,0.2818186509974883,0.30515255011080566,0.2818186509974883,left_arm__right_forearm_hand,0.18017405942293108,0.2894264423603302,0.18017405942293108,left_arm__right_forearm_hand
2.7983996868133545,0.01913691383276697,0.05284485583909013,0.030246569119709125,-0.00743336426006143,1.5374537464786286,0.018081875519202255,0.004429273297519464,1.5592261120425703,0.0848472327260209,0.14917804216528383,0.04936412061343126,0.16400777895526705,1.5943643306671973,-0.47414477873524646,-0.38927590425448677,1.5102803683858106,0.28239908330470304,0.3057804054460662,0.28239908330470304,left_arm__right_forearm_hand,0.18492909578145889,0.2881714075032787,0.18492909578145889,left_arm__right_forearm_hand
2.8146369457244873,0.01913691383276697,0.05284485583909013,0.030246569119709125,-0.0074333642600614295,1.5374537464786286,0.018081875519202255,0.004429273297519464,1.5592261120425703,0.0848472327260209,0.14917804216528383,0.04936412061343126,0.16400777895526705,1.5943643306671973,-0.47414477873524646,-0.38927590425448677,1.5102803683858106,0.28239908330470304,0.3057804054460662,0.28239908330470304,left_arm__right_forearm_hand,0.18492909578145889,0.2881714075032787,0.18492909578145889,left_arm__right_forearm_hand
2.8315770626068115,0.01913691383276697,0.05284485583909013,0.030246569119709125,-0.0074333642600614295,1.5374537464786286,0.018081875519202255,0.004429273297519464,1.5592261120425703,0.0848472327260209,0.14917804216528383,0.04936412061343126,0.16400777895526705,1.5943643306671973,-0.47414477873524646,-0.38927590425448677,1.5102803683858106,0.28239908330470304,0.3057804054460662,0.28239908330470304,left_arm__right_forearm_hand,0.18492909578145889,0.2881714075032787,0.18492909578145889,left_arm__right_forearm_hand
2.8498659133911133,0.01913691383276697,0.05284485583909013,0.030246569119709125,-0.00743336426006143,1.5374537464786286,0.018081875519202255,0.004429273297519464,1.5592261120425706,0.0848472327260209,0.14917804216528383,0.04936412061343126,0.16400777895526705,1.5943643306671973,-0.47414477873524646,-0.38927590425448677,1.5102803683858106,0.28239908330470304,0.3057804054460662,0.28239908330470304,left_arm__right_forearm_hand,0.18492909578145889,0.2881714075032787,0.18492909578145889,left_arm__right_forearm_hand
2.864994525909424,0.01913691383276697,0.05284485583909013,0.030246569119709125,-0.0074333642600614295,1.5374537464786286,0.018081875519202255,0.004429273297519464,1.5592261120425703,0.0848472327260209,0.14917804216528383,0.04936412061343126,0.16400777895526705,1.5943643306671973,-0.47414477873524646,-0.38927590425448677,1.5102803683858106,0.28239908330470304,0.3057804054460662,0.28239908330470304,left_arm__right_forearm_hand,0.18492909578145889,0.2881714075032787,0.18492909578145889,left_arm__right_forearm_hand
2.881603240966797,0.018857165708885508,0.05143608582162606,0.030228370053219603,-0.007497955106287464,1.5387968628762894,0.016636225057249328,0.00400738162832191,1.561980713239227,0.0848472327260209,0.14917804216528383,0.04936412061343126,0.16400777895526705,1.5943643306671973,-0.47414477873524646,-0.38927590425448677,1.5102803683858106,0.28245837124901063,0.30573819650863254,0.28245837124901063,left_arm__right_forearm_hand,0.18492909578145889,0.2881714075032787,0.18492909578145889,left_arm__right_forearm_hand
2.898130178451538,0.018237799590022283,0.04831705000475918,0.030188077074585276,-0.007640960110882462,1.5417705406935287,0.013435535438926765,0.003073307783228533,1.5680794374362557,0.0848472327260209,0.14917804216528383,0.04936412061343126,0.16400777895526705,1.5943643306671973,-0.47414477873524646,-0.38927590425448677,1.5102803683858106,0.28258939351116874,0.3056447805571504,0.28258939351116874,left_arm__right_forearm_hand,0.18492909578145889,0.2881714075032787,0.18492909578145889,left_arm__right_forearm_hand
2.9146580696105957,0.01762693830107415,0.04524084324862655,0.030148337379250798,-0.007782001441320855,1.544703385434357,0.010278796111047591,0.002152060179252826,1.5740944169620548,0.0848472327260209,0.14917804216528383,0.04936412061343126,0.16400777895526705,1.5943643306671973,-0.47414477873524646,-0.38927590425448677,1.5102803683858106,0.28271828944045707,0.3055526961934589,0.28271828944045707,left_arm__right_forearm_hand,0.18492909578145889,0.2881714075032787,0.18492909578145889,left_arm__right_forearm_hand
2.931441068649292,0.01737863974533971,0.043990448587011136,0.030132184270295626,-0.007839330919027684,1.545895507322773,0.008995667141961683,0.0017775979999013305,1.5765393430951216,0.0848472327260209,0.14917804216528383,0.04936412061343126,0.16400777895526705,1.5943643306671973,-0.47414477873524646,-0.38927590425448677,1.5102803683858106,0.2837977166705851,0.30612431161036013,0.2837977166705851,left_arm__right_forearm_hand,0.18552728114623945,0.2887173490981722,0.18552728114623945,left_arm__right_forearm_hand
2.949573278427124,0.01737863974533971,0.043990448587011136,0.030132184270295622,-0.007839330919027684,1.545895507322773,0.008995667141961683,0.0017775979999013303,1.5765393430951216,0.0848472327260209,0.14917804216528383,0.04936412061343126,0.16400777895526705,1.5943643306671973,-0.47414477873524646,-0.38927590425448677,1.5102803683858106,0.2837977166705851,0.30612431161036013,0.2837977166705851,left_arm__right_forearm_hand,0.18552728114623945,0.2887173490981722,0.18552728114623945,left_arm__right_forearm_hand
2.9647867679595947,0.01737863974533971,0.043990448587011136,0.030132184270295622,-0.007839330919027684,1.545895507322773,0.008995667141961683,0.0017775979999013305,1.5765393430951216,0.07310563144922631,0.1334922211892926,0.05643740160642452,0.15949764346295012,1.5918402209447389,-0.4431938340523797,-0.36847697399377555,1.5055470838599927,0.2837977166705851,0.30612431161036013,0.2837977166705851,left_arm__right_forearm_hand,0.19069653829506372,0.2873069197404156,0.19069653829506372,left_arm__right_forearm_hand
2.986320972442627,0.01737863974533971,0.043990448587011136,0.030132184270295626,-0.007839330919027684,1.545895507322773,0.008995667141961683,0.0017775979999013305,1.5765393430951216,0.07310563144922631,0.1334922211892926,0.05643740160642452,0.15949764346295012,1.5918402209447389,-0.4431938340523797,-0.36847697399377555,1.5055470838599927,0.2837977166705851,0.30612431161036013,0.2837977166705851,left_arm__right_forearm_hand,0.19069653829506372,0.2873069197404156,0.19069653829506372,left_arm__right_forearm_hand
3.0000932216644287,0.01737863974533971,0.043990448587011136,0.030132184270295622,-0.007839330919027684,1.545895507322773,0.008995667141961683,0.0017775979999013307,1.5765393430951216,0.07310563144922631,0.1334922211892926,0.05643740160642452,0.15949764346295012,1.5918402209447389,-0.4431938340523797,-0.36847697399377555,1.5055470838599927,0.2837977166705851,0.30612431161036013,0.2837977166705851,left_arm__right_forearm_hand,0.19069653829506372,0.2873069197404156,0.19069653829506372,left_arm__right_forearm_hand
3.0149943828582764,0.017153263820718637,0.04261939649489711,0.029917937404587442,-0.008171078870677485,1.5473470619710317,0.007899440590599957,0.0019142955839911006,1.5742251638445144,0.07310563144922631,0.1334922211892926,0.05643740160642452,0.15949764346295012,1.5918402209447389,-0.4431938340523797,-0.36847697399377555,1.5055470838599927,0.28396556906312465,0.3061399513843364,0.28396556906312465,left_arm__right_forearm_hand,0.19069653829506372,0.2873069197404156,0.19069653829506372,left_arm__right_forearm_hand
3.03157901763916,0.016833823946060193,0.04067611568887731,0.029614271464923063,-0.00864128669909297,1.5494044442565587,0.006345687798446116,0.0021080459111441235,1.5709451279178994,0.07310563144922631,0.1334922211892926,0.05643740160642452,0.15949764346295012,1.5918402209447389,-0.4431938340523797,-0.36847697399377555,1.5055470838599927,0.28420315850404093,0.30616217441274374,0.28420315850404093,left_arm__right_forearm_hand,0.19069653829506372,0.2873069197404156,0.19069653829506372,left_arm__right_forearm_hand
3.050144672393799,0.01665938069884641,0.03961490748995482,0.029448442221971106,-0.008898062972067165,1.5505279622488919,0.005497197350218244,0.002213851225065701,1.5691539297507064,0.07310563144922631,0.1334922211892926,0.05643740160642452,0.15949764346295012,1.5918402209447389,-0.4431938340523797,-0.36847697399377555,1.5055470838599927,0.28433274586395757,0.3061743377508497,0.28433274586395757,left_arm__right_forearm_hand,0.19069653829506372,0.2873069197404156,0.19069653829506372,left_arm__right_forearm_hand
3.0703723430633545,0.01665938069884641,0.03961490748995482,0.029448442221971106,-0.008898062972067165,1.5505279622488919,0.005497197350218244,0.002213851225065701,1.5691539297507064,0.07310563144922631,0.1334922211892926,0.05643740160642452,0.15949764346295012,1.5918402209447389,-0.4431938340523797,-0.36847697399377555,1.5055470838599927,0.28433274586395757,0.3061743377508497,0.28433274586395757,left_arm__right_forearm_hand,0.19069653829506372,0.2873069197404156,0.19069653829506372,left_arm__right_forearm_hand
3.084188461303711,0.01635020287405407,0.03773405484684531,0.02915453159234373,-0.009353165309385797,1.5525192508458014,0.003993359080006078,0.002401377296336628,1.5659792654289282,0.07310563144922631,0.1334922211892926,0.05643740160642452,0.15949764346295012,1.5918402209447389,-0.4431938340523797,-0.36847697399377555,1.5055470838599927,0.28370545925341184,0.30633664014452305,0.28370545925341184,left_arm__right_forearm_hand,0.1904274648729088,0.287553576066378,0.1904274648729088,left_arm__right_forearm_hand
3.0980594158172607,0.01635020287405407,0.03773405484684531,0.029154531592343734,-0.009353165309385797,1.5525192508458014,0.003993359080006078,0.002401377296336628,1.5659792654289282,0.07310563144922631,0.1334922211892926,0.05643740160642452,0.15949764346295012,1.5918402209447389,-0.4431938340523797,-0.36847697399377555,1.5055470838599927,0.28370545925341184,0.30633664014452305,0.28370545925341184,left_arm__right_forearm_hand,0.1904274648729088,0.287553576066378,0.1904274648729088,left_arm__right_forearm_hand
3.114867925643921,0.01635020287405407,0.03773405484684531,0.02915453159234373,-0.009353165309385797,1.5525192508458014,0.003993359080006078,0.002401377296336628,1.5659792654289282,0.07310563144922631,0.1334922211892926,0.05643740160642452,0.15949764346295012,1.5918402209447389,-0.4431938340523797,-0.36847697399377555,1.5055470838599927,0.28370545925341184,0.30633664014452305,0.28370545925341184,left_arm__right_forearm_hand,0.1904274648729088,0.287553576066378,0.1904274648729088,left_arm__right_forearm_hand
3.133641242980957,0.01635020287405407,0.03773405484684531,0.02915453159234373,-0.009353165309385797,1.5525192508458014,0.003993359080006078,0.002401377296336628,1.5659792654289282,0.07310563144922631,0.1334922211892926,0.05643740160642452,0.15949764346295012,1.5918402209447389,-0.4431938340523797,-0.36847697399377555,1.5055470838599927,0.28370545925341184,0.30633664014452305,0.28370545925341184,left_arm__right_forearm_hand,0.1904274648729088,0.287553576066378,0.1904274648729088,left_arm__right_forearm_hand
3.148083448410034,0.01608837050860597,0.03659531236893236,0.027848670344407942,-0.009870204046844567,1.55428828500902,0.003471593753549513,0.0017405831485281366,1.5636312044908998,0.07310563144922631,0.1334922211892926,0.05643740160642452,0.15949764346295012,1.5918402209447389,-0.4431938340523797,-0.36847697399377555,1.5055470838599927,0.28401689710920974,0.3064305499642196,0.28401689710920974,left_arm__right_forearm_hand,0.1904274648729088,0.287553576066378,0.1904274648729088,left_arm__right_forearm_hand
3.168627977371216,0.015643652367644006,0.03466117623971402,0.025630685621463558,-0.010748386183474134,1.557292961619638,0.00258538358009343,0.0006182347159002044,1.5596430600403908,0.07310563144922631,0.1334922211892926,0.05643740160642452,0.15949764346295012,1.5918402209447389,-0.4431938340523797,-0.36847697399377555,1.5055470838599927,0.28454531778262776,0.30659071132108057,0.28454531778262776,left_arm__right_forearm_hand,0.1904274648729088,0.287553576066378,0.1904274648729088,left_arm__right_forearm_hand
3.181500196456909,0.015461810825403766,0.03387032409260154,0.024723770149535453,-0.011107467541718551,1.558521548849352,0.002223019624484002,0.00015931579372958901,1.5580123410056586,0.07310563144922631,0.1334922211892926,0.05643740160642452,0.15949764346295012,1.5918402209447389,-0.4431938340523797,-0.36847697399377555,1.5055470838599927,0.2841328120203511,0.30629409564430493,0.2841328120203511,left_arm__right_forearm_hand,0.1903142515587004,0.2872425016177979,0.1903142515587004,left_arm__right_forearm_hand
3.1982407569885254,0.015461810825403764,0.03387032409260154,0.024723770149535453,-0.011107467541718551,1.558521548849352,0.002223019624484002,0.00015931579372958901,1.5580123410056586,0.06259462162567679,0.11834805506178149,0.06246839540857741,0.15432464100527793,1.5913335503152357,-0.41605148478672666,-0.3496997454433225,1.5038288847478305,0.2841328120203511,0.30629409564430493,0.2841328120203511,left_arm__right_forearm_hand,0.19554045930496244,0.28615294784324347,0.19554045930496244,left_arm__right_forearm_hand
3.215268611907959,0.015461810825403764,0.03387032409260154,0.024723770149535453,-0.011107467541718551,1.558521548849352,0.002223019624484002,0.00015931579372958901,1.5580123410056586,0.06259462162567679,0.11834805506178149,0.06246839540857741,0.15432464100527793,1.5913335503152357,-0.41605148478672666,-0.3496997454433225,1.5038288847478305,0.2841328120203511,0.30629409564430493,0.2841328120203511,left_arm__right_forearm_hand,0.19554045930496244,0.28615294784324347,0.19554045930496244,left_arm__right_forearm_hand
3.2323696613311768,0.015461810825403764,0.03387032409260154,0.024723770149535453,-0.011107467541718551,1.5585215488493522,0.002223019624484002,0.00015931579372958901,1.5580123410056586,0.06259462162567679,0.11834805506178149,0.06246839540857741,0.15432464100527793,1.5913335503152357,-0.41605148478672666,-0.3496997454433225,1.5038288847478305,0.2841328120203511,0.30629409564430493,0.2841328120203511,left_arm__right_forearm_hand,0.19554045930496244,0.28615294784324347,0.19554045930496244,left_arm__right_forearm_hand
3.249415397644043,0.015461810825403766,0.03387032409260154,0.024723770149535453,-0.011107467541718551,1.558521548849352,0.002223019624484002,0.00015931579372958901,1.5580123410056586,0.06259462162567679,0.11834805506178149,0.06246839540857741,0.15432464100527793,1.5913335503152357,-0.41605148478672666,-0.3496997454433225,1.5038288847478305,0.2841328120203511,0.30629409564430493,0.2841328120203511,left_arm__right_forearm_hand,0.19554045930496244,0.28615294784324347,0.19554045930496244,left_arm__right_forearm_hand
