vegewenqi/Human_Humanoid_Interaction/g1_real_ws/bdcc_exp/runs/sim_default/S1_self_collision/run_001/metrics_timeseries.csv
t_sec,q_nom_waist_roll_joint,q_nom_waist_pitch_joint,q_nom_left_shoulder_pitch_joint,q_nom_left_shoulder_roll_joint,q_nom_left_elbow_joint,q_nom_right_shoulder_pitch_joint,q_nom_right_shoulder_roll_joint,q_nom_right_elbow_joint,q_cbf_waist_roll_joint,q_cbf_waist_pitch_joint,q_cbf_left_shoulder_pitch_joint,q_cbf_left_shoulder_roll_joint,q_cbf_left_elbow_joint,q_cbf_right_shoulder_pitch_joint,q_cbf_right_shoulder_roll_joint,q_cbf_right_elbow_joint,correction_norm,self_unsafe_clearance__left_arm__right_arm,self_safe_clearance__left_arm__right_arm,self_unsafe_clearance__left_arm__torso,self_safe_clearance__left_arm__torso,self_unsafe_clearance__right_arm__torso,self_safe_clearance__right_arm__torso,self_unsafe_clearance__left_arm__left_thigh,self_safe_clearance__left_arm__left_thigh,self_unsafe_clearance__right_arm__right_thigh,self_safe_clearance__right_arm__right_thigh,self_unsafe_global_min_clearance,self_safe_global_min_clearance,self_unsafe_global_min_pair,self_safe_global_min_pair
8.006730123005614,0.0,0.0,0.0,0.0,1.5708,0.0,0.0,1.5708,2.362835168691559e-06,0.009246060448694375,0.015671162427734826,0.31140504708646655,1.579034280470397,0.015673424446032227,-0.3113247603504672,1.5790359084222731,0.4411446186067686,0.16561060951136836,0.2867242268233961,-0.016456828261696088,0.04368078770550937,-0.016466778921413905,0.043655792271155985,-0.09503166281295383,0.03287274596023343,-0.09504063407557842,0.03283106895136398,-0.09504063407557842,0.03283106895136398,right_arm__right_thigh,right_arm__right_thigh
8.026730123005613,0.0,0.0,0.0,0.0,1.5708,0.0,0.0,1.5708,2.3496864466838015e-06,0.00932494784233848,0.015743794721925244,0.3109574897418907,1.5790733838004833,0.0157460165079533,-0.3108772898342792,1.5790749943241933,0.44052120600234246,0.16561060951136836,0.28655710295769427,-0.016456828261696088,0.04359646915714302,-0.016466778921413905,0.043571487886157695,-0.09503166281295383,0.03270443583298491,-0.09504063407557842,0.03266279289879559,-0.09504063407557842,0.03266279289879559,right_arm__right_thigh,right_arm__right_thigh
8.046730123005613,0.0,0.0,0.0,0.0,1.5708,0.0,0.0,1.5708,2.337700554557831e-06,0.009396741165476346,0.01581030208901832,0.3105378107974208,1.5791091735439726,0.015812487831303502,-0.31045768354353637,1.5791107685104961,0.4399364904368006,0.16561060951136836,0.2864003589635851,-0.016456828261696088,0.04351740815321639,-0.016466778921413905,0.04349243851739279,-0.09503166281295383,0.03254644646246882,-0.09504063407557842,0.03250483196933765,-0.09504063407557842,0.03250483196933765,right_arm__right_thigh,right_arm__right_thigh
8.066730123005613,0.0,0.0,0.0,0.0,1.5708,0.0,0.0,1.5708,2.3252625725839557e-06,0.009474347265114844,0.015882286385796696,0.3101433794121717,1.5791479040378034,0.015884433288407326,-0.3100633070937307,1.5791494822554055,0.439388093896617,0.16561060951136836,0.2862530423864644,-0.016456828261696088,0.04344299128010756,-0.016466778921413905,0.0434180301363839,-0.09503166281295383,0.03239896553122293,-0.09504063407557842,0.03235737301157432,-0.09504063407557842,0.03235737301157432,right_arm__right_thigh,right_arm__right_thigh
8.086730123005612,0.0,0.0,0.0,0.0,1.5708,0.0,0.0,1.5708,2.312262542669986e-06,0.009559179935032568,0.0159610797207827,0.3097803363421394,1.5791902905364736,0.015963184307755653,-0.30970029693138607,1.5791918505235634,0.4388848460355033,0.16561060951136836,0.2861174562293672,-0.016456828261696088,0.04337435325444977,-0.016466778921413905,0.043349396691262115,-0.09503166281295383,0.03226455452334531,-0.09504063407557842,0.032222975928056424,-0.09504063407557842,0.032222975928056424,right_arm__right_thigh,right_arm__right_thigh
8.106730123005612,0.0,0.0,0.0,0.0,1.5708,0.0,0.0,1.5708,2.300008542704455e-06,0.009638968697712559,0.016035425347935763,0.3094321491350172,1.579230276871877,0.016037490507084428,-0.30935213223476177,1.5792318199100477,0.4384021070687738,0.16561060951136836,0.28598739661216843,-0.016456828261696088,0.043308529295382064,-0.016466778921413905,0.04328357542648065,-0.09503166281295383,0.03213553167525349,-0.09504063407557842,0.03209396283125823,-0.09504063407557842,0.03209396283125823,right_arm__right_thigh,right_arm__right_thigh
8.126730123005611,0.0,0.0,0.0,0.0,1.5708,0.0,0.0,1.5708,2.288756116367817e-06,0.00971198582275728,0.016103799757869186,0.3091039064898476,1.5792670408966496,0.01610582936619306,-0.3090238981414668,1.5792685687064891,0.437946863040927,0.16561060951136836,0.28586476527298016,-0.016456828261696088,0.043246487194624955,-0.016466778921413905,0.043221533485652,-0.09503166281295383,0.032013729790811074,-0.09504063407557842,0.03197216509514286,-0.09504063407557842,0.03197216509514286,right_arm__right_thigh,right_arm__right_thigh
8.14673012300561,0.0,0.0,0.0,0.0,1.5708,0.0,0.0,1.5708,2.2773181579732293e-06,0.009789245877701046,0.01617614353024731,0.30880661225224887,1.5793059377692265,0.0161781354791095,-0.3087265945031425,1.5793074494489545,0.4375358163908537,0.16561060951136836,0.2857537043562215,-0.016456828261696088,0.043190177610958363,-0.016466778921413905,0.04316522089225844,-0.09503166281295383,0.031904533168124055,-0.09504063407557842,0.031862965997447396,-0.09504063407557842,0.031862965997447396,right_arm__right_thigh,right_arm__right_thigh
8.16673012300561,0.0,0.0,0.0,0.0,1.5708,0.0,0.0,1.5708,2.2656737382075358e-06,0.009871227494697998,0.01625290443690296,0.3085437576189496,1.5793472080897497,0.016254856379797587,-0.3084637104913386,1.5793487026358586,0.437173952259898,0.16561060951136836,0.28565552447401876,-0.016456828261696088,0.04314025005719496,-0.016466778921413905,0.04311528679974569,-0.09503166281295383,0.03180936695679837,-0.09504063407557842,0.03176778993680626,-0.09504063407557842,0.03176778993680626,right_arm__right_thigh,right_arm__right_thigh
8.18673012300561,0.0,0.0,0.0,0.0,1.5708,0.0,0.0,1.5708,2.254883777673736e-06,0.009947139349436121,0.016324202627046036,0.3082987899865152,1.5793855340022658,0.016326117818881065,-0.30821870198022333,1.579387012842689,0.43683672881518804,0.16561060951136836,0.2855640137260613,-0.016456828261696088,0.04309371904248571,-0.016466778921413905,0.04306874716272269,-0.09503166281295383,0.031720668564475835,-0.09504063407557842,0.03167907706225473,-0.09504063407557842,0.03167907706225473,right_arm__right_thigh,right_arm__right_thigh
8.20673012300561,0.0,0.0,0.0,0.0,1.5708,0.0,0.0,1.5708,2.2450227197794474e-06,0.01001645262348956,0.01638956217015012,0.3080732677315737,1.579420658979889,0.016391444149412206,-0.30799312634448983,1.5794221236669665,0.4365262735067272,0.16561060951136836,0.28547975593746816,-0.016456828261696088,0.04305088159457607,-0.016466778921413905,0.04302589882699007,-0.09503166281295383,0.031638994189659514,-0.09504063407557842,0.031597383169672255,-0.09504063407557842,0.031597383169672255,right_arm__right_thigh,right_arm__right_thigh
8.22673012300561,0.0,0.0,0.0,0.0,1.5708,0.0,0.0,1.5708,2.235666888001354e-06,0.010083186428712039,0.016452580735607077,0.30786570481436737,1.5794545213808326,0.01645443081136768,-0.30778549658585913,1.5794559724873938,0.4362409163171504,0.16561060951136836,0.28540220483678513,-0.016456828261696088,0.043011422439521246,-0.016466778921413905,0.04298642635103564,-0.09503166281295383,0.03156414485125078,-0.09504063407557842,0.03152250902947065,-0.09504063407557842,0.03152250902947065,right_arm__right_thigh,right_arm__right_thigh
8.246730123005609,0.0,0.0,0.0,0.0,1.5708,0.0,0.0,1.5708,2.2267571881622374e-06,0.010147642474740766,0.016513532137741843,0.30767400060657796,1.5794872688833888,0.01651535146595583,-0.3075937136504465,1.5794887069152614,0.43597772170777593,0.16561060951136836,0.2853305766092386,-0.016456828261696088,0.04297494677961519,-0.016466778921413905,0.04294993522113533,-0.09503166281295383,0.031495322637327655,-0.09504063407557842,0.0314536573475486,-0.09504063407557842,0.0314536573475486,right_arm__right_thigh,right_arm__right_thigh
8.266730123005608,0.0,0.0,0.0,0.0,1.5708,0.0,0.0,1.5708,2.2184832672616934e-06,0.010211200315173,0.016573547408671833,0.3075331183860198,1.579519511167691,0.016575336184803988,-0.30745274328262345,1.5795209361997138,0.4357861697204128,0.16561060951136836,0.28527796308500697,-0.016456828261696088,0.04294797799021555,-0.016466778921413905,0.04292294946822672,-0.09503166281295383,0.03144639609666705,-0.09504063407557842,0.03140469794009104,-0.09504063407557842,0.03140469794009104,right_arm__right_thigh,right_arm__right_thigh
8.286730123005608,0.0,0.0,0.0,0.0,1.5708,0.0,0.0,1.5708,2.2105538471408836e-06,0.01027427145730559,0.016633055431074996,0.3074197743759411,1.5795514796963341,0.016634813761039126,-0.3073393060211883,1.5795528917690589,0.4356334519235627,0.16561060951136836,0.2852356529941073,-0.016456828261696088,0.042926160990160916,-0.016466778921413905,0.04290111469466354,-0.09503166281295383,0.031408256387280176,-0.09504063407557842,0.031366523521316775,-0.09504063407557842,0.031366523521316775,right_arm__right_thigh,right_arm__right_thigh
8.306730123005607,0.0,0.0,0.0,0.0,1.5708,0.0,0.0,1.5708,2.203113001348733e-06,0.010333691095185758,0.01668923954276892,0.30731775840661024,1.5795816576688704,0.016690969335555597,-0.3072371903952157,1.5795830576154823,0.4354963372485245,0.16561060951136836,0.2851975727408637,-0.016456828261696088,0.04290649633076682,-0.016466778921413905,0.042881431106378626,-0.09503166281295383,0.03137422185292435,-0.09504063407557842,0.03133245170435964,-0.09504063407557842,0.03133245170435964,right_arm__right_thigh,right_arm__right_thigh
8.326730123005607,0.0,0.0,0.0,0.0,1.5708,0.0,0.0,1.5708,2.1965510322759694e-06,0.010386542188854838,0.016739444405107506,0.3072361199943994,1.5796086146820052,0.016741149094723115,-0.30715544080415286,1.5796100040012877,0.435387254571599,0.16561060951136836,0.2851671036904056,-0.016456828261696088,0.04289070391560179,-0.016466778921413905,0.04286561768552452,-0.09503166281295383,0.03134755720990268,-0.09504063407557842,0.031305745152387016,-0.09504063407557842,0.031305745152387016,right_arm__right_thigh,right_arm__right_thigh
8.346730123005607,0.0,0.0,0.0,0.0,1.5708,0.0,0.0,1.5708,2.189917084423957e-06,0.010440398135581957,0.016790599258328518,0.30715742549244446,1.5796360810572045,0.01679227834610989,-0.30707663209924524,1.5796374595387956,0.4352824666692231,0.16561060951136836,0.2851377371493018,-0.016456828261696088,0.04287545166283557,-0.016466778921413905,0.042850343880192626,-0.09503166281295383,0.03132216293806889,-0.09504063407557842,0.031280307845201444,-0.09504063407557842,0.031280307845201444,right_arm__right_thigh,right_arm__right_thigh
8.366730123005606,0.0,0.0,0.0,0.0,1.5708,0.0,0.0,1.5708,2.1824575252916113e-06,0.010505779951856465,0.01685265070075174,0.307112498241628,1.5796693899191847,0.016854298466930647,-0.3070315559584258,1.579670755150188,0.4352266879851842,0.16561060951136836,0.2851210291613402,-0.016456828261696088,0.04286639636997169,-0.016466778921413905,0.0428412607778845,-0.09503166281295383,0.03131123552740836,-0.09504063407557842,0.031269324485707545,-0.09504063407557842,0.031269324485707545,right_arm__right_thigh,right_arm__right_thigh
8.386730123005606,0.0,0.0,0.0,0.0,1.5708,0.0,0.0,1.5708,2.174997966159265e-06,0.010571161768130971,0.01691470214317496,0.30706757099081156,1.5797026987811649,0.016916318587751403,-0.30698647981760635,1.5797040507615805,0.4351709440663162,0.16561060951136836,0.28510432043637457,-0.016456828261696088,0.04285734154714402,-0.016466778921413905,0.04283217814408108,-0.09503166281295383,0.03130032203851013,-0.09504063407557842,0.03125835504859492,-0.09504063407557842,0.03125835504859492,right_arm__right_thigh,right_arm__right_thigh
8.406730123005605,0.0,0.0,0.0,0.0,1.5708,0.0,0.0,1.5708,2.1687498231822875e-06,0.010627107852653228,0.01696818054545997,0.3070536949420987,1.579731386893681,0.016969770579624295,-0.306972431398229,1.5797327277675928,0.4351579439742703,0.16561060951136836,0.2850992126359533,-0.016456828261696088,0.042854182509511285,-0.016466778921413905,0.042828987028575155,-0.09503166281295383,0.03130068232471733,-0.09504063407557842,0.03125865006315173,-0.09504063407557842,0.03125865006315173,right_arm__right_thigh,right_arm__right_thigh
8.426730123005605,0.0,0.0,0.0,0.0,1.5708,0.0,0.0,1.5708,2.1625140431268926e-06,0.010682957642263772,0.01702157145690009,0.3070401357816615,1.579760027849848,0.01702313513077269,-0.30695869962749905,1.5797613576391372,0.43514540432002574,0.16561060951136836,0.28509422284919994,-0.016456828261696088,0.042851084092970865,-0.016466778921413905,0.04282585648978382,-0.09503166281295383,0.03130116695124563,-0.09504063407557842,0.03125906932576278,-0.09504063407557842,0.03125906932576278,right_arm__right_thigh,right_arm__right_thigh
8.446730123005604,0.0,0.0,0.0,0.0,1.5708,0.0,0.0,1.5708,2.155593754749693e-06,0.010750784857724871,0.017086407739120246,0.3070689383004245,1.5797947895342443,0.017087939214690134,-0.30698728761014493,1.5797961058191163,0.43519407872533594,0.16561060951136836,0.2851051097302881,-0.016456828261696088,0.04285578462782744,-0.016466778921413905,0.04283051734078375,-0.09503166281295383,0.03131955677259418,-0.09504063407557842,0.03127737809092418,-0.09504063407557842,0.03127737809092418,right_arm__right_thigh,right_arm__right_thigh
8.466730123005604,0.0,0.0,0.0,0.0,1.5708,0.0,0.0,1.5708,2.1489272872573107e-06,0.010816480818790265,0.01714926083567605,0.30710225733653923,1.5798284846048147,0.01715076118040661,-0.3070203915002204,1.579829787844218,0.4352489056610207,0.16561060951136836,0.28511768233613605,-0.016456828261696088,0.04286135104708988,-0.016466778921413905,0.04283604397758556,-0.09503166281295383,0.03133951467533738,-0.09504063407557842,0.0312972546572336,-0.09504063407557842,0.0312972546572336,right_arm__right_thigh,right_arm__right_thigh
8.486730123005604,0.0,0.0,0.0,0.0,1.5708,0.0,0.0,1.5708,2.143897170318915e-06,0.010867815904386728,0.01719872086764861,0.30715925735711913,1.5798549799836745,0.0172001972583006,-0.3070771767855438,1.5798562732542114,0.4353354601256971,0.16561060951136836,0.28513909037221685,-0.016456828261696088,0.04287148584396422,-0.016466778921413905,0.04284613913694327,-0.09503166281295383,0.031367312954270865,-0.09504063407557842,0.03132497139866158,-0.09504063407557842,0.03132497139866158,right_arm__right_thigh,right_arm__right_thigh
8.506730123005603,0.0,0.0,0.0,0.0,1.5708,0.0,0.0,1.5708,2.1391100260891266e-06,0.010917001656581996,0.017246132246099364,0.3072178556408825,1.5798803757473474,0.017247585704670308,-0.3071355646332759,1.5798816594807394,0.4354240288151952,0.16561060951136836,0.285161092271263,-0.016456828261696088,0.04288194118974342,-0.016466778921413905,0.042856555650294836,-0.09503166281295383,0.031395519486778295,-0.09504063407557842,0.03135309800792041,-0.09504063407557842,0.03135309800792041,right_arm__right_thigh,right_arm__right_thigh
8.526730123005603,0.0,0.0,0.0,0.0,1.5708,0.0,0.0,1.5708,2.13572307605671e-06,0.01095380130922799,0.01728173771931044,0.3072856643369925,1.579899434689025,0.01728317413533009,-0.3072031876687724,1.5799007113731827,0.4355241130115693,0.16561060951136836,0.28518652014562207,-0.016456828261696088,0.04289424244819737,-0.016466778921413905,0.04286882271051759,-0.09503166281295383,0.031426052783464054,-0.09504063407557842,0.03138356064440043,-0.09504063407557842,0.03138356064440043,right_arm__right_thigh,right_arm__right_thigh
8.546730123005602,0.0,0.0,0.0,0.0,1.5708,0.0,0.0,1.5708,2.1323361260242936e-06,0.010990600961873983,0.017317343192521515,0.30735347303310256,1.5799184936307025,0.017318762565989874,-0.3072708107042689,1.5799197632656257,0.43562420585935957,0.16561060951136836,0.28521194721815446,-0.016456828261696088,0.0429065436559041,-0.016466778921413905,0.042881089721446164,-0.09503166281295383,0.031456587579641704,-0.09504063407557842,0.03141402478711239,-0.09504063407557842,0.03141402478711239,right_arm__right_thigh,right_arm__right_thigh
8.566730123005602,0.0,0.0,0.0,0.0,1.5708,0.0,0.0,1.5708,2.12826661008705e-06,0.011038901751963889,0.017364085435594326,0.30745561401242244,1.579943496706584,0.017365482434032766,-0.30737272042650743,1.5799447571297511,0.43577414191841785,0.16561060951136836,0.28525024087621914,-0.016456828261696088,0.042925145315857005,-0.016466778921413905,0.04289964889435735,-0.09503166281295383,0.03150182952585487,-0.09504063407557842,0.03145917889727787,-0.09504063407557842,0.03145917889727787,right_arm__right_thigh,right_arm__right_thigh
8.586730123005601,0.0,0.0,0.0,0.0,1.5708,0.0,0.0,1.5708,2.1238874693969314e-06,0.01109241967466131,0.017415879527275278,0.3075733287621713,1.579971196153718,0.017417251731771034,-0.30749018323575816,1.5799724463841687,0.43594670002204333,0.16561060951136836,0.2852943693909526,-0.016456828261696088,0.04294660468631703,-0.016466778921413905,0.04292106201972409,-0.09503166281295383,0.0315537440663278,-0.09504063407557842,0.03151099781758726,-0.09504063407557842,0.03151099781758726,right_arm__right_thigh,right_arm__right_thigh
8.606730123005601,0.0,0.0,0.0,0.0,1.5708,0.0,0.0,1.5708,2.119578178776255e-06,0.011149598209830733,0.017471475614090622,0.3077219433443273,1.580000901589325,0.017472821666788152,-0.3076385176737856,1.5800021411598952,0.4361633334726602,0.16561060951136836,0.2853500642770178,-0.016456828261696088,0.04297379913931007,-0.016466778921413905,0.04294820514007139,-0.09503166281295383,0.031618206754665534,-0.09504063407557842,0.03157535421502963,-0.09504063407557842,0.03157535421502963,right_arm__right_thigh,right_arm__right_thigh
8.6267301230056,0.0,0.0,0.0,0.0,1.5708,0.0,0.0,1.5708,2.1152971789121215e-06,0.011208259370530388,0.017528611589406915,0.3078830730126217,1.5800314194927216,0.017529930940345988,-0.3077993557748843,1.5800326482142002,0.43639783082371536,0.16561060951136836,0.2854104409634844,-0.016456828261696088,0.043003315643831364,-0.016466778921413905,0.042977668255515494,-0.09503166281295383,0.031687751025616745,-0.09504063407557842,0.03164478788781758,-0.09504063407557842,0.03164478788781758,right_arm__right_thigh,right_arm__right_thigh
8.6467301230056,0.0,0.0,0.0,0.0,1.5708,0.0,0.0,1.5708,2.1123016835892473e-06,0.011252938344189414,0.017572504576053163,0.3080534644247728,1.5800548394664076,0.01757380410751513,-0.3079694650935251,1.5800560602347324,0.43664369365930317,0.16561060951136836,0.2854742531674553,-0.016456828261696088,0.04303470032587389,-0.016466778921413905,0.04300900131986937,-0.09503166281295383,0.03175946828509957,-0.09504063407557842,0.031716397875145075,-0.09504063407557842,0.031716397875145075,right_arm__right_thigh,right_arm__right_thigh
8.6667301230056,0.0,0.0,0.0,0.0,1.5708,0.0,0.0,1.5708,2.109486111093217e-06,0.011295660331671375,0.017614544036802855,0.3082251521366124,1.5800772659939115,0.017615824712051146,-0.30814087203781776,1.5800784792144067,0.4368911542471502,0.16561060951136836,0.285538542538929,-0.016456828261696088,0.04306634511642357,-0.016466778921413905,0.043040594746233285,-0.09503166281295383,0.031831486184316304,-0.09504063407557842,0.031788308985045144,-0.09504063407557842,0.031788308985045144,right_arm__right_thigh,right_arm__right_thigh
8.6867301230056,0.0,0.0,0.0,0.0,1.5708,0.0,0.0,1.5708,2.107072333541304e-06,0.011336740758022552,0.017655195180902115,0.30843278268257995,1.5800989273913086,0.01765645810647143,-0.308348184818539,1.5801001336017946,0.43718911831728297,0.16561060951136836,0.28561626752977864,-0.016456828261696088,0.04310471898211937,-0.016466778921413905,0.04307891053236099,-0.09503166281295383,0.03191745280776492,-0.09504063407557842,0.03187415461615173,-0.09504063407557842,0.03187415461615173,right_arm__right_thigh,right_arm__right_thigh
8.706730123005599,0.0,0.0,0.0,0.0,1.5708,0.0,0.0,1.5708,2.104743684332529e-06,0.011377641318496548,0.01769570819565035,0.308644407917418,1.5801205085682712,0.01769695347201448,-0.3085594904233067,1.5801217078254899,0.43749270481103775,0.16561060951136836,0.28569548049088933,-0.016456828261696088,0.04314383821890164,-0.016466778921413905,0.04311797137175927,-0.09503166281295383,0.03200496455637647,-0.09504063407557842,0.03196154468340662,-0.09504063407557842,0.03196154468340662,right_arm__right_thigh,right_arm__right_thigh
8.726730123005598,0.0,0.0,0.0,0.0,1.5708,0.0,0.0,1.5708,2.102748352977853e-06,0.011418693757084483,0.017736475745212078,0.30885321635775315,1.5801421931185975,0.017737703082788218,-0.3087680023875278,1.5801433853530749,0.43779236999871063,0.16561060951136836,0.28577363825197155,-0.016456828261696088,0.043182426069882485,-0.016466778921413905,0.04315650514712974,-0.09503166281295383,0.03209138814458043,-0.09504063407557842,0.032047855526834534,-0.09504063407557842,0.032047855526834534,right_arm__right_thigh,right_arm__right_thigh
8.746730123005598,0.0,0.0,0.0,0.0,1.5708,0.0,0.0,1.5708,2.1007919398564155e-06,0.011459152375779944,0.017776672170042886,0.30906194448867763,1.5801635724662781,0.01777788173062806,-0.30897643500137034,1.5801647577308726,0.43809185500739645,0.16561060951136836,0.2858517587773754,-0.016456828261696088,0.04322100237566229,-0.016466778921413905,0.04319502756351579,-0.09503166281295383,0.03217771038642461,-0.09504063407557842,0.03213406539613328,-0.09504063407557842,0.03213406539613328,right_arm__right_thigh,right_arm__right_thigh
8.766730123005598,0.0,0.0,0.0,0.0,1.5708,0.0,0.0,1.5708,2.099473162595531e-06,0.011489881856571595,0.017807511294221104,0.30926935683119317,1.5801799513775259,0.01780870572869573,-0.3091835675395767,1.5801811305382656,0.4383882724902794,0.16561060951136836,0.2859293640743458,-0.016456828261696088,0.04325942768117144,-0.016466778921413905,0.04323340189934477,-0.09503166281295383,0.03226247686701972,-0.09504063407557842,0.0322187252195931,-0.09504063407557842,0.0322187252195931,right_arm__right_thigh,right_arm__right_thigh
8.786730123005597,0.0,0.0,0.0,0.0,1.5708,0.0,0.0,1.5708,2.0981543853346463e-06,0.011520611337363245,0.017838350418399318,0.3094767691737087,1.5801963302887736,0.0178395297267634,-0.309390700077783,1.5801975033456586,0.43868469326083803,0.16561060951136836,0.28600696339663456,-0.016456828261696088,0.043297850382970765,-0.016466778921413905,0.04327177363959847,-0.09503166281295383,0.03234723605324216,-0.09504063407557842,0.03230337777078082,-0.09504063407557842,0.03230337777078082,right_arm__right_thigh,right_arm__right_thigh
8.806730123005597,0.0,0.0,0.0,0.0,1.5708,0.0,0.0,1.5708,2.096769843182251e-06,0.011556593543955239,0.017874640449079625,0.30971608235161263,1.5802155689169013,0.0178757986746083,-0.3096297033553534,1.5802167331308492,0.43902680382434195,0.16561060951136836,0.28609649440226087,-0.016456828261696088,0.04334217215277317,-0.016466778921413905,0.04331603907317286,-0.09503166281295383,0.032445094666448154,-0.09504063407557842,0.032401118113702804,-0.09504063407557842,0.032401118113702804,right_arm__right_thigh,right_arm__right_thigh
8.826730123005596,0.0,0.0,0.0,0.0,1.5708,0.0,0.0,1.5708,2.095372532421259e-06,0.011593595595608536,0.017911988802673997,0.3099615892488652,1.5802353627744943,0.01791312478883699,-0.3098748945089667,1.5802365176136972,0.4393777894224719,0.16561060951136836,0.286188334973783,-0.016456828261696088,0.04338763620848396,-0.016466778921413905,0.04336144575817599,-0.09503166281295383,0.032545488051196725,-0.09504063407557842,0.03250139099381444,-0.09504063407557842,0.03250139099381444,right_arm__right_thigh,right_arm__right_thigh
8.846730123005596,0.0,0.0,0.0,0.0,1.5708,0.0,0.0,1.5708,2.094532328739526e-06,0.0116256242196373,0.017944624982041517,0.31022506987832354,1.580252633127584,0.017945740196400835,-0.310138046042693,1.5802537790951168,0.43975350151674786,0.16561060951136836,0.2862868761263054,-0.016456828261696088,0.043436501838511776,-0.016466778921413905,0.043410251629621754,-0.09503166281295383,0.032652399508059454,-0.09504063407557842,0.032608176645419346,-0.09504063407557842,0.032608176645419346,right_arm__right_thigh,right_arm__right_thigh
8.866730123005595,0.0,0.0,0.0,0.0,1.5708,0.0,0.0,1.5708,2.0938251179070187e-06,0.01165646558481614,0.017976136269086156,0.31049284120511156,1.5802693010685587,0.017977231061978852,-0.3104054850863313,1.5802704382845159,0.4401351178688946,0.16561060951136836,0.28638700910619674,-0.016456828261696088,0.0434861759552814,-0.016466778921413905,0.043459865427666305,-0.09503166281295383,0.03276085732936179,-0.09504063407557842,0.03271650742163998,-0.09504063407557842,0.03271650742163998,right_arm__right_thigh,right_arm__right_thigh
8.886730123005595,0.0,0.0,0.0,0.0,1.5708,0.0,0.0,1.5708,2.093524587529969e-06,0.011685326206959971,0.01800585973971323,0.3107837268862858,1.580284993909636,0.01800693412052077,-0.3106960182341431,1.5802861223027358,0.44054908896060796,0.16561060951136836,0.2864957666786084,-0.016456828261696088,0.043540179585462524,-0.016466778921413905,0.04351380510824815,-0.09503166281295383,0.032878166803129216,-0.09504063407557842,0.0328336819854769,-0.09504063407557842,0.0328336819854769,right_arm__right_thigh,right_arm__right_thigh
8.906730123005595,0.0,0.0,0.0,0.0,1.5708,0.0,0.0,1.5708,2.093299864331017e-06,0.01171381760914743,0.018035249952826318,0.311078921193449,1.5803005049874381,0.018036303923297446,-0.3109908562332075,1.5803016245443933,0.440969092298972,0.16561060951136836,0.2866061219505076,-0.016456828261696088,0.04359498562876471,-0.016466778921413905,0.04356854653769754,-0.09503166281295383,0.03299711400238281,-0.09504063407557842,0.03295249284051985,-0.09504063407557842,0.03295249284051985,right_arm__right_thigh,right_arm__right_thigh
8.926730123005594,0.0,0.0,0.0,0.0,1.5708,0.0,0.0,1.5708,2.0933539539655886e-06,0.011747369516097951,0.0180701378880949,0.3113960206264429,1.5803188604468448,0.018071166177450294,-0.31130758297250033,1.5803199688396083,0.4414206939126388,0.16561060951136836,0.2867246618850627,-0.016456828261696088,0.04365381831795401,-0.016466778921413905,0.04362731174641518,-0.09503166281295383,0.03312522344504268,-0.09504063407557842,0.03308045951539901,-0.09504063407557842,0.03308045951539901,right_arm__right_thigh,right_arm__right_thigh
8.946730123005594,0.0,0.0,0.0,0.0,1.5708,0.0,0.0,1.5708,2.0935280638046154e-06,0.0117795787032016,0.018103696527063104,0.3117112662343562,1.5803365101278952,0.018104700087835122,-0.31162245952900425,1.5803376077745122,0.4418695104211578,0.16561060951136836,0.2868424929952368,-0.016456828261696088,0.04371231236904263,-0.016466778921413905,0.04368573899460762,-0.09503166281295383,0.03325244342316705,-0.09504063407557842,0.03320753814660518,-0.09504063407557842,0.03320753814660518,right_arm__right_thigh,right_arm__right_thigh
8.966730123005593,0.0,0.0,0.0,0.0,1.5708,0.0,0.0,1.5708,2.094248174655746e-06,0.011804979492646602,0.018130473085972012,0.31201583508513364,1.580350565305568,0.018131456891922568,-0.3119266780244929,1.5803516543901786,0.4423023881182045,0.16561060951136836,0.2869563098261344,-0.016456828261696088,0.04376887755945219,-0.016466778921413905,0.04374224078142616,-0.09503166281295383,0.033374720250304385,-0.09504063407557842,0.033329680759038416,-0.09504063407557842,0.033329680759038416,right_arm__right_thigh,right_arm__right_thigh
8.986730123005593,0.0,0.0,0.0,0.0,1.5708,0.0,0.0,1.5708,2.095051512319989e-06,0.011829572022230811,0.018156455751461333,0.31232105202827454,1.5803641967629567,0.01815742040133033,-0.31223154516211976,1.5803652775551762,0.44273607635758,0.16561060951136836,0.28707035454516033,-0.016456828261696088,0.04382556588799791,-0.016466778921413905,0.04379886582319223,-0.09503166281295383,0.03349714846960081,-0.09504063407557842,0.03345197500786823,-0.09504063407557842,0.03345197500786823,right_arm__right_thigh,right_arm__right_thigh
9.006730123005593,0.0,0.0,0.0,0.0,1.5708,0.0,0.0,1.5708,2.096137600098162e-06,0.011851418615028808,0.018179741287907253,0.3126284707641158,1.5803763886967812,0.018180688815820092,-0.3125386159602213,1.5803774621125863,0.44317251580657113,0.16561060951136836,0.28718520391081925,-0.016456828261696088,0.04388268679243157,-0.016466778921413905,0.043855923800585755,-0.09503166281295383,0.0336201282119826,-0.09504063407557842,0.033574821516510006,-0.09504063407557842,0.033574821516510006,right_arm__right_thigh,right_arm__right_thigh
9.026730123005592,0.0,0.0,0.0,0.0,1.5708,0.0,0.0,1.5708,2.0972899903293473e-06,0.011873496200131837,0.01820334021017696,0.3129313298410465,1.580388732162559,0.01820427046763492,-0.31284113352179543,1.5803897981656756,0.443602566501943,0.16561060951136836,0.2872983387819294,-0.016456828261696088,0.04393894771806692,-0.016466778921413905,0.043912122986503016,-0.09503166281295383,0.03374133776962912,-0.09504063407557842,0.03369590031124442,-0.09504063407557842,0.03369590031124442,right_arm__right_thigh,right_arm__right_thigh
9.046730123005592,0.0,0.0,0.0,0.0,1.5708,0.0,0.0,1.5708,2.098641914495637e-06,0.011896268945089557,0.018227882251498614,0.31322046685123844,1.5804015316562146,0.018228794791602162,-0.31312994834447366,1.5804025901374772,0.44401338991336875,0.16561060951136836,0.2874063409541086,-0.016456828261696088,0.04399263340729684,-0.016466778921413905,0.043965750476412685,-0.09503166281295383,0.033857252178906755,-0.09504063407557842,0.0338116913135752,-0.09504063407557842,0.0338116913135752,right_arm__right_thigh,right_arm__right_thigh
9.066730123005591,0.0,0.0,0.0,0.0,1.5708,0.0,0.0,1.5708,2.1000009526648157e-06,0.011918298768204667,0.01825164874242669,0.3135051391270171,1.5804139242524369,0.01825254416805276,-0.31341430373392853,1.5804149754748493,0.44441781831667027,0.16561060951136836,0.28751266338988946,-0.016456828261696088,0.04404548888154422,-0.016466778921413905,0.044018548721336676,-0.09503166281295383,0.03397131998218186,-0.09504063407557842,0.033925637775161444,-0.09504063407557842,0.033925637775161444,right_arm__right_thigh,right_arm__right_thigh
9.08673012300559,0.0,0.0,0.0,0.0,1.5708,0.0,0.0,1.5708,2.101426511301309e-06,0.011933381797942925,0.018268163342202097,0.3137480632865426,1.5804225120979707,0.01826904729063481,-0.3136569605766393,1.5804235585207813,0.44476244360137535,0.16561060951136836,0.28760337729070395,-0.016456828261696088,0.044090627436170676,-0.016466778921413905,0.044063639000328114,-0.09503166281295383,0.03406823968151196,-0.09504063407557842,0.034022455155517745,-0.09504063407557842,0.034022455155517745,right_arm__right_thigh,right_arm__right_thigh
9.10673012300559,0.0,0.0,0.0,0.0,1.5708,0.0,0.0,1.5708,2.1028520699378026e-06,0.011948464827681183,0.018284677941977502,0.31399098744606807,1.5804310999435045,0.01828555041321686,-0.31389961741934996,1.5804321415667135,0.44510706899370917,0.16561060951136836,0.28769408307706557,-0.016456828261696088,0.044135762116373156,-0.016466778921413905,0.044108725414519295,-0.09503166281295383,0.03416514983573815,-0.09504063407557842,0.03411926301391843,-0.09504063407557842,0.03411926301391843,right_arm__right_thigh,right_arm__right_thigh
9.12673012300559,0.0,0.0,0.0,0.0,1.5708,0.0,0.0,1.5708,2.1044310657756417e-06,0.011963795100062026,0.01830159460961316,0.31423199309109234,1.5804398753375952,0.018302455608170974,-0.31414035923175465,1.5804409122284775,0.4454490383978243,0.16561060951136836,0.28778406591641753,-0.016456828261696088,0.0441805311097645,-0.016466778921413905,0.04415344678873903,-0.09503166281295383,0.03426133864042927,-0.09504063407557842,0.03421535084286423,-0.09504063407557842,0.03421535084286423,right_arm__right_thigh,right_arm__right_thigh
9.14673012300559,0.0,0.0,0.0,0.0,1.5708,0.0,0.0,1.5708,2.1061709567581465e-06,0.011979384632520592,0.018318932887953217,0.3144709869706157,1.5804488473961975,0.0183197824185606,-0.31437909293220584,1.5804498796252975,0.44578822275003416,0.16561060951136836,0.28787329124744804,-0.016456828261696088,0.04422491692789826,-0.016466778921413905,0.0441977856652182,-0.09503166281295383,0.03435677166074305,-0.09504063407557842,0.03431068426992176,-0.09504063407557842,0.03431068426992176,right_arm__right_thigh,right_arm__right_thigh
9.166730123005589,0.0,0.0,0.0,0.0,1.5708,0.0,0.0,1.5708,2.1079108477406518e-06,0.011994974164979159,0.018336271166293275,0.31470998085013907,1.5804578194547998,0.018337109228950228,-0.314617826632657,1.5804588470221175,0.4461274072605155,0.16561060951136836,0.2879625087019709,-0.016456828261696088,0.04426929899827581,-0.016466778921413905,0.044242120803183405,-0.09503166281295383,0.03445219534463759,-0.09504063407557842,0.03440600838289609,-0.09504063407557842,0.03440600838289609,right_arm__right_thigh,right_arm__right_thigh
9.186730123005589,0.0,0.0,0.0,0.0,1.5708,0.0,0.0,1.5708,2.1102080430541815e-06,0.012011312455759711,0.018354766794783536,0.31497415147820734,1.580467347008615,0.018355593312024375,-0.3148817119129056,1.5804683700302857,0.4465022289699532,0.16561060951136836,0.28806111475083407,-0.016456828261696088,0.04431835906536752,-0.016466778921413905,0.044291129411225455,-0.09503166281295383,0.03455758171591164,-0.09504063407557842,0.03451128551364227,-0.09504063407557842,0.03451128551364227,right_arm__right_thigh,right_arm__right_thigh
9.206730123005588,0.0,0.0,0.0,0.0,1.5708,0.0,0.0,1.5708,2.1126423488762367e-06,0.012027834959417455,0.018373547159743268,0.3152445162027573,1.5804770112278517,0.01837436211250954,-0.3151517850975078,1.5804780297324474,0.4468858184015348,0.16561060951136836,0.2881620226927566,-0.016456828261696088,0.04436856624914007,-0.016466778921413905,0.04434128403153084,-0.09503166281295383,0.034665409824544274,-0.09504063407557842,0.03461900202490331,-0.09504063407557842,0.03461900202490331,right_arm__right_thigh,right_arm__right_thigh
9.226730123005588,0.0,0.0,0.0,0.0,1.5708,0.0,0.0,1.5708,2.115162786581238e-06,0.012043519550532266,0.01839154006068915,0.31551196771143153,1.5804862504384833,0.018392343485579846,-0.31541894834139056,1.5804872643825147,0.4472651950387325,0.16561060951136836,0.2882618322820467,-0.016456828261696088,0.044418233722080425,-0.016466778921413905,0.044390899545579565,-0.09503166281295383,0.03477199881405996,-0.09504063407557842,0.03472548061804942,-0.09504063407557842,0.03472548061804942,right_arm__right_thigh,right_arm__right_thigh
9.246730123005587,0.0,0.0,0.0,0.0,1.5708,0.0,0.0,1.5708,2.1178081605392333e-06,0.01205798873046748,0.018408390727192976,0.31577519353429423,1.5804948731644783,0.018409182677295754,-0.31568189065015045,1.5804958824848625,0.44763846080473285,0.16561060951136836,0.28836005360441996,-0.016456828261696088,0.04446712066492289,-0.016466778921413905,0.04443973540074864,-0.09503166281295383,0.03487679631918916,-0.09504063407557842,0.03483016945504053,-0.09504063407557842,0.03483016945504053,right_arm__right_thigh,right_arm__right_thigh
9.266730123005587,0.0,0.0,0.0,0.0,1.5708,0.0,0.0,1.5708,2.1204535344972287e-06,0.012072457910402692,0.018425241393696806,0.316038419357157,1.5805034958904733,0.018426021869011665,-0.31594483295891035,1.5805045005872105,0.44801172662573874,0.16561060951136836,0.28845826535505303,-0.016456828261696088,0.044516003021208644,-0.016466778921413905,0.04448856668054635,-0.09503166281295383,0.03498158269160995,-0.09504063407557842,0.03493484718593995,-0.09504063407557842,0.03493484718593995,right_arm__right_thigh,right_arm__right_thigh
9.286730123005587,0.0,0.0,0.0,0.0,1.5708,0.0,0.0,1.5708,2.123406811575862e-06,0.012086450326961854,0.01844185102449983,0.3163166372885204,1.5805119696117773,0.0184426179504187,-0.3162227489682463,1.5805129685250696,0.44840608873425314,0.16561060951136836,0.2885620575439311,-0.016456828261696088,0.044567676782920396,-0.016466778921413905,0.04454018606394047,-0.09503166281295383,0.03509219253436158,-0.09504063407557842,0.03504534109669863,-0.09504063407557842,0.03504534109669863,right_arm__right_thigh,right_arm__right_thigh
9.306730123005586,0.0,0.0,0.0,0.0,1.5708,0.0,0.0,1.5708,2.1263804190442006e-06,0.01210041126353727,0.01845844474007043,0.3165958451267341,1.5805204334945209,0.018459197979609994,-0.3165016536689844,1.5805214265477887,0.44880184382163485,0.16561060951136836,0.2886662080945582,-0.016456828261696088,0.04461952999671537,-0.016466778921413905,0.04459198469331255,-0.09503166281295383,0.03520317527061373,-0.09504063407557842,0.035156207447887416,-0.09504063407557842,0.035156207447887416,right_arm__right_thigh,right_arm__right_thigh
9.326730123005586,0.0,0.0,0.0,0.0,1.5708,0.0,0.0,1.5708,2.129539269213715e-06,0.01211399900940712,0.018474741995115004,0.3168803121809533,1.5805287420827225,0.018475480821618557,-0.31678580955173646,1.5805297288503057,0.4492049709065684,0.16561060951136836,0.28877230767209744,-0.016456828261696088,0.04467236079590686,-0.016466778921413905,0.044644759465681055,-0.09503166281295383,0.035316169456816676,-0.09504063407557842,0.0352690820561084,-0.09504063407557842,0.0352690820561084,right_arm__right_thigh,right_arm__right_thigh
9.346730123005585,0.0,0.0,0.0,0.0,1.5708,0.0,0.0,1.5708,2.132818505759993e-06,0.012127344224388572,0.018490846585032396,0.317168197118606,1.5805369497473947,0.01849157052625694,-0.3170733780967547,1.5805379299526632,0.44961288894085893,0.16561060951136836,0.28887966956712324,-0.016456828261696088,0.04472582482162618,-0.016466778921413905,0.04469816653241182,-0.09503166281295383,0.03543046597089025,-0.09504063407557842,0.035383256929532036,-0.09504063407557842,0.035383256929532036,right_arm__right_thigh,right_arm__right_thigh
9.366730123005585,0.0,0.0,0.0,0.0,1.5708,0.0,0.0,1.5708,2.1360641242417755e-06,0.012140014179977262,0.018506191599675037,0.31744713344673103,1.5805447716529804,0.018506901120640202,-0.31735200645209183,1.5805457454792127,0.4500080922913447,0.16561060951136836,0.28898368247761813,-0.016456828261696088,0.04477762432214666,-0.016466778921413905,0.04474991059430755,-0.09503166281295383,0.035541169392304534,-0.09504063407557842,0.035493841929397,-0.09504063407557842,0.035493841929397,right_arm__right_thigh,right_arm__right_thigh
9.386730123005584,0.0,0.0,0.0,0.0,1.5708,0.0,0.0,1.5708,2.139245954363327e-06,0.012151402869376453,0.01852009536355043,0.3177090902985932,1.5805518616026983,0.018520791346604438,-0.3176136713073448,1.5805528293976554,0.45037917024027363,0.16561060951136836,0.28908135250233036,-0.016456828261696088,0.04482627107778811,-0.016466778921413905,0.044798504782372545,-0.09503166281295383,0.03564506843174786,-0.09504063407557842,0.0355976286226555,-0.09504063407557842,0.0355976286226555,right_arm__right_thigh,right_arm__right_thigh
9.406730123005584,0.0,0.0,0.0,0.0,1.5708,0.0,0.0,1.5708,2.142427784484879e-06,0.012162791558775645,0.018533999127425822,0.31797104715045527,1.580558951552416,0.01853468157256867,-0.3178753361625977,1.5805599133160981,0.4507502482057285,0.16561060951136836,0.28917901301704974,-0.016456828261696088,0.044874913238846265,-0.016466778921413905,0.04484709438736334,-0.09503166281295383,0.035748956707101376,-0.09504063407557842,0.035701404578984824,-0.09504063407557842,0.035701404578984824,right_arm__right_thigh,right_arm__right_thigh
9.426730123005584,0.0,0.0,0.0,0.0,1.5708,0.0,0.0,1.5708,2.146542702600534e-06,0.012175297220634478,0.018549444074380975,0.31827810561465836,1.5805668263044954,0.01855011398575049,-0.31818205030463714,1.5805677828088947,0.4511851023672585,0.16561060951136836,0.28929347368228103,-0.016456828261696088,0.04493193300983117,-0.016466778921413905,0.04490405215310045,-0.09503166281295383,0.03587062659405371,-0.09504063407557842,0.03582294213963133,-0.09504063407557842,0.03582294213963133,right_arm__right_thigh,right_arm__right_thigh
9.446730123005583,0.0,0.0,0.0,0.0,1.5708,0.0,0.0,1.5708,2.1508045213653266e-06,0.012187978732981608,0.01856513165739649,0.31859226464833823,1.5805748246118847,0.01856578919307905,-0.3184958567782829,1.5805757759785397,0.45162999716903757,0.16561060951136836,0.28941056736806864,-0.016456828261696088,0.04499026594175054,-0.016466778921413905,0.04496232160671079,-0.09503166281295383,0.03599508256987499,-0.09504063407557842,0.035947262673065944,-0.09504063407557842,0.035947262673065944,right_arm__right_thigh,right_arm__right_thigh
9.466730123005583,0.0,0.0,0.0,0.0,1.5708,0.0,0.0,1.5708,2.155136623535308e-06,0.01219857777998676,0.01857841539318308,0.31892272470942057,1.5805815902741946,0.018579064748332878,-0.3188259460893277,1.580582538604291,0.45209756720824745,0.16561060951136836,0.2895337154460118,-0.016456828261696088,0.04505165109970141,-0.016466778921413905,0.04502363998499581,-0.09503166281295383,0.03612564468078561,-0.09504063407557842,0.036077682726025684,-0.09504063407557842,0.036077682726025684,right_arm__right_thigh,right_arm__right_thigh
9.486730123005582,0.0,0.0,0.0,0.0,1.5708,0.0,0.0,1.5708,2.1594861992340914e-06,0.01220865909427772,0.01859110149580611,0.31925723745507406,1.580588049482097,0.018591743713402598,-0.31916008356263065,1.5805889952980217,0.45257077490646197,0.16561060951136836,0.2896583568030877,-0.016456828261696088,0.04511378925908216,-0.016466778921413905,0.04508571055865068,-0.09503166281295383,0.03625771202058273,-0.09504063407557842,0.03620960639599996,-0.09504063407557842,0.03620960639599996,right_arm__right_thigh,right_arm__right_thigh
9.506730123005582,0.0,0.0,0.0,0.0,1.5708,0.0,0.0,1.5708,2.1632340303691356e-06,0.012216578521211201,0.018601292928801697,0.31952220875244663,1.580593214716289,0.018601932247635046,-0.31942475845720864,1.5805941601586917,0.4529456210259624,0.16561060951136836,0.2897570761280326,-0.016456828261696088,0.0451630028282958,-0.016466778921413905,0.045134870736502214,-0.09503166281295383,0.03636232211595916,-0.09504063407557842,0.03631410318053513,-0.09504063407557842,0.03631410318053513,right_arm__right_thigh,right_arm__right_thigh
9.526730123005581,0.0,0.0,0.0,0.0,1.5708,0.0,0.0,1.5708,2.166887136649107e-06,0.012224157630210862,0.01861109165825968,0.3197762330400632,1.5805981762569548,0.01861172874558775,-0.3196784987574435,1.5805991216628104,0.4533049834741569,0.16561060951136836,0.2898517079152728,-0.016456828261696088,0.04521017844927899,-0.016466778921413905,0.045181995209128245,-0.09503166281295383,0.036462602412609124,-0.09504063407557842,0.03641427496428867,-0.09504063407557842,0.03641427496428867,right_arm__right_thigh,right_arm__right_thigh
9.546730123005581,0.0,0.0,0.0,0.0,1.5708,0.0,0.0,1.5708,2.1703520447985828e-06,0.012230981748181729,0.018620012679513524,0.3200128176563454,1.5806026832036604,0.01862064843657933,-0.31991481937492733,1.5806036289882635,0.4536396468552934,0.16561060951136836,0.2899398345301305,-0.016456828261696088,0.04525411345805336,-0.016466778921413905,0.04522588267511002,-0.09503166281295383,0.03655596648605802,-0.09504063407557842,0.03650753821913741,-0.09504063407557842,0.03650753821913741,right_arm__right_thigh,right_arm__right_thigh
9.56673012300558,0.0,0.0,0.0,0.0,1.5708,0.0,0.0,1.5708,2.173440667890582e-06,0.012236296330208138,0.018627178802983993,0.32021453323480537,1.5806062812310582,0.018627815031741053,-0.3201163109199443,1.5806072282247534,0.45392492652908295,0.16561060951136836,0.2900149658184097,-0.016456828261696088,0.04529157460294736,-0.016466778921413905,0.04526330347244717,-0.09503166281295383,0.03663551436736853,-0.09504063407557842,0.03658700063523221,-0.09504063407557842,0.03658700063523221,right_arm__right_thigh,right_arm__right_thigh
9.58673012300558,0.0,0.0,0.0,0.0,1.5708,0.0,0.0,1.5708,2.1765292909825815e-06,0.012241610912234548,0.018634344926454466,0.3204162488132653,1.5806098792584562,0.01863498162690278,-0.3203178024649613,1.5806108274612432,0.4542102063358142,0.16561060951136836,0.29009009144500436,-0.016456828261696088,0.045329032982281525,-0.016466778921413905,0.04530072151116993,-0.09503166281295383,0.036715056172883204,-0.09504063407557842,0.03666645699064591,-0.09504063407557842,0.03666645699064591,right_arm__right_thigh,right_arm__right_thigh
9.60673012300558,0.0,0.0,0.0,0.0,1.5708,0.0,0.0,1.5708,2.17973302025113e-06,0.012246873307687282,0.018641520372792802,0.3206237540093839,1.5806134737400575,0.018642157907867978,-0.3205250775444938,1.5806144233711574,0.45450364837563817,0.16561060951136836,0.2901673670957357,-0.016456828261696088,0.04536756560148053,-0.016466778921413905,0.04533921270040711,-0.09503166281295383,0.036796853265310264,-0.09504063407557842,0.03674816634205044,-0.09504063407557842,0.03674816634205044,right_arm__right_thigh,right_arm__right_thigh
9.62673012300558,0.0,0.0,0.0,0.0,1.5708,0.0,0.0,1.5708,2.183470722157166e-06,0.01225189361185332,0.018648739067517038,0.3208581169945801,1.5806170517728588,0.01864937912086185,-0.32075918219366245,1.5806180038492283,0.45483495426384607,0.16561060951136836,0.29025463606238433,-0.016456828261696088,0.045411091066932474,-0.016466778921413905,0.04538269165856426,-0.09503166281295383,0.03688913349161646,-0.09504063407557842,0.03684034814765941,-0.09504063407557842,0.03684034814765941,right_arm__right_thigh,right_arm__right_thigh
9.646730123005579,0.0,0.0,0.0,0.0,1.5708,0.0,0.0,1.5708,2.1872084240632014e-06,0.012256913916019357,0.018655957762241274,0.3210924799797763,1.5806206298056602,0.01865660033385572,-0.3209932868428312,1.5806215843272995,0.45516626042115377,0.16561060951136836,0.29034189737804794,-0.016456828261696088,0.0454546127855944,-0.016466778921413905,0.0454261668792805,-0.09503166281295383,0.036981405647443566,-0.09504063407557842,0.036932521902788645,-0.09504063407557842,0.036932521902788645,right_arm__right_thigh,right_arm__right_thigh
9.666730123005578,0.0,0.0,0.0,0.0,1.5708,0.0,0.0,1.5708,2.1911187921877085e-06,0.012261215725258292,0.018662560578799496,0.3213154720113401,1.5806238589434098,0.018663206773159035,-0.3212160341721234,1.5806248165169599,0.4554814510576104,0.16561060951136836,0.29042491759518474,-0.016456828261696088,0.04549602219276294,-0.016466778921413905,0.04546753224540506,-0.09503166281295383,0.037069159317929035,-0.09504063407557842,0.03702018234689944,-0.09504063407557842,0.03702018234689944,right_arm__right_thigh,right_arm__right_thigh
9.686730123005578,0.0,0.0,0.0,0.0,1.5708,0.0,0.0,1.5708,2.195206175766391e-06,0.012264780941624746,0.018668532004028023,0.32152680666985506,1.580626730397899,0.0186691829534284,-0.32142713810553925,1.5806276916452808,0.45578012024123915,0.16561060951136836,0.290503591145262,-0.016456828261696088,0.04553526669577812,-0.016466778921413905,0.045506735224590644,-0.09503166281295383,0.03715228207760937,-0.09504063407557842,0.03710321718122936,-0.09504063407557842,0.03710321718122936,right_arm__right_thigh,right_arm__right_thigh
9.706730123005578,0.0,0.0,0.0,0.0,1.5708,0.0,0.0,1.5708,2.199293559345073e-06,0.012268346157991203,0.01867450342925655,0.32173814132837003,1.5806296018523878,0.018675159133697772,-0.321638242038955,1.580630566773602,0.4560787896978961,0.16561060951136836,0.2905822584651783,-0.016456828261696088,0.04557450814371458,-0.016466778921413905,0.045545935156266676,-0.09503166281295383,0.03723539834504394,-0.09504063407557842,0.037186245539153645,-0.09504063407557842,0.037186245539153645,right_arm__right_thigh,right_arm__right_thigh
9.726730123005577,0.0,0.0,0.0,0.0,1.5708,0.0,0.0,1.5708,2.2039794690428526e-06,0.012271229694554948,0.01868004092674579,0.3219849638307926,1.580632203705163,0.018680702576176406,-0.32188479615447513,1.5806331730004222,0.4564274291826899,0.16561060951136836,0.29067412526515074,-0.016456828261696088,0.045620349787572234,-0.016466778921413905,0.04559172852120902,-0.09503166281295383,0.037332313309983184,-0.09504063407557842,0.03728305827405409,-0.09504063407557842,0.03728305827405409,right_arm__right_thigh,right_arm__right_thigh
9.746730123005577,0.0,0.0,0.0,0.0,1.5708,0.0,0.0,1.5708,2.209091466801305e-06,0.012273627946323478,0.01868526951302296,0.32225704997018206,1.5806346136296867,0.018685937954562012,-0.32215658709569306,1.5806355877974694,0.4568116425826482,0.16561060951136836,0.29077538367494804,-0.016456828261696088,0.04567088759273552,-0.016466778921413905,0.045642213239241974,-0.09503166281295383,0.03743904655686153,-0.09504063407557842,0.03738967910857505,-0.09504063407557842,0.03738967910857505,right_arm__right_thigh,right_arm__right_thigh
9.766730123005576,0.0,0.0,0.0,0.0,1.5708,0.0,0.0,1.5708,2.2144837803077272e-06,0.01227537177505813,0.01868994197924071,0.32254335135021656,1.5806367090064017,0.018690617886901913,-0.32244257839760115,1.5806376884159334,0.457215822896222,0.16561060951136836,0.29088191969287636,-0.016456828261696088,0.045724068674678126,-0.016466778921413905,0.045695338572807415,-0.09503166281295383,0.03755125729304448,-0.09504063407557842,0.037501771780844045,-0.09504063407557842,0.037501771780844045,right_arm__right_thigh,right_arm__right_thigh
9.786730123005576,0.0,0.0,0.0,0.0,1.5708,0.0,0.0,1.5708,2.2203618300880327e-06,0.01227598160754633,0.018693650790410726,0.3228542851601922,1.5806382593289001,0.018694335332137407,-0.3227531763451914,1.5806392446199808,0.457654602130544,0.16561060951136836,0.2909976062587916,-0.016456828261696088,0.04578183272664402,-0.016466778921413905,0.04575304225835933,-0.09503166281295383,0.03767296526539449,-0.09504063407557842,0.03762335188226493,-0.09504063407557842,0.03762335188226493,right_arm__right_thigh,right_arm__right_thigh
9.806730123005575,0.0,0.0,0.0,0.0,1.5708,0.0,0.0,1.5708,2.225592097337734e-06,0.012276030558373318,0.01869637241400694,0.32315017210027336,1.5806393393734006,0.01869706461083821,-0.32304874379677284,1.580640329825975,0.45807205195823364,0.16561060951136836,0.29110768025167477,-0.016456828261696088,0.04583680333487619,-0.016466778921413905,0.04580795546604402,-0.09503166281295383,0.03778869202006638,-0.09504063407557842,0.03773895708922628,-0.09504063407557842,0.03773895708922628,right_arm__right_thigh,right_arm__right_thigh
9.826730123005575,0.0,0.0,0.0,0.0,1.5708,0.0,0.0,1.5708,2.230083347566652e-06,0.01227543963227449,0.01869796781331448,0.3234288929507547,1.58063988290537,0.01869866654841139,-0.32332716383875854,1.5806408776979697,0.4584651681371217,0.16561060951136836,0.29121135503495693,-0.016456828261696088,0.04588858895762851,-0.016466778921413905,0.04585968706718346,-0.09503166281295383,0.037897599105118474,-0.09504063407557842,0.037847749830948185,-0.09504063407557842,0.037847749830948185,right_arm__right_thigh,right_arm__right_thigh
9.846730123005575,0.0,0.0,0.0,0.0,1.5708,0.0,0.0,1.5708,2.234770657454186e-06,0.012274267123070323,0.018699073566690875,0.32370635879586795,1.5806401495416913,0.018699779409228057,-0.3236043303740075,1.5806411489907826,0.45885644907613493,0.16561060951136836,0.29131455135782763,-0.016456828261696088,0.045940140991193396,-0.016466778921413905,0.04591118535667482,-0.09503166281295383,0.03800595148127814,-0.09504063407557842,0.03795598840272227,-0.09504063407557842,0.03795598840272227,right_arm__right_thigh,right_arm__right_thigh
9.866730123005574,0.0,0.0,0.0,0.0,1.5708,0.0,0.0,1.5708,2.2397747549359954e-06,0.01227215490850243,0.018699388164162636,0.3239817968391672,1.580639968777936,0.018700102033796212,-0.3238794715288884,1.580640973394857,0.45924476396446784,0.16561060951136836,0.29141698146047584,-0.016456828261696088,0.04599131898943032,-0.016466778921413905,0.04596231005098814,-0.09503166281295383,0.03811341425188414,-0.09504063407557842,0.03806333822259353,-0.09504063407557842,0.03806333822259353,right_arm__right_thigh,right_arm__right_thigh
9.886730123005574,0.0,0.0,0.0,0.0,1.5708,0.0,0.0,1.5708,2.2446804030513357e-06,0.012269853525104091,0.01869941179229014,0.3242625561005468,1.5806396463319374,0.018700133458095965,-0.3241599279703867,1.5806406559452664,0.45964054830192214,0.16561060951136836,0.2915213788080076,-0.016456828261696088,0.04604348323944399,-0.016466778921413905,0.04601441994855704,-0.09503166281295383,0.03822291520101939,-0.09504063407557842,0.03817272401924318,-0.09504063407557842,0.03817272401924318,right_arm__right_thigh,right_arm__right_thigh
9.906730123005573,0.0,0.0,0.0,0.0,1.5708,0.0,0.0,1.5708,2.249384447040259e-06,0.012267164762709068,0.018698839574831556,0.32455421212602964,1.5806390337497411,0.018699568563924317,-0.32445126902956806,1.580640048008442,0.4600516270114468,0.16561060951136836,0.2916298149393566,-0.016456828261696088,0.046097672218084806,-0.016466778921413905,0.04606855241520216,-0.09503166281295383,0.03833659949778673,-0.09504063407557842,0.03828628863015368,-0.09504063407557842,0.03828628863015368,right_arm__right_thigh,right_arm__right_thigh
9.926730123005573,0.0,0.0,0.0,0.0,1.5708,0.0,0.0,1.5708,2.253799507823464e-06,0.012264372314280531,0.01869800084591865,0.32483357785224837,1.5806383014068948,0.018698736737026295,-0.32473033275700663,1.5806393200170967,0.4604453491243865,0.16561060951136836,0.2917336697701201,-0.016456828261696088,0.04614957505851311,-0.016466778921413905,0.04612040108349952,-0.09503166281295383,0.03844545398797411,-0.09504063407557842,0.0383950283985367,-0.09504063407557842,0.0383950283985367,right_arm__right_thigh,right_arm__right_thigh
9.946730123005572,0.0,0.0,0.0,0.0,1.5708,0.0,0.0,1.5708,2.257823291134396e-06,0.012261439477039423,0.01869680126583476,0.32509630275943535,1.5806374069105273,0.018697543488563357,-0.32499277322317754,1.5806384294743354,0.46081556982986005,0.16561060951136836,0.2918313274297992,-0.016456828261696088,0.04619838539793,-0.016466778921413905,0.046169160411890536,-0.09503166281295383,0.0385477743944552,-0.09504063407557842,0.03849724079033556,-0.09504063407557842,0.03849724079033556,right_arm__right_thigh,right_arm__right_thigh
9.966730123005572,0.0,0.0,0.0,0.0,1.5708,0.0,0.0,1.5708,2.2621509712649606e-06,0.01225786029421086,0.018695095246960194,0.32535781096078786,1.5806362202108377,0.018695844551327907,-0.32525399802547517,1.5806372471572752,0.4611840059871017,0.16561060951136836,0.29192852224653737,-0.016456828261696088,0.046246970151643335,-0.016466778921413905,0.046217694344012156,-0.09503166281295383,0.03864955423054342,-0.09504063407557842,0.0385989129403497,-0.09504063407557842,0.0385989129403497,right_arm__right_thigh,right_arm__right_thigh
9.986730123005572,0.0,0.0,0.0,0.0,1.5708,0.0,0.0,1.5708,2.267032948042542e-06,0.012253102200749487,0.01869246550231605,0.3256170999353474,1.5806345005430118,0.018693223256328464,-0.3255130055014788,1.5806355326546007,0.46154918590047334,0.16561060951136836,0.2920248810061485,-0.016456828261696088,0.04629514748842481,-0.016466778921413905,0.04626582119485048,-0.09503166281295383,0.03875035562079357,-0.09504063407557842,0.03869960722368315,-0.09504063407557842,0.03869960722368315,right_arm__right_thigh,right_arm__right_thigh
10.006730123005571,0.0,0.0,0.0,0.0,1.5708,0.0,0.0,1.5708,2.271827848453565e-06,0.012248271436664798,0.01868967277387755,0.32587878166222894,1.5806327053968234,0.018690438758493542,-0.32577440261541196,1.5806337425202799,0.4619177230332152,0.16561060951136836,0.2921221189841319,-0.016456828261696088,0.046343766016281374,-0.016466778921413905,0.046314388689900704,-0.09503166281295383,0.0388520670091112,-0.09504063407557842,0.03880121035884604,-0.09504063407557842,0.03880121035884604,right_arm__right_thigh,right_arm__right_thigh
10.02673012300557,0.0,0.0,0.0,0.0,1.5708,0.0,0.0,1.5708,2.2764388594648423e-06,0.012243287205481864,0.018686535853400518,0.3261455164454751,1.5806307508541044,0.018687309606045217,-0.3260408462086808,1.5806317926657205,0.4622933477269884,0.16561060951136836,0.29222122384629484,-0.016456828261696088,0.04639332129756635,-0.016466778921413905,0.046363891771183885,-0.09503166281295383,0.038955708960912994,-0.09504063407557842,0.03890474161287466,-0.09504063407557842,0.03890474161287466,right_arm__right_thigh,right_arm__right_thigh
10.04673012300557,0.0,0.0,0.0,0.0,1.5708,0.0,0.0,1.5708,2.281057228548904e-06,0.012237878306092817,0.018682971145517837,0.32639438345923005,1.5806285666197746,0.01868375298782049,-0.326289440955222,1.5806296132719222,0.46264372529912173,0.16561060951136836,0.2923136796762457,-0.016456828261696088,0.04643955902898855,-0.016466778921413905,0.0464100806943267,-0.09503166281295383,0.0390523300205482,-0.09504063407557842,0.03900125909796401,-0.09504063407557842,0.03900125909796401,right_arm__right_thigh,right_arm__right_thigh
10.06673012300557,0.0,0.0,0.0,0.0,1.5708,0.0,0.0,1.5708,2.285687048566112e-06,0.012231808520710935,0.01867874069741671,0.3266154439209287,1.5806260249299864,0.018679531129909877,-0.3265102585980838,1.5806270766597927,0.46295481071184624,0.16561060951136836,0.29239579575825947,-0.016456828261696088,0.04648063770419536,-0.016466778921413905,0.04645111583013167,-0.09503166281295383,0.039138031761142444,-0.09504063407557842,0.039086868330491825,-0.09504063407557842,0.039086868330491825,right_arm__right_thigh,right_arm__right_thigh
10.08673012300557,0.0,0.0,0.0,0.0,1.5708,0.0,0.0,1.5708,2.2903256612728383e-06,0.0122256749459817,0.01867442386941355,0.3268396580054028,1.5806234393814151,0.018675222952485356,-0.3267342260494821,1.5806244962104796,0.4632703340347003,0.16561060951136836,0.2924790761306086,-0.016456828261696088,0.04652229914819056,-0.016466778921413905,0.04649273305797935,-0.09503166281295383,0.039224948847690955,-0.09504063407557842,0.0391736914856424,-0.09504063407557842,0.0391736914856424,right_arm__right_thigh,right_arm__right_thigh
10.106730123005569,0.0,0.0,0.0,0.0,1.5708,0.0,0.0,1.5708,2.295016350108404e-06,0.012219163568503437,0.018669595442439634,0.32708254993192115,1.580620594072094,0.018670403533748547,-0.3269768487524768,1.5806216561283393,0.463612131865397,0.16561060951136836,0.2925692852642626,-0.016456828261696088,0.046567428603996736,-0.016466778921413905,0.04653781424873307,-0.09503166281295383,0.039319090991711686,-0.09504063407557842,0.03926773119081009,-0.09504063407557842,0.03926773119081009,right_arm__right_thigh,right_arm__right_thigh
10.126730123005569,0.0,0.0,0.0,0.0,1.5708,0.0,0.0,1.5708,2.2998373740679425e-06,0.012212297275289129,0.018664455813221632,0.32732424836203655,1.5806175747251912,0.01866527340643932,-0.327218278855811,1.5806186422738049,0.46395220728528414,0.16561060951136836,0.2926590421898075,-0.016456828261696088,0.04661233560219358,-0.016466778921413905,0.04658267314518369,-0.09503166281295383,0.03941272724074474,-0.09504063407557842,0.03936126532541015,-0.09504063407557842,0.03936126532541015,right_arm__right_thigh,right_arm__right_thigh
10.146730123005568,0.0,0.0,0.0,0.0,1.5708,0.0,0.0,1.5708,2.3053704607686057e-06,0.012203491963150586,0.018657615985958647,0.3275594263370798,1.5806136045549497,0.01865844577817239,-0.3274531934032659,1.5806146790447382,0.4642828619127908,0.16561060951136836,0.29274636598879566,-0.016456828261696088,0.04665604588853858,-0.016466778921413905,0.04662633617543882,-0.09503166281295383,0.03950363040741656,-0.09504063407557842,0.03945206806051316,-0.09504063407557842,0.03945206806051316,right_arm__right_thigh,right_arm__right_thigh
10.166730123005568,0.0,0.0,0.0,0.0,1.5708,0.0,0.0,1.5708,2.3107257969481286e-06,0.012194923454068538,0.018650924372910983,0.3277906540055168,1.5806097262987235,0.018651765964333086,-0.32768416152667496,1.5806108074928635,0.46460797104598267,0.16561060951136836,0.2928322153270496,-0.016456828261696088,0.04669901781689845,-0.016466778921413905,0.046669261552410635,-0.09503166281295383,0.03959300577912092,-0.09504063407557842,0.03954134451293953,-0.09504063407557842,0.03954134451293953,right_arm__right_thigh,right_arm__right_thigh
10.186730123005567,0.0,0.0,0.0,0.0,1.5708,0.0,0.0,1.5708,2.3152852869608834e-06,0.012187415188318444,0.018644896362503514,0.3280041948826581,1.58060625957106,0.018645747963156073,-0.3278974602422583,1.5806073464092187,0.46490824066273184,0.16561060951136836,0.29291149098668273,-0.016456828261696088,0.04673869782397999,-0.016466778921413905,0.04670889812816248,-0.09503166281295383,0.03967556184531543,-0.09504063407557842,0.03962380836696616,-0.09504063407557842,0.03962380836696616,right_arm__right_thigh,right_arm__right_thigh
10.206730123005567,0.0,0.0,0.0,0.0,1.5708,0.0,0.0,1.5708,2.319952402238898e-06,0.012179649304820028,0.01863864623910294,0.3282190073844347,1.580602668066607,0.018639508159801536,-0.3281120288470768,1.5806037607183203,0.4652102756481751,0.16561060951136836,0.29299123183142634,-0.016456828261696088,0.04677861277421083,-0.016466778921413905,0.04674876933996211,-0.09503166281295383,0.039758584344137066,-0.09504063407557842,0.03970673798519059,-0.09504063407557842,0.03970673798519059,right_arm__right_thigh,right_arm__right_thigh
10.226730123005566,0.0,0.0,0.0,0.0,1.5708,0.0,0.0,1.5708,2.3258886242236695e-06,0.012168845617778088,0.018629776980794585,0.3284488147607816,1.5805976052063333,0.018630652886646403,-0.3283415718627949,1.5805987056707502,0.4655331030744325,0.16561060951136836,0.29307652709181314,-0.016456828261696088,0.04682133256409579,-0.016466778921413905,0.04679144168239038,-0.09503166281295383,0.03984716015631992,-0.09504063407557842,0.039795212871858526,-0.09504063407557842,0.039795212871858526,right_arm__right_thigh,right_arm__right_thigh
10.246730123005566,0.0,0.0,0.0,0.0,1.5708,0.0,0.0,1.5708,2.3316470482377133e-06,0.01215833561840724,0.01862111271635739,0.32867610440087336,1.5805926648678397,0.018622002106247933,-0.3285685991980808,1.5805937728578254,0.46585241245142667,0.16561060951136836,0.293160880537919,-0.016456828261696088,0.046863579540368794,-0.016466778921413905,0.04683364158804787,-0.09503166281295383,0.039934773369042165,-0.09504063407557842,0.03988272597535725,-0.09504063407557842,0.03988272597535725,right_arm__right_thigh,right_arm__right_thigh
10.266730123005566,0.0,0.0,0.0,0.0,1.5708,0.0,0.0,1.5708,2.3367431261366276e-06,0.012148919686011462,0.018613212110209616,0.3288940147841566,1.580588180956519,0.01861411311735018,-0.3287862549350612,1.5805892954024177,0.46615860639183754,0.16561060951136836,0.2932417462822672,-0.016456828261696088,0.04690407554630774,-0.016466778921413905,0.04687409190044359,-0.09503166281295383,0.04001881507095009,-0.09504063407557842,0.03996667056212419,-0.09504063407557842,0.03996667056212419,right_arm__right_thigh,right_arm__right_thigh
10.286730123005565,0.0,0.0,0.0,0.0,1.5708,0.0,0.0,1.5708,2.341636438256806e-06,0.012139796305082754,0.01860552455425251,0.329105217734865,1.5805838235093383,0.018606436690993298,-0.32899720994568754,1.5805849441323305,0.46645537462503467,0.16561060951136836,0.2933201162206837,-0.016456828261696088,0.04694332214685293,-0.016466778921413905,0.04691329401377159,-0.09503166281295383,0.0401002629726773,-0.09504063407557842,0.04004802391809481,-0.09504063407557842,0.04004802391809481,right_arm__right_thigh,right_arm__right_thigh
10.306730123005565,0.0,0.0,0.0,0.0,1.5708,0.0,0.0,1.5708,2.3460838462548272e-06,0.01213131627682392,0.01859830551896411,0.3293016703078084,1.5805797441706317,0.018599227712909894,-0.32919342932626133,1.5805808703575637,0.46673141085628367,0.16561060951136836,0.2933930064974133,-0.016456828261696088,0.046979825604638425,-0.016466778921413905,0.04694975562562373,-0.09503166281295383,0.04017601320879255,-0.09504063407557842,0.04012368523803092,-0.09504063407557842,0.04012368523803092,right_arm__right_thigh,right_arm__right_thigh
10.326730123005564,0.0,0.0,0.0,0.0,1.5708,0.0,0.0,1.5708,2.3501715422660012e-06,0.012123466353534439,0.018591606528697242,0.3294821411879507,1.580575961692674,0.0185925379578716,-0.32937368521383137,1.580577092984819,0.4669849843307262,0.16561060951136836,0.29345996195012825,-0.016456828261696088,0.04701335772495793,-0.016466778921413905,0.04698324916784924,-0.09503166281295383,0.04024559077693329,-0.09504063407557842,0.04019318083029608,-0.09504063407557842,0.04019318083029608,right_arm__right_thigh,right_arm__right_thigh
10.346730123005564,0.0,0.0,0.0,0.0,1.5708,0.0,0.0,1.5708,2.3533422272467936e-06,0.012117222752047751,0.018586233285245807,0.32962187006026816,1.580572935999564,0.018587171854190516,-0.3295132454901813,1.580574071227495,0.4671812892656814,0.16561060951136836,0.29351179801063915,-0.016456828261696088,0.047039320133229146,-0.016466778921413905,0.04700918131519391,-0.09503166281295383,0.04029943975078068,-0.09504063407557842,0.040246965496663734,-0.09504063407557842,0.040246965496663734,right_arm__right_thigh,right_arm__right_thigh
10.366730123005564,0.0,0.0,0.0,0.0,1.5708,0.0,0.0,1.5708,2.3565129122275855e-06,0.012110979150561064,0.018580860041794375,0.32976159893258566,1.580569910306454,0.01858180575050943,-0.3296528057665313,1.5805710494701708,0.46737759544275065,0.16561060951136836,0.29356363130051183,-0.016456828261696088,0.04706528115840242,-0.016466778921413905,0.047035112083172154,-0.09503166281295383,0.04035328676392799,-0.09504063407557842,0.04030074820906812,-0.09504063407557842,0.04030074820906812,right_arm__right_thigh,right_arm__right_thigh
10.386730123005563,0.0,0.0,0.0,0.0,1.5708,0.0,0.0,1.5708,2.3615847625550924e-06,0.012100253313562785,0.01857158812136854,0.32992744164346555,1.5805647025387886,0.018572545804631246,-0.32981844536013966,1.5805658482830007,0.46761020555200006,0.16561060951136836,0.29362514222785957,-0.016456828261696088,0.04709612165617569,-0.016466778921413905,0.04706591608328589,-0.09503166281295383,0.04041688311775371,-0.09504063407557842,0.040364266704078694,-0.09504063407557842,0.040364266704078694,right_arm__right_thigh,right_arm__right_thigh
10.406730123005563,0.0,0.0,0.0,0.0,1.5708,0.0,0.0,1.5708,2.3683283432949947e-06,0.012085586162657645,0.018558888021022697,0.33011624674327417,1.580557576031965,0.018559861930143588,-0.33000701698744556,1.5805587306822155,0.46787474064894,0.16561060951136836,0.29369516079138824,-0.016456828261696088,0.04713125172433172,-0.016466778921413905,0.04710100416935167,-0.09503166281295383,0.040489051614282456,-0.09504063407557842,0.04043634542384433,-0.09504063407557842,0.04043634542384433,right_arm__right_thigh,right_arm__right_thigh
10.426730123005562,0.0,0.0,0.0,0.0,1.5708,0.0,0.0,1.5708,2.3739903729942666e-06,0.012073485892242223,0.018548300927957718,0.3302893664374643,1.5805516487993572,0.01854928780056572,-0.3301799191935223,1.5805528105528615,0.4681174438116324,0.16561060951136836,0.2937593591986107,-0.016456828261696088,0.04716345026502489,-0.016466778921413905,0.04713316360759037,-0.09503166281295383,0.040555339309559235,-0.09504063407557842,0.04050254958463456,-0.09504063407557842,0.04050254958463456,right_arm__right_thigh,right_arm__right_thigh
10.446730123005562,0.0,0.0,0.0,0.0,1.5708,0.0,0.0,1.5708,2.3790424794954067e-06,0.012062833172518994,0.018538905431137395,0.330453640601116,1.580546397878026,0.01853990342747116,-0.33034398488319816,1.5805475657181327,0.4683478357242198,0.16561060951136836,0.2938202742217399,-0.016456828261696088,0.04719399501768007,-0.016466778921413905,0.047163670883475006,-0.09503166281295383,0.04061830976576691,-0.09504063407557842,0.04056544002984197,-0.09504063407557842,0.04056544002984197,right_arm__right_thigh,right_arm__right_thigh
10.466730123005561,0.0,0.0,0.0,0.0,1.5708,0.0,0.0,1.5708,2.3844638307166683e-06,0.012051117366215986,0.018528525484994368,0.3306144291997894,1.5805406070282166,0.018529535474184993,-0.33050456605449835,1.5805417814175013,0.4685731854101731,0.16561060951136836,0.2938798902044822,-0.016456828261696088,0.047223901831491055,-0.016466778921413905,0.04719354038528531,-0.09503166281295383,0.04067981668700199,-0.09504063407557842,0.0406268671735347,-0.09504063407557842,0.0406268671735347,right_arm__right_thigh,right_arm__right_thigh
10.486730123005561,0.0,0.0,0.0,0.0,1.5708,0.0,0.0,1.5708,2.390171916005531e-06,0.012038576028435827,0.018517381072514348,0.33077251111054107,1.5805343969012167,0.018518403729478713,-0.33066244135060774,1.5805355781988897,0.4687946204780855,0.16561060951136836,0.29393849678881406,-0.016456828261696088,0.04725331294233001,-0.016466778921413905,0.0472229143130764,-0.09503166281295383,0.040740187032129976,-0.09504063407557842,0.040687157923672446,-0.09504063407557842,0.040687157923672446,right_arm__right_thigh,right_arm__right_thigh
10.50673012300556,0.0,0.0,0.0,0.0,1.5708,0.0,0.0,1.5708,2.3957020774089327e-06,0.012026524431970177,0.018506598300163404,0.33093361350953876,1.580528397541169,0.01850763285181975,-0.3308233297643633,1.5805295853153924,0.46902036476688674,0.16561060951136836,0.2939982199015032,-0.016456828261696088,0.04728327832472118,-0.016466778921413905,0.04725284118257439,-0.09503166281295383,0.04080177236981514,-0.09504063407557842,0.040748660881032434,-0.09504063407557842,0.040748660881032434,right_arm__right_thigh,right_arm__right_thigh
10.52673012300556,0.0,0.0,0.0,0.0,1.5708,0.0,0.0,1.5708,2.4010806252009676e-06,0.012014890156929,0.018496123690855567,0.3310972897458259,1.5805225777811718,0.01849716947844064,-0.3309867857347266,1.5805237716639653,0.4692497813783944,0.16561060951136836,0.2940588937129329,-0.016456828261696088,0.04731371565407472,-0.016466778921413905,0.047283238867004446,-0.09503166281295383,0.040864392526780674,-0.09504063407557842,0.0408111962863644,-0.09504063407557842,0.0408111962863644,right_arm__right_thigh,right_arm__right_thigh
10.54673012300556,0.0,0.0,0.0,0.0,1.5708,0.0,0.0,1.5708,2.405892450108101e-06,0.012004464503611116,0.018486693691097126,0.33124642006753263,1.5805173460277082,0.018487749350509317,-0.33113571151999,1.5805185452700627,0.4694588257567188,0.16561060951136836,0.29411417158553615,-0.016456828261696088,0.047341445183804454,-0.016466778921413905,0.04731093157100219,-0.09503166281295383,0.040921459149445755,-0.09504063407557842,0.04086818421126981,-0.09504063407557842,0.04086818421126981,right_arm__right_thigh,right_arm__right_thigh
10.56673012300556,0.0,0.0,0.0,0.0,1.5708,0.0,0.0,1.5708,2.4104409118204354e-06,0.01199460051188628,0.018477749134428373,0.3313887907212653,1.5805123875282165,0.018478814031752652,-0.33127788494696525,1.5805135917820579,0.4696584037742633,0.16561060951136836,0.29416694063526705,-0.016456828261696088,0.047367915735232,-0.016466778921413905,0.047337366608785736,-0.09503166281295383,0.040975944278377224,-0.09504063407557842,0.0409225934590679,-0.09504063407557842,0.0409225934590679,right_arm__right_thigh,right_arm__right_thigh
10.586730123005559,0.0,0.0,0.0,0.0,1.5708,0.0,0.0,1.5708,2.4154839156110337e-06,0.011983283864777473,0.018467477158344313,0.3315239273334029,1.5805067007291738,0.01846855250409001,-0.33141282987585674,1.5805079106471873,0.46984760934932424,0.16561060951136836,0.2942170215926923,-0.016456828261696088,0.04739305803790547,-0.016466778921413905,0.047362474361826196,-0.09503166281295383,0.04102747156714276,-0.09504063407557842,0.04097404674475699,-0.09504063407557842,0.04097404674475699,right_arm__right_thigh,right_arm__right_thigh
10.606730123005558,0.0,0.0,0.0,0.0,1.5708,0.0,0.0,1.5708,2.4207891386329085e-06,0.011971196981535412,0.018456501349535064,0.3316552282662132,1.5805006277665326,0.018457587785546094,-0.3315439420647366,1.5805018436947893,0.47003131646544555,0.16561060951136836,0.29426567624876837,-0.016456828261696088,0.04741749557105307,-0.016466778921413905,0.04738687785811738,-0.09503166281295383,0.04107743033271968,-0.09504063407557842,0.04102393250526082,-0.09504063407557842,0.04102393250526082,right_arm__right_thigh,right_arm__right_thigh
10.626730123005558,0.0,0.0,0.0,0.0,1.5708,0.0,0.0,1.5708,2.426108018753314e-06,0.011959292851493823,0.018445622183584476,0.33179244807848274,1.5804946172212804,0.01844671927436013,-0.33168096001693703,1.5804958389184702,0.4702233829321869,0.16561060951136836,0.2943165217735038,-0.016456828261696088,0.04744302737719344,-0.016466778921413905,0.0474123732523562,-0.09503166281295383,0.04112970441573094,-0.09504063407557842,0.04107612854819684,-0.09504063407557842,0.04107612854819684,right_arm__right_thigh,right_arm__right_thigh
10.646730123005558,0.0,0.0,0.0,0.0,1.5708,0.0,0.0,1.5708,2.431435714947531e-06,0.011947506694219373,0.01843480540354795,0.33193348870804223,1.5804886469683572,0.018435912867959234,-0.3318217903195598,1.5804898742787072,0.47042084653642474,0.16561060951136836,0.2943687803932632,-0.016456828261696088,0.04746926498286491,-0.016466778921413905,0.04743857291494519,-0.09503166281295383,0.04118347252576765,-0.09504063407557842,0.041129815371156814,-0.09504063407557842,0.041129815371156814,right_arm__right_thigh,right_arm__right_thigh
10.666730123005557,0.0,0.0,0.0,0.0,1.5708,0.0,0.0,1.5708,2.4358284978328866e-06,0.0119378506125455,0.018425903692792806,0.33205070488203436,1.5804837409210855,0.018427019478871345,-0.33193882664188445,1.5804849727315489,0.4705849658000518,0.16561060951136836,0.29441220857239275,-0.016456828261696088,0.04749106856819707,-0.016466778921413905,0.04746034403694599,-0.09503166281295383,0.04122816757543027,-0.09504063407557842,0.041174440897395054,-0.09504063407557842,0.041174440897395054,right_arm__right_thigh,right_arm__right_thigh
10.686730123005557,0.0,0.0,0.0,0.0,1.5708,0.0,0.0,1.5708,2.4400017662114573e-06,0.011928694665472818,0.0184174516338768,0.33216232715382854,1.5804790847457284,0.0184185752598273,-0.3320502762175021,1.5804803207949654,0.4707412569663283,0.16561060951136836,0.2944535621792823,-0.016456828261696088,0.04751183045569227,-0.016466778921413905,0.04748107474980964,-0.09503166281295383,0.041270731755472106,-0.09504063407557842,0.0412169383193868,-0.09504063407557842,0.0412169383193868,right_arm__right_thigh,right_arm__right_thigh
10.706730123005556,0.0,0.0,0.0,0.0,1.5708,0.0,0.0,1.5708,2.444908660103126e-06,0.011917577680351099,0.01840719058198864,0.33227277831694774,1.5804734376444836,0.01840832361796024,-0.3321605509184419,1.5804746787831019,0.4708956628698275,0.16561060951136836,0.2944944755680107,-0.016456828261696088,0.04753239290400876,-0.016466778921413905,0.04750160530584821,-0.09503166281295383,0.0413126499137727,-0.09504063407557842,0.04125878798294255,-0.09504063407557842,0.04125878798294255,right_arm__right_thigh,right_arm__right_thigh
10.726730123005556,0.0,0.0,0.0,0.0,1.5708,0.0,0.0,1.5708,2.4501833660855443e-06,0.011905477504906828,0.01839602256943001,0.33238264233046194,1.5804672937304693,0.0183971658026361,-0.3322702365816452,1.5804685403849317,0.47104912486747746,0.16561060951136836,0.2945351674024707,-0.016456828261696088,0.04755285494520159,-0.016466778921413905,0.047522035096491666,-0.09503166281295383,0.04135424412998284,-0.09504063407557842,0.04130031283565075,-0.09504063407557842,0.04130031283565075,right_arm__right_thigh,right_arm__right_thigh
10.746730123005555,0.0,0.0,0.0,0.0,1.5708,0.0,0.0,1.5708,2.4553632650836973e-06,0.011893893355311965,0.01838527590216648,0.33249432470549783,1.580461388262293,0.018386428649221628,-0.3323817318486421,1.5804626400621276,0.4712052042346739,0.16561060951136836,0.2945765309881604,-0.016456828261696088,0.04757364860309857,-0.016466778921413905,0.04754279490579011,-0.09503166281295383,0.041396591207602834,-0.09504063407557842,0.041342587180464546,-0.09504063407557842,0.041342587180464546,right_arm__right_thigh,right_arm__right_thigh
10.766730123005555,0.0,0.0,0.0,0.0,1.5708,0.0,0.0,1.5708,2.460494813826594e-06,0.011882572371787945,0.01837474411519607,0.33260693441984734,1.5804556043982079,0.018375906027583124,-0.3324941499886322,1.5804568611544785,0.47136261937105445,0.16561060951136836,0.2946182362378233,-0.016456828261696088,0.047594610924063085,-0.016466778921413905,0.04756372256491359,-0.09503166281295383,0.04143932191431379,-0.09504063407557842,0.04138524343872155,-0.09504063407557842,0.04138524343872155,right_arm__right_thigh,right_arm__right_thigh
10.786730123005555,0.0,0.0,0.0,0.0,1.5708,0.0,0.0,1.5708,2.464825835203171e-06,0.011873157804989997,0.018365969406921052,0.33270178035273856,1.5804507898137428,0.018367138830689814,-0.3325888282679709,1.580452050634551,0.4714952127725626,0.16561060951136836,0.2946533602190683,-0.016456828261696088,0.047612264831408124,-0.016466778921413905,0.04758134611615969,-0.09503166281295383,0.04147532206928342,-0.09504063407557842,0.04142117842576529,-0.09504063407557842,0.04142117842576529,right_arm__right_thigh,right_arm__right_thigh
10.806730123005554,0.0,0.0,0.0,0.0,1.5708,0.0,0.0,1.5708,2.468997759307472e-06,0.011864122120555976,0.018357543901483277,0.33279309590141776,1.5804461678644708,0.018358720507926727,-0.33267998091713274,1.5804474325725602,0.47162287405188075,0.16561060951136836,0.29468717534965067,-0.016456828261696088,0.047629260783419336,-0.016466778921413905,0.04759831256951891,-0.09503166281295383,0.04150998431204736,-0.09504063407557842,0.04145577734759423,-0.09504063407557842,0.04145577734759423,right_arm__right_thigh,right_arm__right_thigh
10.826730123005554,0.0,0.0,0.0,0.0,1.5708,0.0,0.0,1.5708,2.47416590314515e-06,0.011852621072077216,0.018346856128799452,0.3328857888251145,1.5804403074518505,0.018348041913000875,-0.33277250051790835,1.5804415771361535,0.4717521843556747,0.16561060951136836,0.2947214938177442,-0.016456828261696088,0.04764653417110851,-0.016466778921413905,0.047615554524105874,-0.09503166281295383,0.041544946092856944,-0.09504063407557842,0.04149067142871177,-0.09504063407557842,0.04149067142871177,right_arm__right_thigh,right_arm__right_thigh
10.846730123005553,0.0,0.0,0.0,0.0,1.5708,0.0,0.0,1.5708,2.4797062413991357e-06,0.011840198946951534,0.01833532315780348,0.33297899634541434,1.580433984340964,0.01833651886513946,-0.3328655308210331,1.5804352594083133,0.4718821121962138,0.16561060951136836,0.29475599953976706,-0.016456828261696088,0.047663910822346944,-0.016466778921413905,0.047632899021165825,-0.09503166281295383,0.04158001985663912,-0.09504063407557842,0.041525675858825245,-0.09504063407557842,0.041525675858825245,right_arm__right_thigh,right_arm__right_thigh
10.866730123005553,0.0,0.0,0.0,0.0,1.5708,0.0,0.0,1.5708,2.4840730434123473e-06,0.01183078979028646,0.018326544868444893,0.3330547571802217,1.58042917663684,0.018327747902763793,-0.33294114018516346,1.5804304556824098,0.4719877932857612,0.16561060951136836,0.2947840452480761,-0.016456828261696088,0.04767802837521434,-0.016466778921413905,0.0476469890722207,-0.09503166281295383,0.041608591560140545,-0.09504063407557842,0.04155418834432337,-0.09504063407557842,0.04155418834432337,right_arm__right_thigh,right_arm__right_thigh
10.886730123005552,0.0,0.0,0.0,0.0,1.5708,0.0,0.0,1.5708,2.488245402510697e-06,0.01182187985158289,0.01831822300157117,0.33312762727824224,1.5804246200200682,0.018319432932717303,-0.33301386307843756,1.5804259028110939,0.4720894577728287,0.16561060951136836,0.2948110200074787,-0.016456828261696088,0.04769160563786476,-0.016466778921413905,0.04766053960519581,-0.09503166281295383,0.04163608586130324,-0.09504063407557842,0.041581625105296616,-0.09504063407557842,0.041581625105296616,right_arm__right_thigh,right_arm__right_thigh
10.906730123005552,0.0,0.0,0.0,0.0,1.5708,0.0,0.0,1.5708,2.492800874473767e-06,0.011812038381431009,0.01830905568399447,0.3331955963398686,1.5804196024968686,0.01831027328536204,-0.3330816876854386,1.5804208894626017,0.4721841020647273,0.16561060951136836,0.2948361758508203,-0.016456828261696088,0.04770428366242874,-0.016466778921413905,0.04767319136442416,-0.09503166281295383,0.04166158462045941,-0.09504063407557842,0.04160706717814219,-0.09504063407557842,0.04160706717814219,right_arm__right_thigh,right_arm__right_thigh
10.926730123005552,0.0,0.0,0.0,0.0,1.5708,0.0,0.0,1.5708,2.497562856094287e-06,0.011801694787080208,0.01829943264239715,0.33326092359162607,1.5804143365308798,0.01830065833086951,-0.3331468719649709,1.5804156279027008,0.47227496291518845,0.16561060951136836,0.29486035101115987,-0.016456828261696088,0.047716476860671236,-0.016466778921413905,0.04768535854819966,-0.09503166281295383,0.041686007868687674,-0.09504063407557842,0.041631434200817385,-0.09504063407557842,0.041631434200817385,right_arm__right_thigh,right_arm__right_thigh
10.946730123005551,0.0,0.0,0.0,0.0,1.5708,0.0,0.0,1.5708,2.5018085250888875e-06,0.011792533784186026,0.01829090672479159,0.3333154675178836,1.5804096727157269,0.018292139572099575,-0.3332012924079298,1.5804109679918508,0.4723507617890271,0.16561060951136836,0.2948805334992688,-0.016456828261696088,0.04772666213183971,-0.016466778921413905,0.04769552133538721,-0.09503166281295383,0.04170634892732272,-0.09504063407557842,0.04165172661690941,-0.09504063407557842,0.04165172661690941,right_arm__right_thigh,right_arm__right_thigh
10.96673012300555,0.0,0.0,0.0,0.0,1.5708,0.0,0.0,1.5708,2.5054259605214516e-06,0.011784811722750815,0.018283715754422922,0.33335689062034307,1.5804057415794688,0.018284954631076735,-0.33324261574062597,1.5804070401493397,0.47240823297515394,0.16561060951136836,0.29489585822526015,-0.016456828261696088,0.0477344044134107,-0.016466778921413905,0.04770324542787813,-0.09503166281295383,0.04172172286367312,-0.09504063407557842,0.04166706113642682,-0.09504063407557842,0.04166706113642682,right_arm__right_thigh,right_arm__right_thigh
10.98673012300555,0.0,0.0,0.0,0.0,1.5708,0.0,0.0,1.5708,2.5090433959540158e-06,0.011777089661315604,0.01827652478405425,0.3333983137228025,1.580401810443211,0.018277769690053892,-0.33328393907332216,1.5804031123068287,0.4724657048267248,0.16561060951136836,0.2949111827017083,-0.016456828261696088,0.04774214657669923,-0.016466778921413905,0.0477109694027123,-0.09503166281295383,0.041737096931091205,-0.09504063407557842,0.04168239578758581,-0.09504063407557842,0.04168239578758581,right_arm__right_thigh,right_arm__right_thigh
11.00673012300555,0.0,0.0,0.0,0.0,1.5708,0.0,0.0,1.5708,2.5129153606027596e-06,0.011768925842800227,0.018268917961062423,0.33343975234117385,1.5803976539629159,0.018270169211991965,-0.33332527315736066,1.5803989592981873,0.4725231435774162,0.16561060951136836,0.2949265110034184,-0.016456828261696088,0.04774989571466723,-0.016466778921413905,0.047718699468117715,-0.09503166281295383,0.0417524342554248,-0.09504063407557842,0.041697691745549464,-0.09504063407557842,0.041697691745549464,right_arm__right_thigh,right_arm__right_thigh
11.02673012300555,0.0,0.0,0.0,0.0,1.5708,0.0,0.0,1.5708,2.517169670768052e-06,0.011760098431155776,0.01826068645777497,0.3334812142670437,1.580393158978132,0.018261944527694546,-0.33336662339171613,1.5803944680523025,0.4725805323818269,0.16561060951136836,0.29494184517520305,-0.016456828261696088,0.04775765539036686,-0.016466778921413905,0.047726438742911687,-0.09503166281295383,0.041767716373793645,-0.09504063407557842,0.041712929567829765,-0.09504063407557842,0.041712929567829765,right_arm__right_thigh,right_arm__right_thigh
11.046730123005549,0.0,0.0,0.0,0.0,1.5708,0.0,0.0,1.5708,2.5214239809333446e-06,0.011751271019511325,0.018252454954487515,0.33352267619291354,1.580388663993348,0.018253719843397128,-0.33340797362607155,1.580389976806418,0.4726379220096179,0.16561060951136836,0.2949571790953522,-0.016456828261696088,0.04776541494946185,-0.016466778921413905,0.04773417790179754,-0.09503166281295383,0.041782998700225255,-0.09504063407557842,0.041728167598693994,-0.09504063407557842,0.041728167598693994,right_arm__right_thigh,right_arm__right_thigh
11.066730123005549,0.0,0.0,0.0,0.0,1.5708,0.0,0.0,1.5708,2.52641595402255e-06,0.011741168700552577,0.018243026622842985,0.3335655628210611,1.5803835199396479,0.018244299208959678,-0.3334507324555117,1.580384836990093,0.4726971611429819,0.16561060951136836,0.2949730356262704,-0.016456828261696088,0.047773450294620795,-0.016466778921413905,0.047742189869512286,-0.09503166281295383,0.04179871218332615,-0.09504063407557842,0.041743830260537323,-0.09504063407557842,0.041743830260537323,right_arm__right_thigh,right_arm__right_thigh
11.086730123005548,0.0,0.0,0.0,0.0,1.5708,0.0,0.0,1.5708,2.5316463198813103e-06,0.011730654365921456,0.018233211508540043,0.33360890987457464,1.5803781661243728,0.01823449207567988,-0.3334939465049073,1.5803794875732873,0.47275699879856675,0.16561060951136836,0.29498906085803284,-0.016456828261696088,0.04778157468041211,-0.016466778921413905,0.04775028991631375,-0.09503166281295383,0.04181456525203925,-0.09504063407557842,0.04175963039939043,-0.09504063407557842,0.04175963039939043,right_arm__right_thigh,right_arm__right_thigh
11.106730123005548,0.0,0.0,0.0,0.0,1.5708,0.0,0.0,1.5708,2.5369789590630125e-06,0.011720165187719296,0.01822341572295949,0.3336487917358424,1.5803728264946226,0.01822470421040603,-0.3335336945922194,1.5803741523234607,0.47281194999446097,0.16561060951136836,0.2950038011957404,-0.016456828261696088,0.047789057256335504,-0.016466778921413905,0.0477577479837846,-0.09503166281295383,0.04182907248756937,-0.09504063407557842,0.04177408430044305,-0.09504063407557842,0.04177408430044305,right_arm__right_thigh,right_arm__right_thigh
11.126730123005547,0.0,0.0,0.0,0.0,1.5708,0.0,0.0,1.5708,2.542379900914898e-06,0.011709692810098373,0.01821363284595874,0.33368635938773195,1.5803674963385967,0.01821492921316284,-0.3335711279560214,1.580368826534972,0.47286363811842724,0.16561060951136836,0.2950176833852272,-0.016456828261696088,0.04779611118895227,-0.016466778921413905,0.047764777294970334,-0.09503166281295383,0.04184268104138847,-0.09504063407557842,0.041787639249542735,-0.09504063407557842,0.041787639249542735,right_arm__right_thigh,right_arm__right_thigh
11.146730123005547,0.0,0.0,0.0,0.0,1.5708,0.0,0.0,1.5708,2.5473142827987018e-06,0.011700468436327665,0.018204993925628726,0.3337210291956542,1.5803627923029557,0.018206297151210415,-0.33360566497906746,1.58036412630844,0.4729113834220048,0.16561060951136836,0.2950304936523016,-0.016456828261696088,0.04780261695966215,-0.016466778921413905,0.04777125870853066,-0.09503166281295383,0.041855280941249295,-0.09504063407557842,0.04180018624062676,-0.09504063407557842,0.04180018624062676,right_arm__right_thigh,right_arm__right_thigh
11.166730123005546,0.0,0.0,0.0,0.0,1.5708,0.0,0.0,1.5708,2.551821794458131e-06,0.011692385900091263,0.01819740164683273,0.33375304767601066,1.580358661124327,0.018198710796299727,-0.3336375520498825,1.5803599984279963,0.47295552110022826,0.16561060951136836,0.2950423232112075,-0.016456828261696088,0.04780862120995136,-0.016466778921413905,0.047777238843438874,-0.09503166281295383,0.04186695790900044,-0.09504063407557842,0.041811810936428884,-0.09504063407557842,0.041811810936428884,right_arm__right_thigh,right_arm__right_thigh
11.186730123005546,0.0,0.0,0.0,0.0,1.5708,0.0,0.0,1.5708,2.5567724823800837e-06,0.011683495227899972,0.018189073519952116,0.33378395962367724,1.5803541312775926,0.01819038924139645,-0.3336683258521093,1.5803554722545563,0.47299800060574493,0.16561060951136836,0.2950537398035236,-0.016456828261696088,0.04781442803674457,-0.016466778921413905,0.047783020293657386,-0.09503166281295383,0.041878128319693536,-0.09504063407557842,0.041822926273145405,-0.09504063407557842,0.041822926273145405,right_arm__right_thigh,right_arm__right_thigh
11.206730123005546,0.0,0.0,0.0,0.0,1.5708,0.0,0.0,1.5708,2.5623160402141394e-06,0.011673523452019115,0.018179760994252912,0.3338133912801052,1.5803490681028243,0.018181084154675592,-0.33369761035198436,1.5803504132548938,0.47303826180840686,0.16561060951136836,0.29506460400480344,-0.016456828261696088,0.04781997078930278,-0.016466778921413905,0.047788535982246666,-0.09503166281295383,0.04188862109588978,-0.09504063407557842,0.041833360226528865,-0.09504063407557842,0.041833360226528865,right_arm__right_thigh,right_arm__right_thigh
11.226730123005545,0.0,0.0,0.0,0.0,1.5708,0.0,0.0,1.5708,2.5670335518256187e-06,0.01166536232349187,0.018172122187263412,0.33383776644513,1.5803449178016389,0.018173451337374396,-0.3337218506019876,1.5803462663271037,0.47307160723715524,0.16561060951136836,0.29507359930116095,-0.016456828261696088,0.04782456047539946,-0.016466778921413905,0.04779310084218111,-0.09503166281295383,0.04189731950525874,-0.09504063407557842,0.04184200478458783,-0.09504063407557842,0.04184200478458783,right_arm__right_thigh,right_arm__right_thigh
11.246730123005545,0.0,0.0,0.0,0.0,1.5708,0.0,0.0,1.5708,2.5712109623641295e-06,0.01165838506646204,0.018165577722510762,0.33385883547987116,1.580341364372624,0.018166911914707984,-0.33374279272569524,1.580342715747295,0.4731004308111812,0.16561060951136836,0.29508137264110973,-0.016456828261696088,0.04782852701181178,-0.016466778921413905,0.04779704401562074,-0.09503166281295383,0.041904844667410235,-0.09504063407557842,0.04184947934602404,-0.09504063407557842,0.04184947934602404,right_arm__right_thigh,right_arm__right_thigh
11.266730123005544,0.0,0.0,0.0,0.0,1.5708,0.0,0.0,1.5708,2.5757827805389816e-06,0.011650737415986785,0.01815842781349418,0.33387765077683285,1.5803374841688367,0.018159767580711746,-0.3337614771521622,1.5803388387121933,0.4731259956031928,0.16561060951136836,0.2950883086561392,-0.016456828261696088,0.04783208249530452,-0.016466778921413905,0.04780057538018376,-0.09503166281295383,0.04191143035736611,-0.09504063407557842,0.041856012709625995,-0.09504063407557842,0.041856012709625995,right_arm__right_thigh,right_arm__right_thigh
11.286730123005544,0.0,0.0,0.0,0.0,1.5708,0.0,0.0,1.5708,2.5807265562190973e-06,0.011642457531623216,0.018150706922789524,0.3338943406213318,1.5803332957906684,0.01815205276762632,-0.3337780323920823,1.5803346538040053,0.47314848722551145,0.16561060951136836,0.2950944550201518,-0.016456828261696088,0.04783525033305144,-0.016466778921413905,0.04780371838604669,-0.09503166281295383,0.04191713010997436,-0.09504063407557842,0.04186165850822274,-0.09504063407557842,0.04186165850822274,right_arm__right_thigh,right_arm__right_thigh
11.306730123005543,0.0,0.0,0.0,0.0,1.5708,0.0,0.0,1.5708,2.5852225731565997e-06,0.011635240933419354,0.018143960950441476,0.33390821543320115,1.5803296388642345,0.018145312003180748,-0.3337917757260651,1.5803309998649435,0.47316713152582685,0.16561060951136836,0.29509956039173607,-0.016456828261696088,0.04783788717227086,-0.016466778921413905,0.04780633095687639,-0.09503166281295383,0.04192183546772327,-0.09504063407557842,0.04186631123650067,-0.09504063407557842,0.04186631123650067,right_arm__right_thigh,right_arm__right_thigh
11.326730123005543,0.0,0.0,0.0,0.0,1.5708,0.0,0.0,1.5708,2.5894037170442913e-06,0.011628772059657394,0.018137900560499853,0.33392011065690164,1.5803263556654636,0.0181392562095391,-0.33380354167063253,1.5803277193141643,0.47318307030098605,0.16561060951136836,0.2951039337200416,-0.016456828261696088,0.04784015060441868,-0.016466778921413905,0.047808570516911064,-0.09503166281295383,0.04192584154382181,-0.09504063407557842,0.04187026561452897,-0.09504063407557842,0.04187026561452897,right_arm__right_thigh,right_arm__right_thigh
11.346730123005543,0.0,0.0,0.0,0.0,1.5708,0.0,0.0,1.5708,2.593361973636119e-06,0.011622809400172714,0.018132314462078174,0.3339296338368893,1.5803233311478364,0.018133674329282774,-0.3338129369464478,1.5803246972404286,0.4731957222951574,0.16561060951136836,0.29510742899698794,-0.016456828261696088,0.0478419701389633,-0.016466778921413905,0.0478103664176622,-0.09503166281295383,0.04192897353812977,-0.09504063407557842,0.041873346485953866,-0.09504063407557842,0.041873346485953866,right_arm__right_thigh,right_arm__right_thigh
11.366730123005542,0.0,0.0,0.0,0.0,1.5708,0.0,0.0,1.5708,2.5971706289117912e-06,0.0116171865102646,0.018127046706769543,0.33393756490791426,1.5803204802562538,0.018128410538336612,-0.33382074103617,1.580321848655746,0.4732061682489074,0.16561060951136836,0.29511033493008954,-0.016456828261696088,0.047843491732671245,-0.016466778921413905,0.04781186453754846,-0.09503166281295383,0.04193151886734889,-0.09504063407557842,0.041875841078244214,-0.09504063407557842,0.041875841078244214,right_arm__right_thigh,right_arm__right_thigh
11.386730123005542,0.0,0.0,0.0,0.0,1.5708,0.0,0.0,1.5708,2.6012584356530206e-06,0.011611103401685518,0.01812137114414771,0.33394256671058575,1.5803174102442812,0.018122739395874343,-0.33382561825540064,1.5803187812331407,0.4732124312220704,0.16561060951136836,0.29511215478702385,-0.016456828261696088,0.04784447526276328,-0.016466778921413905,0.04781282500920786,-0.09503166281295383,0.04193288217002383,-0.09504063407557842,0.04187715442950296,-0.09504063407557842,0.04187715442950296,right_arm__right_thigh,right_arm__right_thigh
11.406730123005541,0.0,0.0,0.0,0.0,1.5708,0.0,0.0,1.5708,2.605538274393078e-06,0.011604703702573379,0.018115415045461568,0.3339455534306715,1.5803141894964834,0.01811678803089664,-0.33382848204156673,1.5803155632690236,0.4732158167792313,0.16561060951136836,0.2951132275191112,-0.016456828261696088,0.04784508865591963,-0.016466778921413905,0.047813415629654965,-0.09503166281295383,0.04193343238326133,-0.09504063407557842,0.04187765523140724,-0.09504063407557842,0.04187765523140724,right_arm__right_thigh,right_arm__right_thigh
11.426730123005541,0.0,0.0,0.0,0.0,1.5708,0.0,0.0,1.5708,2.6096625643192187e-06,0.011598806149065222,0.0181099120630173,0.333946586045161,1.5803112157494843,0.01811128935970687,-0.33382938857655453,1.5803125920720005,0.4732164997859553,0.16561060951136836,0.2951135762533515,-0.016456828261696088,0.0478453357388941,-0.016466778921413905,0.04781363934517349,-0.09503166281295383,0.04193326926444585,-0.09504063407557842,0.041877441492987555,-0.09504063407557842,0.041877441492987555,right_arm__right_thigh,right_arm__right_thigh
11.44673012300554,0.0,0.0,0.0,0.0,1.5708,0.0,0.0,1.5708,2.613663613290665e-06,0.011593306444322809,0.01810476808349198,0.33394607042644187,1.5803084377006296,0.018106149356726806,-0.33382874438609667,1.5803098163879588,0.4732150415613685,0.16561060951136836,0.2951133513663195,-0.016456828261696088,0.04784529259577672,-0.016466778921413905,0.047813572363347545,-0.09503166281295383,0.04193254096713661,-0.09504063407557842,0.04187666161862569,-0.09504063407557842,0.04187666161862569,right_arm__right_thigh,right_arm__right_thigh
11.46673012300554,0.0,0.0,0.0,0.0,1.5708,0.0,0.0,1.5708,2.6177782600982402e-06,0.011587684460635347,0.018099526639412614,0.33394291539165166,1.580305608795488,0.018100912068481575,-0.3338254666477846,1.580306989976799,0.473209850595032,0.16561060951136836,0.2951121490836204,-0.016456828261696088,0.04784476189013981,-0.016466778921413905,0.04781301888139303,-0.09503166281295383,0.04193077539378384,-0.09504063407557842,0.041874846668675025,-0.09504063407557842,0.041874846668675025,right_arm__right_thigh,right_arm__right_thigh
11.48673012300554,0.0,0.0,0.0,0.0,1.5708,0.0,0.0,1.5708,2.621960878561871e-06,0.011581989310920441,0.018094226877082027,0.333938181053175,1.5803027494603124,0.018095616569263243,-0.33382061311705385,1.5803041332128938,0.47320242620992214,0.16561060951136836,0.29511036196846124,-0.016456828261696088,0.047843939450741946,-0.016466778921413905,0.047812174301302135,-0.09503166281295383,0.04192838918148212,-0.09504063407557842,0.04187241239610534,-0.09504063407557842,0.04187241239610534,right_arm__right_thigh,right_arm__right_thigh
11.50673012300554,0.0,0.0,0.0,0.0,1.5708,0.0,0.0,1.5708,2.6262060159847764e-06,0.011576511086547333,0.018089114772001706,0.3339309903339034,1.580299993385466,0.018090508526598822,-0.33381329246464,1.5803013796068726,0.4731915519195604,0.16561060951136836,0.2951076627638153,-0.016456828261696088,0.047842660425812145,-0.016466778921413905,0.04781087112860044,-0.09503166281295383,0.04192506683256739,-0.09504063407557842,0.041869037731089076,-0.09504063407557842,0.041869037731089076,right_arm__right_thigh,right_arm__right_thigh
11.526730123005539,0.0,0.0,0.0,0.0,1.5708,0.0,0.0,1.5708,2.6304978204008856e-06,0.011571194785110381,0.018084142742823543,0.3339219660603437,1.5802973143888237,0.018085540410027676,-0.3338041302404508,1.5802987030025855,0.473178102482417,0.16561060951136836,0.295104282725723,-0.016456828261696088,0.047841040582036476,-0.016466778921413905,0.047809225638783925,-0.09503166281295383,0.04192104569892083,-0.09504063407557842,0.04186496110426052,-0.09504063407557842,0.04186496110426052,right_arm__right_thigh,right_arm__right_thigh
11.546730123005538,0.0,0.0,0.0,0.0,1.5708,0.0,0.0,1.5708,2.6338726451163506e-06,0.011567205728943063,0.018080411809891173,0.33391239800536643,1.580295305748107,0.01808181247353427,-0.33379444751760795,1.5802966962096594,0.4731640564268214,0.16561060951136836,0.29510070783952796,-0.016456828261696088,0.04783930745861789,-0.016466778921413905,0.047807471182407885,-0.09503166281295383,0.041916940230228544,-0.09504063407557842,0.041860809547410505,-0.09504063407557842,0.041860809547410505,right_arm__right_thigh,right_arm__right_thigh
11.566730123005538,0.0,0.0,0.0,0.0,1.5708,0.0,0.0,1.5708,2.6370283869866055e-06,0.011563533775400541,0.018076977397041546,0.3339027000312862,1.580293457267406,0.018078380838234674,-0.33378464043833067,1.5802948494466433,0.4731498678679995,0.16561060951136836,0.2950970863888095,-0.016456828261696088,0.04783754726696132,-0.016466778921413905,0.047805690688158375,-0.09503166281295383,0.04191281460623922,-0.09504063407557842,0.04185664008189785,-0.09504063407557842,0.04185664008189785,right_arm__right_thigh,right_arm__right_thigh
11.586730123005538,0.0,0.0,0.0,0.0,1.5708,0.0,0.0,1.5708,2.640722237414384e-06,0.011559251531145141,0.018072990002299328,0.33389016311619585,1.5802913126932512,0.018074396887464494,-0.3337719869301186,1.5802927070161108,0.47313159890412776,0.16561060951136836,0.29509241019422155,-0.016456828261696088,0.04783526719458617,-0.016466778921413905,0.04780338889678712,-0.09503166281295383,0.041907527277579903,-0.09504063407557842,0.04185130575807075,-0.09504063407557842,0.04185130575807075,right_arm__right_thigh,right_arm__right_thigh
11.606730123005537,0.0,0.0,0.0,0.0,1.5708,0.0,0.0,1.5708,2.6447956936392507e-06,0.011554538760578126,0.018068612509445536,0.3338756234853895,1.5802889592415563,0.018070023308706565,-0.33375732542387426,1.5802903560085144,0.47311045149084385,0.16561060951136836,0.2950869899171812,-0.016456828261696088,0.047832620368572026,-0.016466778921413905,0.04780071935246075,-0.09503166281295383,0.04190142041714079,-0.09504063407557842,0.04184514967732095,-0.09504063407557842,0.04184514967732095,right_arm__right_thigh,right_arm__right_thigh
11.626730123005537,0.0,0.0,0.0,0.0,1.5708,0.0,0.0,1.5708,2.6485230070605767e-06,0.011550472663013818,0.018064825721386093,0.3338598350388871,1.5802869250256988,0.018066239920627145,-0.33374141765618,1.5802883239313967,0.4730876173900427,0.16561060951136836,0.2950811083428824,-0.016456828261696088,0.04782973635928045,-0.016466778921413905,0.0477978130915038,-0.09503166281295383,0.04189488842026021,-0.09504063407557842,0.04183856955740539,-0.09504063407557842,0.04183856955740539,right_arm__right_thigh,right_arm__right_thigh
11.646730123005536,0.0,0.0,0.0,0.0,1.5708,0.0,0.0,1.5708,2.6520403262531245e-06,0.011546798882138132,0.018061397295818824,0.3338432889741812,1.5802850844804384,0.018062814583141577,-0.333724753819865,1.5802864853396246,0.4730637600274707,0.16561060951136836,0.2950749468939228,-0.016456828261696088,0.04782670844917855,-0.016466778921413905,0.04779476321272075,-0.09503166281295383,0.04188809847838745,-0.09504063407557842,0.04183173215788827,-0.09504063407557842,0.04183173215788827,right_arm__right_thigh,right_arm__right_thigh
11.666730123005536,0.0,0.0,0.0,0.0,1.5708,0.0,0.0,1.5708,2.655795300359815e-06,0.01154295730536261,0.01805782491318938,0.333824948359949,1.5802831684539682,0.018059245620125272,-0.33370629598152496,1.5802845714929514,0.473037352614921,0.16561060951136836,0.2950681200465355,-0.016456828261696088,0.04782334979755326,-0.016466778921413905,0.047791382675024585,-0.09503166281295383,0.04188059520588869,-0.09504063407557842,0.04182418153341866,-0.09504063407557842,0.04182418153341866,right_arm__right_thigh,right_arm__right_thigh
11.686730123005535,0.0,0.0,0.0,0.0,1.5708,0.0,0.0,1.5708,2.6597112038217e-06,0.011539002104654411,0.0180541550492296,0.3338053925564615,1.580281201314974,0.018055579400277005,-0.33368662332467314,1.5802826066870006,0.4730092184431691,0.16561060951136836,0.295060842594593,-0.016456828261696088,0.04781976717128064,-0.016466778921413905,0.04778777821849731,-0.09503166281295383,0.04187260886703986,-0.09504063407557842,0.041816147913808416,-0.09504063407557842,0.041816147913808416,right_arm__right_thigh,right_arm__right_thigh
11.706730123005535,0.0,0.0,0.0,0.0,1.5708,0.0,0.0,1.5708,2.6634838931221065e-06,0.011535423494910565,0.01805082684550098,0.33378388763332245,1.5802794189206524,0.018052254516726506,-0.333664997569763,1.580280826436779,0.47297837365474327,0.16561060951136836,0.29505284253443603,-0.016456828261696088,0.047815820241733725,-0.016466778921413905,0.04778380870833665,-0.09503166281295383,0.04186389919165484,-0.09504063407557842,0.04180738942150636,-0.09504063407557842,0.04180738942150636,right_arm__right_thigh,right_arm__right_thigh
